;FLAVOR:Marlin
;TIME:2136
;Filament used: 1.34678m
;Layer height: 0.2
;MINX:60.908
;MINY:91.13
;MINZ:0.2
;MAXX:174.086
;MAXY:143.841
;MAXZ:2.6
;Generated with Cura_SteamEngine 5.0.0
M140 S60
M105
M190 S60
M104 S200
M105
M109 S200
M82 ;absolute extrusion mode
; Ender 3 Custom Start G-code
G92 E0 ; Reset Extruder
G28 ; Home all axes
G1 Z2.0 F3000 ; Move Z Axis up little to prevent scratching of Heat Bed
G1 X0.1 Y20 Z0.3 F5000.0 ; Move to start position
G1 X0.1 Y200.0 Z0.3 F1500.0 E15 ; Draw the first line
G1 X0.4 Y200.0 Z0.3 F5000.0 ; Move to side a little
G1 X0.4 Y20 Z0.3 F1500.0 E30 ; Draw the second line
G92 E0 ; Reset Extruder
G1 Z2.0 F3000 ; Move Z Axis up little to prevent scratching of Heat Bed
G1 X5 Y20 Z0.3 F5000.0 ; Move over to prevent blob squish
G92 E0
G92 E0
G1 F2700 E-5
;LAYER_COUNT:13
;LAYER:0
M107
G0 F6000 X65.431 Y93.25 Z0.2
G0 X60.908 Y102.812
;TYPE:SKIRT
G1 F2700 E0
G1 F1200 X60.91 Y102.109 E0.02338
G1 X60.953 Y101.172 E0.05458
G1 X61.075 Y100.242 E0.08578
G1 X61.276 Y99.326 E0.11697
G1 X61.554 Y98.43 E0.14817
G1 X61.908 Y97.562 E0.17935
G1 X62.334 Y96.726 E0.21056
G1 X62.83 Y95.93 E0.24175
G1 X63.392 Y95.179 E0.27295
G1 X64.016 Y94.479 E0.30414
G1 X64.698 Y93.835 E0.33534
G1 X65.431 Y93.25 E0.36653
G1 X66.212 Y92.731 E0.39772
G1 X67.034 Y92.28 E0.4289
G1 X67.892 Y91.9 E0.46011
G1 X68.779 Y91.595 E0.49131
G1 X69.688 Y91.367 E0.52248
G1 X70.614 Y91.217 E0.55368
G1 X71.74 Y91.141 E0.59122
G1 X72.558 Y91.13 E0.61843
G1 X162.392 Y91.13 E3.60632
G1 X163.244 Y91.141 E3.63466
G1 X164.181 Y91.195 E3.66587
G1 X165.109 Y91.328 E3.69705
G1 X166.023 Y91.539 E3.72825
G1 X166.915 Y91.828 E3.75944
G1 X167.78 Y92.192 E3.79065
G1 X168.61 Y92.628 E3.82184
G1 X169.4 Y93.133 E3.85302
G1 X170.145 Y93.703 E3.88422
G1 X170.838 Y94.335 E3.91542
G1 X171.474 Y95.024 E3.9466
G1 X172.05 Y95.764 E3.97779
G1 X172.56 Y96.551 E4.00898
G1 X173.002 Y97.379 E4.0402
G1 X173.372 Y98.241 E4.0714
G1 X173.666 Y99.131 E4.10258
G1 X173.884 Y100.043 E4.13376
G1 X174.024 Y100.971 E4.16498
G1 X174.086 Y102.14 E4.20391
G1 X174.084 Y103.091 E4.23554
G1 X174.069 Y103.913 E4.26289
G1 X174.01 Y105.686 E4.32189
G1 X173.96 Y106.67 E4.35466
G1 X173.795 Y109.001 E4.43238
G1 X173.649 Y110.503 E4.48258
G1 X173.574 Y111.162 E4.50464
G1 X173.338 Y113.009 E4.56657
G1 X173.207 Y113.92 E4.59718
G1 X172.907 Y115.761 E4.65922
G1 X172.611 Y117.334 E4.71246
G1 X172.29 Y118.83 E4.76335
G1 X171.816 Y120.796 E4.83061
G1 X171.32 Y122.605 E4.893
G1 X170.872 Y124.071 E4.94398
G1 X170.26 Y125.869 E5.00715
G1 X170.119 Y126.257 E5.02088
G1 X169.538 Y127.761 E5.07451
G1 X169.381 Y128.146 E5.08834
G1 X168.766 Y129.562 E5.13969
G1 X168.434 Y130.266 E5.16557
G1 X167.939 Y131.258 E5.20245
G1 X167.704 Y131.703 E5.21918
G1 X167.243 Y132.53 E5.25068
G1 X167.004 Y132.938 E5.2664
G1 X166.157 Y134.303 E5.31983
G1 X165.833 Y134.785 E5.33915
G1 X165.308 Y135.524 E5.3693
G1 X164.974 Y135.972 E5.38789
G1 X164.532 Y136.527 E5.41148
G1 X163.783 Y137.407 E5.44992
G1 X163.337 Y137.899 E5.47201
G1 X162.823 Y138.422 E5.4964
G1 X162.305 Y138.922 E5.52034
G1 X161.755 Y139.419 E5.545
G1 X161.354 Y139.757 E5.56244
G1 X160.799 Y140.195 E5.58596
G1 X160.279 Y140.579 E5.60746
G1 X159.746 Y140.949 E5.62904
G1 X159.365 Y141.197 E5.64416
G1 X158.644 Y141.628 E5.67209
G1 X158.125 Y141.912 E5.69177
G1 X157.469 Y142.243 E5.71621
G1 X156.85 Y142.518 E5.73874
G1 X156.451 Y142.682 E5.75309
G1 X155.435 Y143.043 E5.78895
G1 X154.856 Y143.217 E5.80906
G1 X153.656 Y143.505 E5.8501
G1 X153.001 Y143.624 E5.87224
G1 X151.971 Y143.762 E5.90681
G1 X151.331 Y143.805 E5.92814
G1 X150.488 Y143.833 E5.9562
G1 X149.753 Y143.841 E5.98064
G1 X85.178 Y143.838 E8.12842
G1 X84.054 Y143.82 E8.16581
G1 X83.712 Y143.807 E8.17719
G1 X82.647 Y143.715 E8.21274
G1 X82.081 Y143.638 E8.23174
G1 X80.809 Y143.387 E8.27487
G1 X80.121 Y143.209 E8.2985
G1 X78.935 Y142.83 E8.33991
G1 X78.246 Y142.555 E8.36459
G1 X77.782 Y142.354 E8.38141
G1 X76.952 Y141.952 E8.41208
G1 X76.284 Y141.587 E8.4374
G1 X76.02 Y141.434 E8.44755
G1 X75.425 Y141.063 E8.47087
G1 X74.982 Y140.767 E8.48859
G1 X74.218 Y140.208 E8.52008
G1 X73.586 Y139.702 E8.547
G1 X73.041 Y139.236 E8.57085
G1 X72.543 Y138.781 E8.59329
G1 X71.997 Y138.246 E8.61871
G1 X71.479 Y137.695 E8.64387
G1 X71.056 Y137.224 E8.66492
G1 X70.721 Y136.833 E8.68205
G1 X70.324 Y136.347 E8.70292
G1 X69.989 Y135.916 E8.72108
G1 X69.286 Y134.95 E8.76081
G1 X68.875 Y134.349 E8.78503
G1 X68.624 Y133.965 E8.80029
G1 X68.025 Y132.994 E8.83823
G1 X67.569 Y132.197 E8.86877
G1 X67.015 Y131.16 E8.90788
G1 X66.382 Y129.88 E8.95537
G1 X66.026 Y129.098 E8.98395
G1 X65.411 Y127.645 E9.03643
G1 X65.001 Y126.592 E9.07401
G1 X64.515 Y125.232 E9.12205
G1 X63.892 Y123.305 E9.18941
G1 X63.754 Y122.844 E9.20541
G1 X63.168 Y120.718 E9.27876
G1 X63.068 Y120.326 E9.29221
G1 X62.613 Y118.39 E9.35836
G1 X62.314 Y116.955 E9.40711
G1 X61.945 Y114.883 E9.47711
G1 X61.741 Y113.605 E9.52016
G1 X61.54 Y112.124 E9.56987
G1 X61.372 Y110.713 E9.61713
G1 X61.208 Y109.072 E9.67198
G1 X61.095 Y107.565 E9.72224
G1 X60.995 Y105.786 E9.78151
G1 X60.954 Y104.77 E9.81533
G1 X60.908 Y102.812 E9.88047
G0 F6000 X61.308 Y102.813
G1 F1200 X61.31 Y102.11 E9.90385
G1 X61.353 Y101.19 E9.93448
G1 X61.475 Y100.278 E9.96509
G1 X61.676 Y99.379 E9.99573
G1 X61.954 Y98.502 E10.02633
G1 X62.307 Y97.651 E10.05697
G1 X62.733 Y96.835 E10.08758
G1 X63.228 Y96.059 E10.1182
G1 X63.788 Y95.328 E10.14883
G1 X64.41 Y94.649 E10.17945
G1 X65.088 Y94.027 E10.21006
G1 X65.818 Y93.465 E10.2407
G1 X66.594 Y92.97 E10.27131
G1 X67.409 Y92.543 E10.30191
G1 X68.259 Y92.189 E10.33254
G1 X69.137 Y91.909 E10.36319
G1 X70.035 Y91.707 E10.3938
G1 X70.947 Y91.584 E10.42441
G1 X71.746 Y91.541 E10.45102
G1 X72.558 Y91.53 E10.47803
G1 X162.392 Y91.53 E13.46592
G1 X163.239 Y91.541 E13.4941
G1 X164.158 Y91.594 E13.52472
G1 X165.069 Y91.727 E13.55534
G1 X165.965 Y91.938 E13.58595
G1 X166.839 Y92.227 E13.61657
G1 X167.685 Y92.59 E13.64719
G1 X168.497 Y93.025 E13.67783
G1 X169.267 Y93.529 E13.70844
G1 X169.991 Y94.098 E13.73906
G1 X170.663 Y94.727 E13.76968
G1 X171.278 Y95.413 E13.80032
G1 X171.83 Y96.149 E13.83092
G1 X172.317 Y96.93 E13.86153
G1 X172.735 Y97.751 E13.89217
G1 X173.079 Y98.605 E13.9228
G1 X173.348 Y99.485 E13.9534
G1 X173.54 Y100.385 E13.98401
G1 X173.653 Y101.299 E14.01464
G1 X173.686 Y102.14 E14.04263
G1 X173.684 Y103.084 E14.07403
G1 X173.669 Y103.9 E14.10118
G1 X173.61 Y105.666 E14.15995
G1 X173.561 Y106.642 E14.19245
G1 X173.396 Y108.963 E14.26984
G1 X173.252 Y110.458 E14.3198
G1 X173.178 Y111.112 E14.34169
G1 X172.942 Y112.952 E14.40339
G1 X172.812 Y113.856 E14.43376
G1 X172.514 Y115.688 E14.4955
G1 X172.22 Y117.251 E14.54839
G1 X171.9 Y118.738 E14.59898
G1 X171.43 Y120.691 E14.6658
G1 X170.937 Y122.488 E14.72777
G1 X170.489 Y123.954 E14.77876
G1 X169.882 Y125.739 E14.84147
G1 X169.746 Y126.113 E14.8547
G1 X169.165 Y127.617 E14.90833
G1 X169.013 Y127.988 E14.92166
G1 X168.403 Y129.393 E14.97261
G1 X168.076 Y130.088 E14.99815
G1 X167.581 Y131.08 E15.03503
G1 X167.355 Y131.508 E15.05113
G1 X166.894 Y132.335 E15.08262
G1 X166.663 Y132.728 E15.09778
G1 X165.824 Y134.082 E15.15076
G1 X165.506 Y134.555 E15.16971
G1 X164.987 Y135.285 E15.19951
G1 X164.653 Y135.733 E15.21809
G1 X164.227 Y136.267 E15.24081
G1 X163.478 Y137.147 E15.27925
G1 X163.049 Y137.622 E15.30054
G1 X162.546 Y138.135 E15.32443
G1 X162.028 Y138.635 E15.34838
G1 X161.498 Y139.113 E15.37211
G1 X161.097 Y139.451 E15.38956
G1 X160.562 Y139.873 E15.41222
G1 X160.042 Y140.257 E15.43372
G1 X159.528 Y140.614 E15.45454
G1 X159.147 Y140.862 E15.46966
G1 X158.452 Y141.277 E15.49658
G1 X157.933 Y141.561 E15.51626
G1 X157.301 Y141.88 E15.5398
G1 X156.698 Y142.148 E15.56175
G1 X156.299 Y142.312 E15.5761
G1 X155.32 Y142.66 E15.61066
G1 X154.741 Y142.834 E15.63076
G1 X153.585 Y143.111 E15.6703
G1 X152.93 Y143.23 E15.69244
G1 X151.932 Y143.364 E15.72594
G1 X151.316 Y143.405 E15.74647
G1 X150.484 Y143.433 E15.77416
G1 X149.753 Y143.441 E15.79847
G1 X85.184 Y143.438 E17.94605
G1 X84.069 Y143.42 E17.98314
G1 X83.727 Y143.407 E17.99452
G1 X82.701 Y143.318 E18.02877
G1 X82.135 Y143.241 E18.04777
G1 X80.909 Y143 E18.08933
G1 X80.221 Y142.822 E18.11296
G1 X79.079 Y142.456 E18.15285
G1 X78.405 Y142.188 E18.17697
G1 X77.941 Y141.987 E18.19379
G1 X77.141 Y141.6 E18.22335
G1 X76.485 Y141.241 E18.24822
G1 X76.221 Y141.088 E18.25837
G1 X75.647 Y140.731 E18.28085
G1 X75.204 Y140.435 E18.29858
G1 X74.468 Y139.896 E18.32892
G1 X73.836 Y139.39 E18.35584
G1 X73.311 Y138.941 E18.37882
G1 X72.813 Y138.486 E18.40126
G1 X72.287 Y137.97 E18.42576
G1 X71.777 Y137.428 E18.45052
G1 X71.354 Y136.957 E18.47157
G1 X71.031 Y136.58 E18.48808
G1 X70.634 Y136.094 E18.50896
G1 X70.311 Y135.678 E18.52647
G1 X69.616 Y134.725 E18.5657
G1 X69.205 Y134.124 E18.58992
G1 X68.963 Y133.753 E18.60465
G1 X68.372 Y132.794 E18.64212
G1 X67.921 Y132.006 E18.67232
G1 X67.373 Y130.981 E18.71098
G1 X66.745 Y129.713 E18.75804
G1 X66.394 Y128.94 E18.78628
G1 X65.783 Y127.498 E18.83837
G1 X65.377 Y126.456 E18.87556
G1 X64.896 Y125.109 E18.92313
G1 X64.273 Y123.182 E18.99049
G1 X64.14 Y122.738 E19.00591
G1 X63.554 Y120.612 E19.07925
G1 X63.457 Y120.234 E19.09223
G1 X63.005 Y118.306 E19.1581
G1 X62.708 Y116.884 E19.20641
G1 X62.339 Y114.819 E19.27618
G1 X62.137 Y113.551 E19.31889
G1 X61.937 Y112.076 E19.3684
G1 X61.77 Y110.672 E19.41542
G1 X61.607 Y109.042 E19.46991
G1 X61.494 Y107.543 E19.51991
G1 X61.394 Y105.769 E19.579
G1 X61.353 Y104.76 E19.61259
G1 X61.308 Y102.813 E19.67737
G0 F6000 X61.708 Y102.814
G1 F1200 X61.71 Y102.111 E19.70075
G1 X61.753 Y101.209 E19.73078
G1 X61.875 Y100.314 E19.76083
G1 X62.076 Y99.434 E19.79085
G1 X62.354 Y98.574 E19.82091
G1 X62.706 Y97.743 E19.85093
G1 X63.131 Y96.946 E19.88097
G1 X63.625 Y96.19 E19.91101
G1 X64.184 Y95.481 E19.94103
G1 X64.803 Y94.823 E19.97108
G1 X65.478 Y94.223 E20.00112
G1 X66.204 Y93.685 E20.03117
G1 X66.974 Y93.214 E20.0612
G1 X67.783 Y92.812 E20.09124
G1 X68.624 Y92.484 E20.12127
G1 X69.491 Y92.231 E20.1513
G1 X70.377 Y92.056 E20.18134
G1 X71.275 Y91.96 E20.21138
G1 X71.753 Y91.941 E20.22729
G1 X72.558 Y91.93 E20.25407
G1 X162.392 Y91.93 E23.24196
G1 X163.233 Y91.941 E23.26993
G1 X164.135 Y91.994 E23.29999
G1 X165.028 Y92.127 E23.33001
G1 X165.906 Y92.338 E23.36005
G1 X166.762 Y92.625 E23.39008
G1 X167.589 Y92.988 E23.42012
G1 X168.381 Y93.422 E23.45015
G1 X169.131 Y93.925 E23.48019
G1 X169.834 Y94.492 E23.51023
G1 X170.484 Y95.118 E23.54024
G1 X171.077 Y95.8 E23.5703
G1 X171.606 Y96.532 E23.60034
G1 X172.069 Y97.308 E23.6304
G1 X172.461 Y98.121 E23.66042
G1 X172.78 Y98.966 E23.69046
G1 X173.022 Y99.836 E23.72049
G1 X173.187 Y100.724 E23.75053
G1 X173.273 Y101.623 E23.78057
G1 X173.286 Y102.14 E23.79777
G1 X173.285 Y103.078 E23.82897
G1 X173.27 Y103.887 E23.85588
G1 X173.211 Y105.647 E23.91445
G1 X173.162 Y106.615 E23.94669
G1 X172.998 Y108.925 E24.02371
G1 X172.854 Y110.414 E24.07347
G1 X172.781 Y111.061 E24.09512
G1 X172.546 Y112.895 E24.15662
G1 X172.417 Y113.793 E24.1868
G1 X172.121 Y115.615 E24.24819
G1 X171.828 Y117.168 E24.30075
G1 X171.511 Y118.645 E24.351
G1 X171.044 Y120.587 E24.41743
G1 X170.555 Y122.371 E24.47896
G1 X170.107 Y123.837 E24.52994
G1 X169.504 Y125.609 E24.5922
G1 X169.373 Y125.969 E24.60494
G1 X168.792 Y127.473 E24.65856
G1 X168.646 Y127.83 E24.67139
G1 X168.041 Y129.224 E24.72194
G1 X167.718 Y129.909 E24.74713
G1 X167.223 Y130.901 E24.784
G1 X167.005 Y131.313 E24.7995
G1 X166.544 Y132.14 E24.83099
G1 X166.323 Y132.518 E24.84556
G1 X165.49 Y133.861 E24.89812
G1 X165.178 Y134.325 E24.91672
G1 X164.666 Y135.046 E24.94613
G1 X164.332 Y135.494 E24.96471
G1 X163.922 Y136.008 E24.98658
G1 X163.173 Y136.888 E25.02502
G1 X162.76 Y137.345 E25.04551
G1 X162.268 Y137.847 E25.06888
G1 X161.75 Y138.347 E25.09283
G1 X161.24 Y138.807 E25.11567
G1 X160.839 Y139.145 E25.13312
G1 X160.324 Y139.551 E25.15493
G1 X159.804 Y139.935 E25.17643
G1 X159.309 Y140.279 E25.19648
G1 X158.928 Y140.527 E25.2116
G1 X158.26 Y140.926 E25.23748
G1 X157.741 Y141.21 E25.25715
G1 X157.133 Y141.517 E25.27981
G1 X156.546 Y141.778 E25.30117
G1 X156.147 Y141.942 E25.31552
G1 X155.205 Y142.276 E25.34876
G1 X154.626 Y142.45 E25.36887
G1 X153.513 Y142.718 E25.40695
G1 X152.858 Y142.837 E25.42909
G1 X151.894 Y142.966 E25.46144
G1 X151.301 Y143.006 E25.48121
G1 X150.479 Y143.033 E25.50856
G1 X149.753 Y143.041 E25.53271
G1 X85.189 Y143.038 E27.68012
G1 X84.085 Y143.021 E27.71684
G1 X83.743 Y143.008 E27.72822
G1 X82.755 Y142.922 E27.76121
G1 X82.189 Y142.845 E27.78021
G1 X81.009 Y142.613 E27.82021
G1 X80.321 Y142.435 E27.84384
G1 X79.222 Y142.083 E27.88223
G1 X78.564 Y141.821 E27.90578
G1 X78.1 Y141.62 E27.9226
G1 X77.33 Y141.247 E27.95106
G1 X76.685 Y140.895 E27.9755
G1 X76.421 Y140.742 E27.98565
G1 X75.869 Y140.398 E28.00728
G1 X75.426 Y140.102 E28.025
G1 X74.718 Y139.583 E28.0542
G1 X74.086 Y139.077 E28.08112
G1 X73.581 Y138.645 E28.10323
G1 X73.083 Y138.19 E28.12566
G1 X72.577 Y137.694 E28.14923
G1 X72.074 Y137.16 E28.17363
G1 X71.651 Y136.689 E28.19469
G1 X71.341 Y136.327 E28.21054
G1 X70.944 Y135.841 E28.23141
G1 X70.633 Y135.441 E28.24826
G1 X69.946 Y134.499 E28.28704
G1 X69.535 Y133.898 E28.31126
G1 X69.302 Y133.541 E28.32543
G1 X68.718 Y132.594 E28.36244
G1 X68.273 Y131.816 E28.39225
G1 X67.731 Y130.803 E28.43046
G1 X67.108 Y129.546 E28.47712
G1 X66.762 Y128.783 E28.50499
G1 X66.155 Y127.352 E28.55669
G1 X65.753 Y126.32 E28.59352
G1 X65.277 Y124.986 E28.64063
G1 X64.654 Y123.059 E28.70799
G1 X64.526 Y122.631 E28.72285
G1 X63.94 Y120.505 E28.7962
G1 X63.847 Y120.142 E28.80866
G1 X63.396 Y118.223 E28.87423
G1 X63.102 Y116.814 E28.9221
G1 X62.734 Y114.755 E28.99167
G1 X62.533 Y113.497 E29.03404
G1 X62.334 Y112.028 E29.08335
G1 X62.168 Y110.632 E29.1301
G1 X62.006 Y109.011 E29.18429
G1 X61.894 Y107.52 E29.23402
G1 X61.794 Y105.753 E29.29288
G1 X61.753 Y104.75 E29.32627
G1 X61.708 Y102.814 E29.39068
G1 F2700 E24.39068
;MESH:Arm Upper Lid.STL
G0 F6000 X72.909 Y117.095
G0 X73.978 Y116.862
G0 X77.546 Y125.056
G0 X78.23 Y126.367
G0 X79.487 Y128.332
G0 X80.822 Y129.879
G0 X82.112 Y130.92
G0 X82.763 Y131.234
G0 X84.714 Y132.13
G1 F2700 E29.39068
G0 F6000 X84.713 Y132.639
;TYPE:WALL-OUTER
G1 F1200 X150.356 Y132.64 E31.57397
G1 X150.998 Y132.613 E31.59535
G1 X151.591 Y132.511 E31.61536
G1 X152.09 Y132.364 E31.63266
G1 X152.325 Y132.274 E31.64103
G1 X152.767 Y132.087 E31.65699
G1 X153.345 Y131.767 E31.67897
G1 X153.755 Y131.486 E31.6955
G1 X154.105 Y131.233 E31.70986
G1 X154.708 Y130.71 E31.73641
G1 X155.306 Y130.104 E31.76473
G1 X155.624 Y129.745 E31.78068
G1 X156.031 Y129.244 E31.80215
G1 X156.661 Y128.375 E31.83785
G1 X157.192 Y127.549 E31.87051
G1 X157.623 Y126.813 E31.89888
G1 X157.784 Y126.516 E31.91011
G1 X158.22 Y125.675 E31.94162
G1 X158.548 Y124.987 E31.96697
G1 X158.846 Y124.324 E31.99115
G1 X159.419 Y122.932 E32.04121
G1 X159.894 Y121.625 E32.08747
G1 X160.408 Y120.037 E32.14298
G1 X160.823 Y118.581 E32.19334
G1 X161.228 Y116.982 E32.2482
G1 X161.558 Y115.491 E32.29899
G1 X161.762 Y114.465 E32.33378
G1 X161.796 Y114.283 E32.33994
G1 X162.046 Y112.847 E32.38842
G1 X162.371 Y110.59 E32.46426
G1 X162.59 Y108.595 E32.53102
G1 X162.745 Y106.722 E32.59353
G1 X162.862 Y104.322 E32.67344
G1 X162.895 Y102.331 E32.73967
G1 X72.102 Y102.33 E35.75946
G1 X72.119 Y103.744 E35.8065
G1 X72.218 Y106.119 E35.88556
G1 X72.355 Y108.003 E35.94838
G1 X72.406 Y108.568 E35.96725
G1 X72.579 Y110.171 E36.02088
G1 X72.826 Y112.03 E36.08325
G1 X72.894 Y112.481 E36.09842
G1 X73.303 Y114.808 E36.177
G1 X73.396 Y115.269 E36.19265
G1 X73.754 Y116.908 E36.24845
G1 X74.262 Y118.902 E36.31688
G1 X74.841 Y120.831 E36.38387
G1 X75.374 Y122.366 E36.43792
G1 X75.715 Y123.267 E36.46996
G1 X76.032 Y124.041 E36.49778
G1 X76.571 Y125.247 E36.54171
G1 X76.694 Y125.499 E36.55104
G1 X77.372 Y126.804 E36.59995
G1 X78.03 Y127.901 E36.6425
G1 X78.387 Y128.445 E36.66414
G1 X78.658 Y128.822 E36.67958
G1 X78.878 Y129.117 E36.69182
G1 X79.147 Y129.468 E36.70653
G1 X79.753 Y130.164 E36.73722
G1 X80.27 Y130.687 E36.76168
G1 X80.484 Y130.883 E36.77134
G1 X81.157 Y131.433 E36.80024
G1 X81.608 Y131.739 E36.81837
G1 X82.234 Y132.087 E36.84219
G1 X82.95 Y132.386 E36.868
