;FLAVOR:Marlin
;TIME:6374
;Filament used: 5.42654m
;Layer height: 0.2
;MINX:56.25
;MINY:48.795
;MINZ:0.24
;MAXX:178.746
;MAXY:130.806
;MAXZ:3.69
;Generated with Cura_SteamEngine 5.0.0
M140 S50
M105
M190 S50
M104 S200
M105
M109 S200
M82 ;absolute extrusion mode
; Ender 3 Custom Start G-code
G92 E0 ; Reset Extruder
G28 ; Home all axes
G1 Z2.0 F3000 ; Move Z Axis up little to prevent scratching of Heat Bed
G1 X0.1 Y20 Z0.3 F5000.0 ; Move to start position
G1 X0.1 Y200.0 Z0.3 F1500.0 E15 ; Draw the first line
G1 X0.4 Y200.0 Z0.3 F5000.0 ; Move to side a little
G1 X0.4 Y20 Z0.3 F1500.0 E30 ; Draw the second line
G92 E0 ; Reset Extruder
G1 Z2.0 F3000 ; Move Z Axis up little to prevent scratching of Heat Bed
G1 X5 Y20 Z0.3 F5000.0 ; Move over to prevent blob squish
G92 E0
G92 E0
G1 F2700 E-5
;LAYER_COUNT:13
;LAYER:-6
M107
G0 F9000 X63.324 Y55.767 Z0.24
;TYPE:SUPPORT-INTERFACE
G1 F2700 E0
G1 F1125 X62.734 Y56.63 E0.08345
G1 X62.593 Y56.864 E0.10526
G1 X62.2 Y57.55 E0.16837
G1 X62.063 Y57.817 E0.19232
G1 X61.723 Y58.525 E0.25502
G1 X61.496 Y59.089 E0.30355
G1 X61.31 Y59.562 E0.34412
G1 X61.112 Y60.117 E0.39115
G1 X60.385 Y62.389 E0.58157
G1 X60.217 Y62.954 E0.62863
G1 X59.748 Y64.66 E0.76986
G1 X59.272 Y66.602 E0.92947
G1 X59.159 Y67.098 E0.97007
G1 X58.713 Y69.27 E1.14707
G1 X58.61 Y69.815 E1.19134
G1 X58.261 Y71.887 E1.35907
G1 X58.186 Y72.377 E1.39864
G1 X57.929 Y74.292 E1.55287
G1 X57.873 Y74.737 E1.58867
G1 X57.834 Y75.056 E1.61433
G1 X57.616 Y77.231 E1.78882
G1 X57.577 Y77.69 E1.82559
G1 X57.562 Y77.934 E1.8451
G1 X57.426 Y79.912 E2.00337
G1 X57.401 Y80.39 E2.04158
G1 X57.324 Y82.555 E2.2145
G1 X57.313 Y83.08 E2.25642
G1 X57.308 Y85.353 E2.43786
G1 X57.315 Y85.841 E2.47682
G1 X57.402 Y88.478 E2.68743
G1 X57.499 Y90.138 E2.82017
G1 X57.736 Y92.88 E3.03986
G1 X57.791 Y93.397 E3.08136
G1 X58.041 Y95.427 E3.24463
G1 X58.133 Y96.112 E3.2998
G1 X58.435 Y98.05 E3.45637
G1 X58.572 Y98.835 E3.51998
G1 X59.084 Y101.396 E3.72845
G1 X59.326 Y102.486 E3.81758
G1 X59.796 Y104.371 E3.97265
G1 X60.154 Y105.689 E4.08168
G1 X60.517 Y106.916 E4.18382
G1 X60.666 Y107.384 E4.22302
G1 X61.262 Y109.159 E4.37248
G1 X61.478 Y109.761 E4.42354
G1 X62.005 Y111.131 E4.54071
G1 X62.42 Y112.154 E4.62883
G1 X62.614 Y112.602 E4.6678
G1 X63.09 Y113.649 E4.75961
G1 X63.379 Y114.249 E4.81277
G1 X64.033 Y115.536 E4.92801
G1 X64.451 Y116.305 E4.99788
G1 X65.12 Y117.455 E5.10408
G1 X65.659 Y118.327 E5.18591
G1 X65.993 Y118.833 E5.23431
G1 X66.331 Y119.322 E5.28176
G1 X66.549 Y119.632 E5.31201
G1 X66.748 Y119.909 E5.33923
G1 X67.142 Y120.436 E5.39176
G1 X67.721 Y121.172 E5.46651
G1 X68.438 Y122.013 E5.55473
G1 X69.013 Y122.64 E5.62264
G1 X69.597 Y123.243 E5.68965
G1 X70.173 Y123.809 E5.75411
G1 X70.879 Y124.437 E5.82953
G1 X71.579 Y125.021 E5.9023
G1 X72.648 Y125.837 E6.00965
G1 X73.119 Y126.163 E6.05538
G1 X74.328 Y126.921 E6.16929
G1 X75.084 Y127.341 E6.23832
G1 X76.393 Y127.98 E6.3546
G1 X77.019 Y128.25 E6.40902
G1 X77.914 Y128.6 E6.48573
G1 X79.204 Y129.001 E6.59356
G1 X79.842 Y129.168 E6.6462
G1 X80.53 Y129.329 E6.70261
G1 X81.627 Y129.518 E6.79146
G1 X82.281 Y129.604 E6.84412
G1 X82.824 Y129.665 E6.88774
G1 X83.942 Y129.726 E6.97711
G1 X84.594 Y129.737 E7.02917
G1 X137.395 Y129.739 E11.24397
G1 X150.411 Y129.741 E12.28296
G1 X151.183 Y129.72 E12.34461
G1 X151.884 Y129.683 E12.40065
G1 X152.531 Y129.632 E12.45245
G1 X153.662 Y129.478 E12.54357
G1 X154.703 Y129.283 E12.62811
G1 X155.79 Y129.005 E12.71767
G1 X156.442 Y128.811 E12.77197
G1 X157.021 Y128.623 E12.82056
G1 X157.693 Y128.364 E12.87805
G1 X158.033 Y128.231 E12.9072
G1 X158.639 Y127.97 E12.95986
G1 X159.434 Y127.601 E13.02983
G1 X160.399 Y127.079 E13.11741
G1 X161.048 Y126.699 E13.17744
G1 X162.302 Y125.871 E13.29739
G1 X162.921 Y125.417 E13.35867
G1 X163.928 Y124.607 E13.46183
G1 X164.582 Y124.031 E13.53139
G1 X165.167 Y123.484 E13.59532
G1 X165.43 Y123.225 E13.62479
G1 X165.987 Y122.644 E13.68904
G1 X166.694 Y121.863 E13.77313
G1 X167.411 Y121.008 E13.8622
G1 X167.946 Y120.32 E13.93177
G1 X168.463 Y119.617 E14.00143
G1 X169.116 Y118.669 E14.09332
G1 X169.389 Y118.259 E14.13264
G1 X169.846 Y117.521 E14.20193
G1 X170.528 Y116.351 E14.31003
G1 X170.952 Y115.575 E14.38062
G1 X171.505 Y114.495 E14.47747
G1 X171.804 Y113.878 E14.5322
G1 X172.413 Y112.539 E14.64962
G1 X172.645 Y111.996 E14.69676
G1 X173.16 Y110.724 E14.8063
G1 X173.344 Y110.243 E14.84741
G1 X173.888 Y108.738 E14.97515
G1 X174.072 Y108.203 E15.02031
G1 X174.597 Y106.538 E15.15967
G1 X174.995 Y105.166 E15.27371
G1 X175.276 Y104.114 E15.36063
G1 X175.789 Y101.995 E15.53466
G1 X175.904 Y101.477 E15.57702
G1 X176.285 Y99.61 E15.72912
G1 X176.371 Y99.151 E15.7664
G1 X176.669 Y97.392 E15.90881
G1 X176.743 Y96.962 E15.94364
G1 X176.922 Y95.749 E16.04151
G1 X177.262 Y92.912 E16.26959
G1 X177.313 Y92.409 E16.30995
G1 X177.491 Y90.27 E16.48129
G1 X177.617 Y88.128 E16.65257
G1 X177.678 Y86.242 E16.80319
G1 X177.69 Y83.401 E17.02998
G1 X177.687 Y83.101 E17.05392
G1 X177.682 Y82.824 E17.07604
G1 X177.607 Y80.612 E17.25271
G1 X177.498 Y78.684 E17.40686
G1 X177.427 Y77.725 E17.48362
G1 X177.406 Y77.461 E17.50476
G1 X177.267 Y75.968 E17.62445
G1 X176.972 Y73.484 E17.82413
G1 X176.896 Y72.925 E17.86916
G1 X176.524 Y70.558 E18.06043
G1 X176.423 Y69.988 E18.10663
G1 X175.969 Y67.687 E18.29385
G1 X175.872 Y67.235 E18.33075
G1 X175.513 Y65.688 E18.45752
G1 X175.201 Y64.462 E18.55851
G1 X174.632 Y62.434 E18.72664
G1 X174.44 Y61.807 E18.77899
G1 X173.913 Y60.207 E18.91345
G1 X173.814 Y59.911 E18.93837
G1 X173.393 Y58.792 E19.03381
G1 X173.141 Y58.241 E19.08217
G1 X172.944 Y57.821 E19.1192
G1 X172.429 Y56.891 E19.20406
G1 X171.852 Y56.011 E19.28806
G1 X171.693 Y55.796 E19.3094
G1 X171.088 Y55.02 E19.38795
G1 X170.374 Y54.234 E19.47271
G1 X169.725 Y53.607 E19.54475
G1 X168.912 Y52.923 E19.62956
G1 X168.417 Y52.563 E19.67842
G1 X168.065 Y52.311 E19.71297
G1 X167.811 Y52.149 E19.73702
G1 X167 Y51.66 E19.81261
G1 X166.209 Y51.253 E19.88362
G1 X165.943 Y51.133 E19.90692
G1 X165.232 Y50.831 E19.96858
G1 X164.939 Y50.723 E19.99351
G1 X164.225 Y50.482 E20.05366
G1 X163.959 Y50.406 E20.07574
G1 X163.027 Y50.166 E20.15257
G1 X162.145 Y50.003 E20.22416
G1 X161.071 Y49.878 E20.31047
G1 X159.939 Y49.831 E20.40091
G1 X97.601 Y49.832 E25.377
G1 X75.309 Y49.831 E27.15645
G1 X75.025 Y49.832 E27.17912
G1 X74.048 Y49.87 E27.25716
G1 X73.164 Y49.96 E27.32809
G1 X72.91 Y49.998 E27.34859
G1 X72.121 Y50.135 E27.41252
G1 X71.094 Y50.384 E27.49687
G1 X70.066 Y50.717 E27.58313
G1 X69.062 Y51.128 E27.66973
G1 X68.107 Y51.602 E27.75483
G1 X67.218 Y52.129 E27.83733
G1 X66.959 Y52.301 E27.86215
G1 X66.33 Y52.743 E27.92351
G1 X66.114 Y52.91 E27.94531
G1 X65.503 Y53.408 E28.00823
G1 X65.3 Y53.592 E28.0301
G1 X64.597 Y54.266 E28.10784
G1 X63.892 Y55.046 E28.19177
G1 X63.324 Y55.767 E28.26504
G0 F9000 X63.298 Y56.51
G1 F1125 X136.126 Y129.338 E36.48649
G0 F9000 X133.863 Y129.338
G1 F1125 X62.456 Y57.931 E44.54753
G0 F9000 X61.762 Y59.5
G1 F1125 X131.601 Y129.338 E52.4315
G0 F9000 X129.337 Y129.337
G1 F1125 X61.188 Y61.188 E60.12475
G0 F9000 X60.647 Y62.909
G1 F1125 X127.074 Y129.337 E67.62366
G0 F9000 X124.811 Y129.336
G1 F1125 X60.155 Y64.681 E74.92253
G0 F9000 X59.712 Y66.5
G1 F1125 X122.548 Y129.336 E82.016
G0 F9000 X120.285 Y129.336
G1 F1125 X59.309 Y68.36 E88.8995
G0 F9000 X58.945 Y70.258
G1 F1125 X118.022 Y129.336 E95.56868
G0 F9000 X115.759 Y129.335
G1 F1125 X58.619 Y72.195 E102.01914
G0 F9000 X58.349 Y74.188
G1 F1125 X113.496 Y129.335 E108.24461
G0 F9000 X111.232 Y129.334
G1 F1125 X58.12 Y76.222 E114.24035
G0 F9000 X57.936 Y78.301
G1 F1125 X108.97 Y129.334 E120.00145
G0 F9000 X106.706 Y129.334
G1 F1125 X57.803 Y80.43 E125.5221
G0 F9000 X57.725 Y82.615
G1 F1125 X104.443 Y129.334 E130.79609
G0 F9000 X102.18 Y129.333
G1 F1125 X57.711 Y84.864 E135.81613
G0 F9000 X57.76 Y87.176
G1 F1125 X99.917 Y129.333 E140.57518
G0 F9000 X97.654 Y129.332
G1 F1125 X57.864 Y89.543 E145.06696
G0 F9000 X58.061 Y92.002
G1 F1125 X95.391 Y129.332 E149.28109
G0 F9000 X93.128 Y129.331
G1 F1125 X58.336 Y94.54 E153.20866
G0 F9000 X58.703 Y97.169
G1 F1125 X90.865 Y129.331 E156.83938
G0 F9000 X88.601 Y129.331
G1 F1125 X59.197 Y99.926 E160.15882
G0 F9000 X59.819 Y102.811
G1 F1125 X86.339 Y129.331 E163.15263
G0 F9000 X84.072 Y129.327
G1 F1125 X60.63 Y105.884 E165.79902
G0 F9000 X61.717 Y109.235
G1 F1125 X81.585 Y129.103 E168.04189
G0 F9000 X78.618 Y128.398
G1 F1125 X63.247 Y113.027 E169.7771
G1 F2700 E164.7771
G0 F9000 X62.123 Y114.096
G0 X63.269 Y116.331
G0 X64.488 Y118.467
G0 X65.879 Y117.922
G1 F2700 E169.7771
G1 F1125 X74.534 Y126.577 E170.75415
G1 F2700 E165.75415
G0 F9000 X74.431 Y128.201
G0 X76.713 Y129.276
G0 X78.911 Y130.026
G0 X80.501 Y130.41
G0 X82.909 Y130.74
G0 X83.982 Y130.775
G0 X138.389 Y130.806
G0 X138.389 Y129.339
G1 F2700 E170.75415
G1 F1125 X64.271 Y55.22 E179.12129
G0 F9000 X65.383 Y54.069
G1 F1125 X140.652 Y129.339 E187.61836
G0 F9000 X142.916 Y129.339
G1 F1125 X66.614 Y53.037 E196.23199
G0 F9000 X67.981 Y52.142
G1 F1125 X145.178 Y129.339 E204.94665
G0 F9000 X147.442 Y129.34
G1 F1125 X69.488 Y51.386 E213.74677
G0 F9000 X71.15 Y50.785
G1 F1125 X149.705 Y129.34 E222.61474
G0 F9000 X151.904 Y129.276
G1 F1125 X73.017 Y50.39 E231.52013
G0 F9000 X75.122 Y50.232
G1 F1125 X153.913 Y129.023 E240.41474
G0 F9000 X155.751 Y128.598
G1 F1125 X77.385 Y50.232 E249.26137
G0 F9000 X79.647 Y50.232
G1 F1125 X157.444 Y128.028 E258.04371
G0 F9000 X159.026 Y127.347
G1 F1125 X81.91 Y50.232 E266.74918
G0 F9000 X84.173 Y50.232
G1 F1125 X160.497 Y126.556 E275.36529
G0 F9000 X161.875 Y125.671
G1 F1125 X86.436 Y50.232 E283.8815
G0 F9000 X88.698 Y50.232
G1 F1125 X163.169 Y124.703 E292.28843
G0 F9000 X164.388 Y123.658
G1 F1125 X90.961 Y50.232 E300.57744
G0 F9000 X93.224 Y50.232
G1 F1125 X165.531 Y122.539 E308.74008
G0 F9000 X166.603 Y121.348
G1 F1125 X95.486 Y50.232 E316.76833
G0 F9000 X97.749 Y50.232
G1 F1125 X167.613 Y120.095 E324.65512
G0 F9000 X168.556 Y118.776
G1 F1125 X100.012 Y50.232 E332.39296
G0 F9000 X102.275 Y50.232
G1 F1125 X169.446 Y117.403 E339.97581
G0 F9000 X170.278 Y115.972
G1 F1125 X104.537 Y50.232 E347.39716
G0 F9000 X106.8 Y50.232
G1 F1125 X171.057 Y114.489 E354.65105
G0 F9000 X171.784 Y112.953
G1 F1125 X109.063 Y50.232 E361.73154
G0 F9000 X111.326 Y50.232
G1 F1125 X172.464 Y111.37 E368.63332
G0 F9000 X173.096 Y109.74
G1 F1125 X113.588 Y50.232 E375.3511
G0 F9000 X115.851 Y50.232
G1 F1125 X173.693 Y108.073 E381.88075
G0 F9000 X174.233 Y106.351
G1 F1125 X118.113 Y50.231 E388.21606
G0 F9000 X120.376 Y50.231
G1 F1125 X174.734 Y104.589 E394.35246
G0 F9000 X175.186 Y102.778
G1 F1125 X122.639 Y50.231 E400.28442
G0 F9000 X124.901 Y50.231
G1 F1125 X175.605 Y100.935 E406.00832
G0 F9000 X175.979 Y99.045
G1 F1125 X127.164 Y50.231 E411.51893
G0 F9000 X129.427 Y50.231
G1 F1125 X176.31 Y97.114 E416.81148
G0 F9000 X176.591 Y95.132
G1 F1125 X131.69 Y50.231 E421.8803
G0 F9000 X133.952 Y50.231
G1 F1125 X176.831 Y93.109 E426.72079
G0 F9000 X177.023 Y91.039
G1 F1125 X136.215 Y50.231 E431.32755
G0 F9000 X138.478 Y50.231
G1 F1125 X177.169 Y88.922 E435.69533
G0 F9000 X177.261 Y86.751
G1 F1125 X140.741 Y50.231 E439.81802
G0 F9000 X143.003 Y50.231
G1 F1125 X177.282 Y84.51 E443.68773
G0 F9000 X177.258 Y82.223
G1 F1125 X145.266 Y50.231 E447.29926
G0 F9000 X147.529 Y50.231
G1 F1125 X177.164 Y79.866 E450.64472
G0 F9000 X176.998 Y77.438
G1 F1125 X149.792 Y50.231 E453.71602
G0 F9000 X152.054 Y50.231
G1 F1125 X176.737 Y74.913 E456.5024
G0 F9000 X176.389 Y72.303
G1 F1125 X154.317 Y50.231 E458.99408
G0 F9000 X156.58 Y50.231
G1 F1125 X175.935 Y69.586 E461.17903
G0 F9000 X175.341 Y66.729
G1 F1125 X158.843 Y50.231 E463.04147
G0 F9000 X161.165 Y50.291
G1 F1125 X174.57 Y63.696 E464.55474
G0 F9000 X173.56 Y60.422
G1 F1125 X163.96 Y50.823 E465.63842
G1 F2700 E460.63842
G0 F9000 X164.55 Y49.466
G0 X166.468 Y50.199
G0 X167.673 Y50.817
G0 X169.411 Y51.964
G0 X168.558 Y53.158
G1 F2700 E465.63842
G1 F1125 X171.136 Y55.736 E465.92945
G1 F2700 E460.92945
G0 F300 X171.136 Y55.736 Z0.54
G0 F9000 X172.603 Y55.229
G0 X173.345 Y56.348
G0 X174.304 Y58.211
G0 X175.455 Y61.484
G0 X176.409 Y64.936
G0 X177.013 Y67.471
G0 X177.575 Y70.381
G0 X178.028 Y73.352
G0 X178.538 Y78.274
G0 X178.746 Y82.801
G0 X178.697 Y87.785
G0 X178.373 Y92.504
G0 X177.795 Y97.129
G0 X176.947 Y101.699
G0 X175.94 Y105.745
G0 X174.891 Y109.094
G0 X173.476 Y112.748
G0 X172.458 Y114.971
G0 X171.495 Y116.728
G0 X170.454 Y118.568
G0 X169.067 Y118.018
;TIME_ELAPSED:329.495030
;LAYER:-5
;TYPE:SUPPORT
G1 F2700 E465.92945
G1 F1125 X160.571 Y126.514 E467.12832
G1 X160.852 Y126.348 E467.16089
G1 X162.068 Y125.546 E467.30623
G1 X162.67 Y125.104 E467.38075
G1 X163.674 Y124.295 E467.50941
G1 X164.321 Y123.728 E467.59525
G1 X165.153 Y122.937 E467.7098
G1 X165.701 Y122.365 E467.78884
G1 X166.402 Y121.589 E467.89318
G1 X167.102 Y120.756 E468.00175
G1 X167.628 Y120.079 E468.08729
G1 X168.142 Y119.377 E468.17411
G1 X168.784 Y118.445 E468.28703
G1 X169.057 Y118.033 E468.33635
G1 X169.508 Y117.306 E468.42171
G1 X170.185 Y116.145 E468.55581
G1 X170.569 Y115.442 E468.63574
G1 X170.928 Y114.742 E468.71424
G1 X157.764 Y127.906 E470.57182
G1 X156.902 Y128.24 E470.66406
G1 X156.303 Y128.434 E470.72689
G1 X155.622 Y128.634 E470.79771
G1 X172.17 Y112.086 E473.13281
G1 X172.278 Y111.836 E473.15998
G1 X172.789 Y110.57 E473.29621
G1 X173.097 Y109.745 E473.38407
G1 X153.794 Y129.048 E476.10794
G1 X153.583 Y129.085 E476.12931
G1 X152.501 Y129.232 E476.23827
G1 X152.167 Y129.261 E476.27172
G1 X173.848 Y107.579 E479.33121
G1 X174.109 Y106.764 E479.4166
G1 X174.47 Y105.544 E479.54355
G1 X150.68 Y129.334 E482.90058
G1 X150.405 Y129.341 E482.92802
G1 X149.258 Y129.341 E483.04247
G1 X174.981 Y103.618 E486.67227
G1 X175.433 Y101.752 E486.86384
G1 X147.844 Y129.341 E490.75695
G1 X146.43 Y129.341 E490.89804
G1 X175.803 Y99.967 E495.04295
G1 X175.893 Y99.527 E495.08777
G1 X176.12 Y98.236 E495.21856
G1 X145.016 Y129.341 E499.60774
G1 X143.602 Y129.341 E499.74883
G1 X176.399 Y96.543 E504.37691
G1 X176.526 Y95.685 E504.46346
G1 X176.619 Y94.909 E504.54144
G1 X142.187 Y129.341 E509.40017
G1 X140.773 Y129.341 E509.54126
G1 X176.812 Y93.302 E514.62675
G1 X176.915 Y92.363 E514.721
G1 X176.966 Y91.733 E514.78407
G1 X139.36 Y129.34 E520.09075
G1 X137.945 Y129.34 E520.23194
G1 X177.094 Y90.192 E525.75622
G1 X177.183 Y88.688 E525.90655
G1 X136.531 Y129.34 E531.64299
G1 X135.117 Y129.34 E531.78408
G1 X177.245 Y87.212 E537.72879
G1 X177.277 Y86.224 E537.82743
G1 X177.278 Y85.764 E537.87333
G1 X133.703 Y129.34 E544.0223
G1 X132.289 Y129.34 E544.16339
G1 X177.285 Y84.344 E550.51281
G1 X177.29 Y83.394 E550.60761
G1 X177.282 Y82.933 E550.65361
G1 X130.874 Y129.34 E557.20221
G1 X129.46 Y129.34 E557.3433
G1 X177.237 Y81.563 E564.08515
G1 X177.205 Y80.62 E564.1793
G1 X177.182 Y80.204 E564.22087
G1 X128.047 Y129.339 E571.15435
G1 X126.632 Y129.339 E571.29554
G1 X177.107 Y78.865 E578.41804
G1 X177.01 Y77.547 E578.5499
G1 X125.218 Y129.339 E585.85831
G1 X123.804 Y129.339 E585.9994
G1 X176.89 Y76.253 E593.49041
G1 X176.867 Y76.004 E593.51536
G1 X176.746 Y74.983 E593.61795
G1 X122.39 Y129.339 E601.28817
G1 X120.976 Y129.339 E601.42926
G1 X176.596 Y73.719 E609.27784
G1 X176.574 Y73.527 E609.29712
G1 X176.42 Y72.481 E609.40262
G1 X119.561 Y129.339 E617.42597
G1 X118.147 Y129.339 E617.56706
G1 X176.228 Y71.258 E625.76291
G1 X176.128 Y70.613 E625.82804
G1 X176.028 Y70.051 E625.885
G1 X116.734 Y129.339 E634.2516
G1 X115.319 Y129.339 E634.39279
G1 X175.794 Y68.864 E642.92646
G1 X175.56 Y67.684 E643.0465
G1 X113.905 Y129.339 E651.74669
G1 X112.491 Y129.339 E651.88777
G1 X175.3 Y66.53 E660.7508
G1 X175.025 Y65.39 E660.86782
G1 X111.077 Y129.339 E669.89164
G1 X109.663 Y129.339 E670.03273
G1 X174.728 Y64.273 E679.21417
G1 X174.419 Y63.167 E679.32876
G1 X108.248 Y129.339 E688.66627
G1 X106.834 Y129.339 E688.80736
G1 X174.101 Y62.072 E698.29946
G1 X173.752 Y61.007 E698.41129
G1 X105.421 Y129.338 E708.05353
G1 X104.006 Y129.338 E708.19472
G1 X173.398 Y59.947 E717.98661
G1 X173.011 Y58.919 E718.09621
G1 X102.592 Y129.338 E728.03309
G1 X101.178 Y129.338 E728.17418
G1 X172.562 Y57.954 E738.24724
G1 X172.053 Y57.049 E738.35084
