;FLAVOR:Marlin
;TIME:1042
;Filament used: 0.662751m
;Layer height: 0.2
;MINX:82.2
;MINY:90.952
;MINZ:0.2
;MAXX:152.8
;MAXY:119.8
;MAXZ:2.6
;Generated with Cura_SteamEngine 5.0.0
M140 S60
M105
M190 S60
M104 S200
M105
M109 S200
M82 ;absolute extrusion mode
; Ender 3 Custom Start G-code
G92 E0 ; Reset Extruder
G28 ; Home all axes
G1 Z2.0 F3000 ; Move Z Axis up little to prevent scratching of Heat Bed
G1 X0.1 Y20 Z0.3 F5000.0 ; Move to start position
G1 X0.1 Y200.0 Z0.3 F1500.0 E15 ; Draw the first line
G1 X0.4 Y200.0 Z0.3 F5000.0 ; Move to side a little
G1 X0.4 Y20 Z0.3 F1500.0 E30 ; Draw the second line
G92 E0 ; Reset Extruder
G1 Z2.0 F3000 ; Move Z Axis up little to prevent scratching of Heat Bed
G1 X5 Y20 Z0.3 F5000.0 ; Move over to prevent blob squish
G92 E0
G92 E0
G1 F2700 E-5
;LAYER_COUNT:13
;LAYER:0
M107
;MESH:Base Bottom Back Lid.STL
G0 F6000 X83.581 Y90.952 Z0.2
;TYPE:WALL-OUTER
G1 F2700 E0
G1 F1200 X83.581 Y98.552 E0.25278
G1 X108.181 Y98.552 E1.07098
G1 X108.181 Y94.752 E1.19736
G1 X108.181 Y90.952 E1.32375
G1 X83.581 Y90.952 E2.14195
G0 F6000 X83.981 Y91.352
;TYPE:WALL-INNER
G1 F1200 X83.981 Y98.152 E2.36812
G1 X107.781 Y98.152 E3.15971
G1 X107.781 Y94.752 E3.2728
G1 X107.781 Y91.352 E3.38588
G1 X83.981 Y91.352 E4.17747
G0 F6000 X84.381 Y91.752
G1 F1200 X84.381 Y97.752 E4.37703
G1 X107.381 Y97.752 E5.14202
G1 X107.381 Y94.752 E5.2418
G1 X107.381 Y91.752 E5.34158
G1 X84.381 Y91.752 E6.10656
G0 F6000 X84.741 Y92.112
;TYPE:SKIN
G1 F1200 X84.741 Y97.392 E6.28217
G1 X107.021 Y97.392 E7.02321
G1 X107.021 Y94.752 E7.11102
G1 X107.021 Y92.112 E7.19882
G1 X84.741 Y92.112 E7.93986
G0 F6000 X84.481 Y92.112
G0 X84.553 Y97.58
G0 X85.311 Y97.652
G0 X85.311 Y97.191
G1 F1200 X84.94 Y96.819 E7.95733
G0 F6000 X84.94 Y96.254
G1 F1200 X85.877 Y97.191 E8.00141
G0 F6000 X86.443 Y97.191
G1 F1200 X84.94 Y95.688 E8.0721
G0 F6000 X84.94 Y95.122
G1 F1200 X87.008 Y97.191 E8.1694
G0 F6000 X87.574 Y97.191
G1 F1200 X84.94 Y94.557 E8.29329
G0 F6000 X84.94 Y93.991
G1 F1200 X88.14 Y97.191 E8.44381
G0 F6000 X88.705 Y97.191
G1 F1200 X84.94 Y93.425 E8.62093
G0 F6000 X84.94 Y92.86
G1 F1200 X89.271 Y97.191 E8.82465
G0 F6000 X89.837 Y97.191
G1 F1200 X84.958 Y92.312 E9.05414
G0 F6000 X85.523 Y92.312
G1 F1200 X90.402 Y97.191 E9.28363
G0 F6000 X90.968 Y97.191
G1 F1200 X86.089 Y92.312 E9.51313
G0 F6000 X86.655 Y92.312
G1 F1200 X91.534 Y97.191 E9.74262
G0 F6000 X92.099 Y97.191
G1 F1200 X87.22 Y92.312 E9.97211
G0 F6000 X87.786 Y92.312
G1 F1200 X92.665 Y97.191 E10.20161
G0 F6000 X93.231 Y97.191
G1 F1200 X88.352 Y92.312 E10.4311
G0 F6000 X88.917 Y92.312
G1 F1200 X93.797 Y97.191 E10.66062
G0 F6000 X94.362 Y97.191
G1 F1200 X89.483 Y92.312 E10.89011
G0 F6000 X90.049 Y92.312
G1 F1200 X94.928 Y97.191 E11.1196
G0 F6000 X95.494 Y97.191
G1 F1200 X90.615 Y92.312 E11.3491
G0 F6000 X91.18 Y92.312
G1 F1200 X96.059 Y97.191 E11.57859
G0 F6000 X96.625 Y97.191
G1 F1200 X91.746 Y92.312 E11.80808
G0 F6000 X92.312 Y92.312
G1 F1200 X97.191 Y97.191 E12.03758
G0 F6000 X97.756 Y97.191
G1 F1200 X92.877 Y92.312 E12.26707
G0 F6000 X93.443 Y92.312
G1 F1200 X98.322 Y97.191 E12.49656
G0 F6000 X98.888 Y97.191
G1 F1200 X94.009 Y92.312 E12.72606
G0 F6000 X94.574 Y92.312
G1 F1200 X99.453 Y97.191 E12.95555
G0 F6000 X100.019 Y97.191
G1 F1200 X95.14 Y92.312 E13.18504
G0 F6000 X95.706 Y92.312
G1 F1200 X100.585 Y97.191 E13.41454
G0 F6000 X101.15 Y97.191
G1 F1200 X96.271 Y92.312 E13.64403
G0 F6000 X96.837 Y92.312
G1 F1200 X101.716 Y97.191 E13.87352
G0 F6000 X102.282 Y97.191
G1 F1200 X97.403 Y92.312 E14.10301
G0 F6000 X97.968 Y92.312
G1 F1200 X102.847 Y97.191 E14.33251
G0 F6000 X103.413 Y97.191
G1 F1200 X98.534 Y92.312 E14.562
G0 F6000 X99.1 Y92.312
G1 F1200 X103.979 Y97.191 E14.79149
G0 F6000 X104.545 Y97.191
G1 F1200 X99.665 Y92.312 E15.02101
G0 F6000 X100.231 Y92.312
G1 F1200 X105.11 Y97.191 E15.2505
G0 F6000 X105.676 Y97.191
G1 F1200 X100.797 Y92.312 E15.48
G0 F6000 X101.363 Y92.312
G1 F1200 X106.242 Y97.191 E15.70949
G0 F6000 X106.807 Y97.191
G1 F1200 X101.928 Y92.312 E15.93898
G0 F6000 X102.494 Y92.312
G1 F1200 X106.82 Y96.638 E16.14247
G0 F6000 X106.82 Y96.072
G1 F1200 X103.06 Y92.312 E16.31932
G0 F6000 X103.625 Y92.312
G1 F1200 X106.82 Y95.506 E16.46958
G0 F6000 X106.82 Y94.941
G1 F1200 X104.191 Y92.312 E16.59324
G0 F6000 X104.757 Y92.312
G1 F1200 X106.82 Y94.375 E16.69028
G0 F6000 X106.82 Y93.809
G1 F1200 X105.322 Y92.312 E16.76072
G0 F6000 X105.888 Y92.312
G1 F1200 X106.82 Y93.244 E16.80456
G0 F6000 X106.82 Y92.678
G1 F1200 X106.454 Y92.312 E16.82177
G0 F6000 X106.454 Y91.762
G1 F2700 E11.82177
;MESH:Base Bottom Front Lid.STL
G0 F6000 X107.209 Y91.924
G0 X107.209 Y97.58
G0 X83.805 Y98.328
G0 X83.805 Y99.417
G0 X83.805 Y114.335
G0 X83.805 Y115.43
G0 X82.68 Y115.68
G1 F2700 E16.82177
G0 F6000 X82.2 Y115.2
;TYPE:WALL-OUTER
G1 F1200 X82.2 Y119.8 E16.97477
G1 X152.8 Y119.8 E19.32294
G1 X152.8 Y117.5 E19.39943
G1 X152.8 Y115.2 E19.47593
G1 X82.2 Y115.2 E21.8241
G0 F6000 X82.6 Y115.6
;TYPE:WALL-INNER
G1 F1200 X82.6 Y119.4 E21.95049
G1 X152.4 Y119.4 E24.27204
G1 X152.4 Y117.5 E24.33524
G1 X152.4 Y115.6 E24.39843
G1 X82.6 Y115.6 E26.71999
G0 F6000 X83 Y116
G1 F1200 X83 Y119 E26.81977
G1 X152 Y119 E29.11472
G1 X152 Y117.5 E29.16461
G1 X152 Y116 E29.2145
G1 X83 Y116 E31.50945
G0 F6000 X83.36 Y116.36
;TYPE:SKIN
G1 F1200 X83.36 Y118.64 E31.58528
G1 X151.64 Y118.64 E33.85628
G1 X151.64 Y117.5 E33.8942
G1 X151.64 Y116.36 E33.93212
G1 X83.36 Y116.36 E36.20312
G0 F6000 X83.1 Y116.36
G0 X83.172 Y118.828
G0 X83.932 Y118.9
G0 X83.932 Y118.438
G1 F1200 X83.56 Y118.067 E36.22059
G0 F6000 X83.56 Y117.501
G1 F1200 X84.497 Y118.438 E36.26467
G0 F6000 X85.063 Y118.438
G1 F1200 X83.56 Y116.935 E36.33536
G0 F6000 X83.75 Y116.56
G1 F1200 X85.629 Y118.438 E36.42372
G0 F6000 X86.194 Y118.438
G1 F1200 X84.316 Y116.56 E36.51206
G0 F6000 X84.881 Y116.56
G1 F1200 X86.76 Y118.438 E36.60042
G0 F6000 X87.326 Y118.438
G1 F1200 X85.447 Y116.56 E36.68878
G0 F6000 X86.013 Y116.56
G1 F1200 X87.891 Y118.438 E36.77711
G0 F6000 X88.457 Y118.438
G1 F1200 X86.578 Y116.56 E36.86547
G0 F6000 X87.144 Y116.56
G1 F1200 X89.023 Y118.438 E36.95383
G0 F6000 X89.589 Y118.438
G1 F1200 X87.71 Y116.56 E37.04219
G0 F6000 X88.275 Y116.56
G1 F1200 X90.154 Y118.438 E37.13055
G0 F6000 X90.72 Y118.438
G1 F1200 X88.841 Y116.56 E37.21891
G0 F6000 X89.407 Y116.56
G1 F1200 X91.286 Y118.438 E37.30726
G0 F6000 X91.851 Y118.438
G1 F1200 X89.972 Y116.56 E37.39562
G0 F6000 X90.538 Y116.56
G1 F1200 X92.417 Y118.438 E37.48398
G0 F6000 X92.983 Y118.438
G1 F1200 X91.104 Y116.56 E37.57234
G0 F6000 X91.67 Y116.56
G1 F1200 X93.548 Y118.438 E37.66068
G0 F6000 X94.114 Y118.438
G1 F1200 X92.235 Y116.56 E37.74903
G0 F6000 X92.801 Y116.56
G1 F1200 X94.68 Y118.438 E37.83739
G0 F6000 X95.245 Y118.438
G1 F1200 X93.367 Y116.56 E37.92573
G0 F6000 X93.932 Y116.56
G1 F1200 X95.811 Y118.438 E38.01409
G0 F6000 X96.377 Y118.438
G1 F1200 X94.498 Y116.56 E38.10245
G0 F6000 X95.064 Y116.56
G1 F1200 X96.942 Y118.438 E38.19078
G0 F6000 X97.508 Y118.438
G1 F1200 X95.629 Y116.56 E38.27914
G0 F6000 X96.195 Y116.56
G1 F1200 X98.074 Y118.438 E38.3675
G0 F6000 X98.639 Y118.438
G1 F1200 X96.761 Y116.56 E38.45584
G0 F6000 X97.326 Y116.56
G1 F1200 X99.205 Y118.438 E38.54419
G0 F6000 X99.771 Y118.438
G1 F1200 X97.892 Y116.56 E38.63255
G0 F6000 X98.458 Y116.56
G1 F1200 X100.337 Y118.438 E38.72091
G0 F6000 X100.902 Y118.438
G1 F1200 X99.023 Y116.56 E38.80927
G0 F6000 X99.589 Y116.56
G1 F1200 X101.468 Y118.438 E38.89763
G0 F6000 X102.034 Y118.438
G1 F1200 X100.155 Y116.56 E38.98599
G0 F6000 X100.72 Y116.56
G1 F1200 X102.599 Y118.438 E39.07435
G0 F6000 X103.165 Y118.438
G1 F1200 X101.286 Y116.56 E39.16271
G0 F6000 X101.852 Y116.56
G1 F1200 X103.731 Y118.438 E39.25107
G0 F6000 X104.296 Y118.438
G1 F1200 X102.418 Y116.56 E39.3394
G0 F6000 X102.983 Y116.56
G1 F1200 X104.862 Y118.438 E39.42776
G0 F6000 X105.428 Y118.438
G1 F1200 X103.549 Y116.56 E39.51612
G0 F6000 X104.115 Y116.56
G1 F1200 X105.993 Y118.438 E39.60445
G0 F6000 X106.559 Y118.438
G1 F1200 X104.68 Y116.56 E39.69281
G0 F6000 X105.246 Y116.56
G1 F1200 X107.125 Y118.438 E39.78117
G0 F6000 X107.69 Y118.438
G1 F1200 X105.812 Y116.56 E39.86951
G0 F6000 X106.377 Y116.56
G1 F1200 X108.256 Y118.438 E39.95787
G0 F6000 X108.822 Y118.438
G1 F1200 X106.943 Y116.56 E40.04622
G0 F6000 X107.509 Y116.56
G1 F1200 X109.388 Y118.438 E40.13458
G0 F6000 X109.953 Y118.438
G1 F1200 X108.074 Y116.56 E40.22294
G0 F6000 X108.64 Y116.56
G1 F1200 X110.519 Y118.438 E40.3113
G0 F6000 X111.085 Y118.438
G1 F1200 X109.206 Y116.56 E40.39966
G0 F6000 X109.771 Y116.56
G1 F1200 X111.65 Y118.438 E40.48802
G0 F6000 X112.216 Y118.438
G1 F1200 X110.337 Y116.56 E40.57638
G0 F6000 X110.903 Y116.56
G1 F1200 X112.782 Y118.438 E40.66474
G0 F6000 X113.347 Y118.438
G1 F1200 X111.469 Y116.56 E40.75307
G0 F6000 X112.034 Y116.56
G1 F1200 X113.913 Y118.438 E40.84143
G0 F6000 X114.479 Y118.438
G1 F1200 X112.6 Y116.56 E40.92979
G0 F6000 X113.166 Y116.56
G1 F1200 X115.044 Y118.438 E41.01813
G0 F6000 X115.61 Y118.438
G1 F1200 X113.731 Y116.56 E41.10648
G0 F6000 X114.297 Y116.56
G1 F1200 X116.176 Y118.438 E41.19484
G0 F6000 X116.741 Y118.438
G1 F1200 X114.863 Y116.56 E41.28318
G0 F6000 X115.428 Y116.56
G1 F1200 X117.307 Y118.438 E41.37154
G0 F6000 X117.873 Y118.438
G1 F1200 X115.994 Y116.56 E41.4599
G0 F6000 X116.56 Y116.56
G1 F1200 X118.438 Y118.438 E41.54823
G0 F6000 X119.004 Y118.438
G1 F1200 X117.125 Y116.56 E41.63659
G0 F6000 X117.691 Y116.56
G1 F1200 X119.57 Y118.438 E41.72495
G0 F6000 X120.136 Y118.438
G1 F1200 X118.257 Y116.56 E41.81331
G0 F6000 X118.822 Y116.56
G1 F1200 X120.701 Y118.438 E41.90167
G0 F6000 X121.267 Y118.438
G1 F1200 X119.388 Y116.56 E41.99003
G0 F6000 X119.954 Y116.56
G1 F1200 X121.833 Y118.438 E42.07839
G0 F6000 X122.398 Y118.438
G1 F1200 X120.519 Y116.56 E42.16674
G0 F6000 X121.085 Y116.56
G1 F1200 X122.964 Y118.438 E42.2551
G0 F6000 X123.53 Y118.438
G1 F1200 X121.651 Y116.56 E42.34346
G0 F6000 X122.217 Y116.56
G1 F1200 X124.095 Y118.438 E42.4318
G0 F6000 X124.661 Y118.438
G1 F1200 X122.782 Y116.56 E42.52016
G0 F6000 X123.348 Y116.56
G1 F1200 X125.227 Y118.438 E42.60851
G0 F6000 X125.792 Y118.438
G1 F1200 X123.914 Y116.56 E42.69685
G0 F6000 X124.479 Y116.56
G1 F1200 X126.358 Y118.438 E42.78521
G0 F6000 X126.924 Y118.438
G1 F1200 X125.045 Y116.56 E42.87357
G0 F6000 X125.611 Y116.56
G1 F1200 X127.489 Y118.438 E42.9619
G0 F6000 X128.055 Y118.438
G1 F1200 X126.176 Y116.56 E43.05026
G0 F6000 X126.742 Y116.56
G1 F1200 X128.621 Y118.438 E43.13862
G0 F6000 X129.186 Y118.438
G1 F1200 X127.308 Y116.56 E43.22696
G0 F6000 X127.873 Y116.56
G1 F1200 X129.752 Y118.438 E43.31532
G0 F6000 X130.318 Y118.438
G1 F1200 X128.439 Y116.56 E43.40367
G0 F6000 X129.005 Y116.56
G1 F1200 X130.884 Y118.438 E43.49203
G0 F6000 X131.449 Y118.438
G1 F1200 X129.57 Y116.56 E43.58039
G0 F6000 X130.136 Y116.56
G1 F1200 X132.015 Y118.438 E43.66875
G0 F6000 X132.581 Y118.438
G1 F1200 X130.702 Y116.56 E43.75711
G0 F6000 X131.268 Y116.56
G1 F1200 X133.146 Y118.438 E43.84545
G0 F6000 X133.712 Y118.438
G1 F1200 X131.833 Y116.56 E43.9338
G0 F6000 X132.399 Y116.56
G1 F1200 X134.278 Y118.438 E44.02216
G0 F6000 X134.843 Y118.438
G1 F1200 X132.965 Y116.56 E44.1105
G0 F6000 X133.53 Y116.56
G1 F1200 X135.409 Y118.438 E44.19886
G0 F6000 X135.975 Y118.438
G1 F1200 X134.096 Y116.56 E44.28722
G0 F6000 X134.662 Y116.56
G1 F1200 X136.54 Y118.438 E44.37555
G0 F6000 X137.106 Y118.438
G1 F1200 X135.227 Y116.56 E44.46391
G0 F6000 X135.793 Y116.56
G1 F1200 X137.672 Y118.438 E44.55227
G0 F6000 X138.237 Y118.438
G1 F1200 X136.359 Y116.56 E44.6406
G0 F6000 X136.924 Y116.56
G1 F1200 X138.803 Y118.438 E44.72896
G0 F6000 X139.369 Y118.438
G1 F1200 X137.49 Y116.56 E44.81732
G0 F6000 X138.056 Y116.56
G1 F1200 X139.935 Y118.438 E44.90568
G0 F6000 X140.5 Y118.438
G1 F1200 X138.621 Y116.56 E44.99404
G0 F6000 X139.187 Y116.56
G1 F1200 X141.066 Y118.438 E45.0824
G0 F6000 X141.632 Y118.438
G1 F1200 X139.753 Y116.56 E45.17076
G0 F6000 X140.318 Y116.56
G1 F1200 X142.197 Y118.438 E45.25912
G0 F6000 X142.763 Y118.438
G1 F1200 X140.884 Y116.56 E45.34748
G0 F6000 X141.45 Y116.56
G1 F1200 X143.329 Y118.438 E45.43583
G0 F6000 X143.894 Y118.438
G1 F1200 X142.016 Y116.56 E45.52417
G0 F6000 X142.581 Y116.56
G1 F1200 X144.46 Y118.438 E45.61253
G0 F6000 X145.026 Y118.438
G1 F1200 X143.147 Y116.56 E45.70089
G0 F6000 X143.713 Y116.56
G1 F1200 X145.591 Y118.438 E45.78922
G0 F6000 X146.157 Y118.438
G1 F1200 X144.278 Y116.56 E45.87758
G0 F6000 X144.844 Y116.56
G1 F1200 X146.723 Y118.438 E45.96594
G0 F6000 X147.288 Y118.438
G1 F1200 X145.41 Y116.56 E46.05428
G0 F6000 X145.975 Y116.56
G1 F1200 X147.854 Y118.438 E46.14264
G0 F6000 X148.42 Y118.438
G1 F1200 X146.541 Y116.56 E46.23099
G0 F6000 X147.107 Y116.56
G1 F1200 X148.985 Y118.438 E46.31933
G0 F6000 X149.551 Y118.438
G1 F1200 X147.672 Y116.56 E46.40769
G0 F6000 X148.238 Y116.56
G1 F1200 X150.117 Y118.438 E46.49605
G0 F6000 X150.683 Y118.438
G1 F1200 X148.804 Y116.56 E46.58441
G0 F6000 X149.369 Y116.56
G1 F1200 X151.248 Y118.438 E46.67276
G0 F6000 X151.438 Y118.063
G1 F1200 X149.935 Y116.56 E46.74346
G0 F6000 X150.501 Y116.56
G1 F1200 X151.438 Y117.497 E46.78753
G0 F6000 X151.438 Y116.932
G1 F1200 X151.066 Y116.56 E46.80503
G0 F6000 X151.066 Y116.01
G1 F2700 E41.80503
;MESH:Base Bottom Back Lid.STL(1)
G0 F6000 X148.53 Y115.43
G0 X148.53 Y114.335
G0 X148.53 Y100.067
G0 X148.53 Y98.972
G1 F2700 E46.80503
G0 F6000 X149.01 Y99.202
;TYPE:WALL-OUTER
G1 F1200 X149.01 Y95.402 E46.93142
G1 X149.01 Y91.602 E47.05781
G1 X124.41 Y91.602 E47.87601
G1 X124.41 Y99.202 E48.12879
G1 X149.01 Y99.202 E48.94699
G0 F6000 X148.61 Y98.802
;TYPE:WALL-INNER
G1 F1200 X148.61 Y95.402 E49.06007
G1 X148.61 Y92.002 E49.17315
G1 X124.81 Y92.002 E49.96475
G1 X124.81 Y98.802 E50.19091
G1 X148.61 Y98.802 E50.98251
G0 F6000 X148.21 Y98.402
G1 F1200 X148.21 Y95.402 E51.08229
G1 X148.21 Y92.402 E51.18207
G1 X125.21 Y92.402 E51.94705
G1 X125.21 Y98.402 E52.14661
G1 X148.21 Y98.402 E52.91159
G0 F6000 X147.85 Y98.042
;TYPE:SKIN
G1 F1200 X147.85 Y95.402 E52.9994
G1 X147.85 Y92.762 E53.08721
G1 X125.57 Y92.762 E53.82824
G1 X125.57 Y98.042 E54.00386
G1 X147.85 Y98.042 E54.74489
G0 F6000 X148.11 Y98.042
G0 X148.11 Y93.343
G0 X147.649 Y93.343
G1 F1200 X147.267 Y92.961 E54.76286
G0 F6000 X146.702 Y92.961
G1 F1200 X147.649 Y93.909 E54.80743
G0 F6000 X147.649 Y94.475
G1 F1200 X146.136 Y92.961 E54.87862
G0 F6000 X145.57 Y92.961
G1 F1200 X147.649 Y95.04 E54.97641
G0 F6000 X147.649 Y95.606
G1 F1200 X145.004 Y92.961 E55.10082
G0 F6000 X144.439 Y92.961
G1 F1200 X147.649 Y96.172 E55.25183
G0 F6000 X147.649 Y96.737
G1 F1200 X143.873 Y92.961 E55.42944
G0 F6000 X143.307 Y92.961
G1 F1200 X147.649 Y97.303 E55.63368
G0 F6000 X147.621 Y97.841
G1 F1200 X142.742 Y92.961 E55.8632
G0 F6000 X142.176 Y92.961
G1 F1200 X147.056 Y97.841 E56.09274
G0 F6000 X146.49 Y97.841
G1 F1200 X141.61 Y92.961 E56.32228
G0 F6000 X141.045 Y92.961
G1 F1200 X145.924 Y97.841 E56.55179
G0 F6000 X145.359 Y97.841
G1 F1200 X140.479 Y92.961 E56.78133
G0 F6000 X139.913 Y92.961
G1 F1200 X144.793 Y97.841 E57.01087
G0 F6000 X144.227 Y97.841
G1 F1200 X139.348 Y92.961 E57.24039
G0 F6000 X138.782 Y92.961
G1 F1200 X143.662 Y97.841 E57.46993
G0 F6000 X143.096 Y97.841
G1 F1200 X138.216 Y92.961 E57.69947
G0 F6000 X137.651 Y92.961
G1 F1200 X142.53 Y97.841 E57.92899
G0 F6000 X141.965 Y97.841
G1 F1200 X137.085 Y92.961 E58.15853
G0 F6000 X136.519 Y92.961
G1 F1200 X141.399 Y97.841 E58.38807
G0 F6000 X140.833 Y97.841
G1 F1200 X135.954 Y92.961 E58.61758
G0 F6000 X135.388 Y92.961
G1 F1200 X140.268 Y97.841 E58.84712
G0 F6000 X139.702 Y97.841
G1 F1200 X134.822 Y92.961 E59.07666
G0 F6000 X134.256 Y92.961
G1 F1200 X139.136 Y97.841 E59.3062
G0 F6000 X138.571 Y97.841
G1 F1200 X133.691 Y92.961 E59.53574
G0 F6000 X133.125 Y92.961
G1 F1200 X138.005 Y97.841 E59.76529
G0 F6000 X137.439 Y97.841
G1 F1200 X132.559 Y92.961 E59.99483
G0 F6000 X131.994 Y92.961
G1 F1200 X136.873 Y97.841 E60.22434
G0 F6000 X136.308 Y97.841
G1 F1200 X131.428 Y92.961 E60.45388
G0 F6000 X130.862 Y92.961
G1 F1200 X135.742 Y97.841 E60.68342
G0 F6000 X135.176 Y97.841
G1 F1200 X130.297 Y92.961 E60.91294
G0 F6000 X129.731 Y92.961
