;FLAVOR:Marlin
;TIME:45087
;Filament used: 34.6968m
;Layer height: 0.2
;MINX:32.7
;MINY:45.2
;MINZ:0.2
;MAXX:202.3
;MAXY:189.8
;MAXZ:26.6
;Generated with Cura_SteamEngine 5.0.0
M140 S60
M105
M190 S60
M104 S200
M105
M109 S200
M82 ;absolute extrusion mode
; Ender 3 Custom Start G-code
G92 E0 ; Reset Extruder
G28 ; Home all axes
G1 Z2.0 F3000 ; Move Z Axis up little to prevent scratching of Heat Bed
G1 X0.1 Y20 Z0.3 F5000.0 ; Move to start position
G1 X0.1 Y200.0 Z0.3 F1500.0 E15 ; Draw the first line
G1 X0.4 Y200.0 Z0.3 F5000.0 ; Move to side a little
G1 X0.4 Y20 Z0.3 F1500.0 E30 ; Draw the second line
G92 E0 ; Reset Extruder
G1 Z2.0 F3000 ; Move Z Axis up little to prevent scratching of Heat Bed
G1 X5 Y20 Z0.3 F5000.0 ; Move over to prevent blob squish
G92 E0
G92 E0
G1 F2700 E-5
;LAYER_COUNT:133
;LAYER:0
M107
;MESH:Base Bottom.STL
G0 F6000 X32.7 Y45.2 Z0.2
;TYPE:WALL-OUTER
G1 F2700 E0
G1 F1200 X32.7 Y189.8 E4.80942
G1 X202.3 Y189.8 E10.45033
G1 X202.3 Y117.5 E12.85504
G1 X202.3 Y45.2 E15.25975
G1 X32.7 Y45.2 E20.90067
G0 F6000 X33.1 Y45.6
;TYPE:WALL-INNER
G1 F1200 X33.1 Y189.4 E25.68348
G1 X201.9 Y189.4 E31.29779
G1 X201.9 Y117.5 E33.68919
G1 X201.9 Y45.6 E36.08059
G1 X33.1 Y45.6 E41.69491
G0 F6000 X33.5 Y46
G1 F1200 X33.5 Y189 E46.4511
G1 X201.5 Y189 E52.03881
G1 X201.5 Y117.5 E54.41691
G1 X201.5 Y46 E56.79501
G1 X33.5 Y46 E62.38271
G0 F6000 X33.86 Y46.36
;TYPE:SKIN
G1 F1200 X33.86 Y188.64 E67.11496
G1 X201.14 Y188.64 E72.67872
G1 X201.14 Y117.5 E75.04484
G1 X201.14 Y46.36 E77.41097
G1 X33.86 Y46.36 E82.97472
G1 F2700 E77.97472
G0 F6000 X33.6 Y46.36
G0 X33.672 Y188.828
G0 X34.573 Y188.9
G1 F2700 E82.97472
G0 F6000 X34.573 Y188.439
G1 F1200 X34.059 Y187.926 E82.99888
G0 F6000 X34.059 Y187.36
G1 F1200 X35.138 Y188.439 E83.04963
G0 F6000 X35.704 Y188.439
G1 F1200 X34.059 Y186.794 E83.12701
G0 F6000 X34.059 Y186.229
G1 F1200 X36.27 Y188.439 E83.23098
G0 F6000 X36.836 Y188.439
G1 F1200 X34.059 Y185.663 E83.36158
G0 F6000 X34.059 Y185.097
G1 F1200 X37.401 Y188.439 E83.51878
G0 F6000 X37.967 Y188.439
G1 F1200 X34.059 Y184.532 E83.70257
G0 F6000 X34.059 Y183.966
G1 F1200 X38.533 Y188.439 E83.91299
G0 F6000 X39.098 Y188.439
G1 F1200 X34.059 Y183.4 E84.15001
G0 F6000 X34.059 Y182.835
G1 F1200 X39.664 Y188.439 E84.41363
G0 F6000 X40.23 Y188.439
G1 F1200 X34.059 Y182.269 E84.70387
G0 F6000 X34.059 Y181.703
G1 F1200 X40.795 Y188.439 E85.02071
G0 F6000 X41.361 Y188.439
G1 F1200 X34.059 Y181.138 E85.36415
G0 F6000 X34.059 Y180.572
G1 F1200 X41.927 Y188.439 E85.73422
G0 F6000 X42.492 Y188.439
G1 F1200 X34.059 Y180.006 E86.13088
G0 F6000 X34.059 Y179.441
G1 F1200 X43.058 Y188.439 E86.55414
G0 F6000 X43.624 Y188.439
G1 F1200 X34.059 Y178.875 E87.00403
G0 F6000 X34.059 Y178.309
G1 F1200 X44.189 Y188.439 E87.48051
G0 F6000 X44.755 Y188.439
G1 F1200 X34.059 Y177.744 E87.98359
G0 F6000 X34.059 Y177.178
G1 F1200 X45.321 Y188.439 E88.5133
G0 F6000 X45.886 Y188.439
G1 F1200 X34.059 Y176.612 E89.06961
G0 F6000 X34.059 Y176.046
G1 F1200 X46.452 Y188.439 E89.65253
G0 F6000 X47.018 Y188.439
G1 F1200 X34.059 Y175.481 E90.26206
G0 F6000 X34.059 Y174.915
G1 F1200 X47.584 Y188.439 E90.89821
G0 F6000 X48.149 Y188.439
G1 F1200 X34.059 Y174.349 E91.56096
G0 F6000 X34.059 Y173.784
G1 F1200 X48.715 Y188.439 E92.25031
G0 F6000 X49.281 Y188.439
G1 F1200 X34.059 Y173.218 E92.96629
G0 F6000 X34.059 Y172.652
G1 F1200 X49.846 Y188.439 E93.70886
G0 F6000 X50.412 Y188.439
G1 F1200 X34.059 Y172.087 E94.47803
G0 F6000 X34.059 Y171.521
G1 F1200 X50.978 Y188.439 E95.27382
G0 F6000 X51.543 Y188.439
G1 F1200 X34.059 Y170.955 E96.09622
G0 F6000 X34.059 Y170.39
G1 F1200 X52.109 Y188.439 E96.94521
G0 F6000 X52.675 Y188.439
G1 F1200 X34.059 Y169.824 E97.82083
G0 F6000 X34.059 Y169.258
G1 F1200 X53.24 Y188.439 E98.72304
G0 F6000 X53.806 Y188.439
G1 F1200 X34.059 Y168.693 E99.65186
G0 F6000 X34.059 Y168.127
G1 F1200 X54.372 Y188.439 E100.60729
G0 F6000 X54.937 Y188.439
G1 F1200 X34.059 Y167.561 E101.58933
G0 F6000 X34.059 Y166.995
G1 F1200 X55.503 Y188.439 E102.59799
G0 F6000 X56.069 Y188.439
G1 F1200 X34.059 Y166.43 E103.63325
G0 F6000 X34.059 Y165.864
G1 F1200 X56.635 Y188.439 E104.69513
G0 F6000 X57.2 Y188.439
G1 F1200 X34.059 Y165.298 E105.78362
G0 F6000 X34.059 Y164.733
G1 F1200 X57.766 Y188.439 E106.8987
G0 F6000 X58.332 Y188.439
G1 F1200 X34.059 Y164.167 E108.0404
G0 F6000 X34.059 Y163.601
G1 F1200 X58.897 Y188.439 E109.2087
G0 F6000 X59.463 Y188.439
G1 F1200 X34.059 Y163.036 E110.40361
G0 F6000 X34.059 Y162.47
G1 F1200 X60.029 Y188.439 E111.62513
G0 F6000 X60.594 Y188.439
G1 F1200 X34.059 Y161.904 E112.87326
G0 F6000 X34.059 Y161.339
G1 F1200 X61.16 Y188.439 E114.14798
G0 F6000 X61.726 Y188.439
G1 F1200 X34.059 Y160.773 E115.44933
G0 F6000 X34.059 Y160.207
G1 F1200 X62.291 Y188.439 E116.77728
G0 F6000 X62.857 Y188.439
G1 F1200 X34.059 Y159.642 E118.13182
G0 F6000 X34.059 Y159.076
G1 F1200 X63.423 Y188.439 E119.51299
G0 F6000 X63.988 Y188.439
G1 F1200 X34.059 Y158.51 E120.92076
G0 F6000 X34.059 Y157.945
G1 F1200 X64.554 Y188.439 E122.35513
G0 F6000 X65.12 Y188.439
G1 F1200 X34.059 Y157.379 E123.81612
G0 F6000 X34.059 Y156.813
G1 F1200 X65.685 Y188.439 E125.30371
G0 F6000 X66.251 Y188.439
G1 F1200 X34.059 Y156.247 E126.81792
G0 F6000 X34.059 Y155.682
G1 F1200 X66.817 Y188.439 E128.35873
G0 F6000 X67.383 Y188.439
G1 F1200 X34.059 Y155.116 E129.92617
G0 F6000 X34.059 Y154.55
G1 F1200 X67.948 Y188.439 E131.5202
G0 F6000 X68.514 Y188.439
G1 F1200 X34.059 Y153.985 E133.14084
G0 F6000 X34.059 Y153.419
G1 F1200 X69.08 Y188.439 E134.78809
G0 F6000 X69.645 Y188.439
G1 F1200 X34.059 Y152.853 E136.46195
G0 F6000 X34.059 Y152.288
G1 F1200 X70.211 Y188.439 E138.16241
G0 F6000 X70.777 Y188.439
G1 F1200 X34.059 Y151.722 E139.88948
G0 F6000 X34.059 Y151.156
G1 F1200 X71.342 Y188.439 E141.64316
G0 F6000 X71.908 Y188.439
G1 F1200 X34.059 Y150.591 E143.42344
G0 F6000 X34.059 Y150.025
G1 F1200 X72.474 Y188.439 E145.23034
G0 F6000 X73.039 Y188.439
G1 F1200 X34.059 Y149.459 E147.06384
G0 F6000 X34.059 Y148.894
G1 F1200 X73.605 Y188.439 E148.92394
G0 F6000 X74.171 Y188.439
G1 F1200 X34.059 Y148.328 E150.81066
G0 F6000 X34.059 Y147.762
G1 F1200 X74.736 Y188.439 E152.72398
G0 F6000 X75.302 Y188.439
G1 F1200 X34.059 Y147.197 E154.6639
G0 F6000 X34.059 Y146.631
G1 F1200 X75.868 Y188.439 E156.63045
G0 F6000 X76.434 Y188.439
G1 F1200 X34.059 Y146.065 E158.62361
G0 F6000 X34.059 Y145.499
G1 F1200 X76.999 Y188.439 E160.64338
G0 F6000 X77.565 Y188.439
G1 F1200 X34.059 Y144.934 E162.68975
G0 F6000 X34.059 Y144.368
G1 F1200 X78.131 Y188.439 E164.76273
G0 F6000 X78.696 Y188.439
G1 F1200 X34.059 Y143.802 E166.86232
G0 F6000 X34.059 Y143.237
G1 F1200 X79.262 Y188.439 E168.98851
G0 F6000 X79.828 Y188.439
G1 F1200 X34.059 Y142.671 E171.14132
G0 F6000 X34.059 Y142.105
G1 F1200 X80.393 Y188.439 E173.32073
G0 F6000 X80.959 Y188.439
G1 F1200 X34.059 Y141.54 E175.52674
G0 F6000 X34.059 Y140.974
G1 F1200 X81.525 Y188.439 E177.75937
G0 F6000 X82.09 Y188.439
G1 F1200 X34.059 Y140.408 E180.0186
G0 F6000 X34.059 Y139.843
G1 F1200 X82.656 Y188.439 E182.30443
G0 F6000 X83.222 Y188.439
G1 F1200 X34.059 Y139.277 E184.61688
G0 F6000 X34.059 Y138.711
G1 F1200 X83.787 Y188.439 E186.95593
G0 F6000 X84.353 Y188.439
G1 F1200 X34.059 Y138.146 E189.32159
G0 F6000 X34.059 Y137.58
G1 F1200 X84.919 Y188.439 E191.71386
G0 F6000 X85.484 Y188.439
G1 F1200 X34.059 Y137.014 E194.13274
G0 F6000 X34.059 Y136.448
G1 F1200 X86.05 Y188.439 E196.57823
G0 F6000 X86.616 Y188.439
G1 F1200 X34.059 Y135.883 E199.05033
G0 F6000 X34.059 Y135.317
G1 F1200 X87.182 Y188.439 E201.54905
G0 F6000 X87.747 Y188.439
G1 F1200 X34.059 Y134.751 E204.07437
G0 F6000 X34.059 Y134.186
G1 F1200 X88.313 Y188.439 E206.62629
G0 F6000 X88.879 Y188.439
G1 F1200 X34.059 Y133.62 E209.20483
G0 F6000 X34.059 Y133.054
G1 F1200 X89.444 Y188.439 E211.80997
G0 F6000 X90.01 Y188.439
G1 F1200 X34.059 Y132.489 E214.44171
G0 F6000 X34.059 Y131.923
G1 F1200 X90.576 Y188.439 E217.10007
G0 F6000 X91.141 Y188.439
G1 F1200 X34.059 Y131.357 E219.78503
G0 F6000 X34.059 Y130.792
G1 F1200 X91.707 Y188.439 E222.4966
G0 F6000 X92.273 Y188.439
G1 F1200 X34.059 Y130.226 E225.23478
G0 F6000 X34.059 Y129.66
G1 F1200 X92.838 Y188.439 E227.99956
G0 F6000 X93.404 Y188.439
G1 F1200 X34.059 Y129.095 E230.79095
G0 F6000 X34.059 Y128.529
G1 F1200 X93.97 Y188.439 E233.60895
G0 F6000 X94.535 Y188.439
G1 F1200 X34.059 Y127.963 E236.45356
G0 F6000 X34.059 Y127.398
G1 F1200 X95.101 Y188.439 E239.32476
G0 F6000 X95.667 Y188.439
G1 F1200 X34.059 Y126.832 E242.22259
G0 F6000 X34.059 Y126.266
G1 F1200 X96.232 Y188.439 E245.14702
G0 F6000 X96.798 Y188.439
G1 F1200 X34.059 Y125.7 E248.09807
G0 F6000 X34.059 Y125.135
G1 F1200 X97.364 Y188.439 E251.07572
G0 F6000 X97.93 Y188.439
G1 F1200 X34.059 Y124.569 E254.07999
G0 F6000 X34.059 Y124.003
G1 F1200 X98.495 Y188.439 E257.11086
G0 F6000 X99.061 Y188.439
G1 F1200 X34.059 Y123.438 E260.16833
G0 F6000 X34.059 Y122.872
G1 F1200 X99.627 Y188.439 E263.25243
G0 F6000 X100.192 Y188.439
G1 F1200 X34.059 Y122.306 E266.36312
G0 F6000 X34.059 Y121.741
G1 F1200 X100.758 Y188.439 E269.50042
G0 F6000 X101.324 Y188.439
G1 F1200 X34.059 Y121.175 E272.66433
G0 F6000 X34.059 Y120.609
G1 F1200 X101.889 Y188.439 E275.85485
G0 F6000 X102.455 Y188.439
G1 F1200 X34.059 Y120.044 E279.07196
G0 F6000 X34.059 Y119.478
G1 F1200 X103.021 Y188.439 E282.3157
G0 F6000 X103.586 Y188.439
G1 F1200 X34.059 Y118.912 E285.58604
G0 F6000 X34.059 Y118.347
G1 F1200 X104.152 Y188.439 E288.88297
G0 F6000 X104.718 Y188.439
G1 F1200 X34.059 Y117.781 E292.20653
G0 F6000 X34.059 Y117.215
G1 F1200 X105.283 Y188.439 E295.55669
G0 F6000 X105.849 Y188.439
G1 F1200 X34.059 Y116.649 E298.93347
G0 F6000 X34.059 Y116.084
G1 F1200 X106.415 Y188.439 E302.33685
G0 F6000 X106.981 Y188.439
G1 F1200 X34.059 Y115.518 E305.76686
G0 F6000 X34.059 Y114.952
G1 F1200 X107.546 Y188.439 E309.22346
G0 F6000 X108.112 Y188.439
G1 F1200 X34.059 Y114.387 E312.70666
G0 F6000 X34.059 Y113.821
G1 F1200 X108.678 Y188.439 E316.21649
G0 F6000 X109.243 Y188.439
G1 F1200 X34.059 Y113.255 E319.75291
G0 F6000 X34.059 Y112.69
G1 F1200 X109.809 Y188.439 E323.31594
G0 F6000 X110.375 Y188.439
G1 F1200 X34.059 Y112.124 E326.90558
G0 F6000 X34.059 Y111.558
G1 F1200 X110.94 Y188.439 E330.52183
G0 F6000 X111.506 Y188.439
G1 F1200 X34.059 Y110.993 E334.16468
G0 F6000 X34.059 Y110.427
G1 F1200 X112.072 Y188.439 E337.83414
G0 F6000 X112.637 Y188.439
G1 F1200 X34.059 Y109.861 E341.53021
G0 F6000 X34.059 Y109.296
G1 F1200 X113.203 Y188.439 E345.25288
G0 F6000 X113.769 Y188.439
G1 F1200 X34.059 Y108.73 E349.00217
G0 F6000 X34.059 Y108.164
G1 F1200 X114.334 Y188.439 E352.77806
G0 F6000 X114.9 Y188.439
G1 F1200 X34.059 Y107.599 E356.58055
G0 F6000 X34.059 Y107.033
G1 F1200 X115.466 Y188.439 E360.40966
G0 F6000 X116.031 Y188.439
G1 F1200 X34.059 Y106.467 E364.26537
G0 F6000 X34.059 Y105.901
G1 F1200 X116.597 Y188.439 E368.14771
G0 F6000 X117.163 Y188.439
G1 F1200 X34.059 Y105.336 E372.05664
G0 F6000 X34.059 Y104.77
G1 F1200 X117.729 Y188.439 E375.9922
G0 F6000 X118.294 Y188.439
G1 F1200 X34.059 Y104.204 E379.95435
G0 F6000 X34.059 Y103.639
G1 F1200 X118.86 Y188.439 E383.94311
G0 F6000 X119.426 Y188.439
G1 F1200 X34.059 Y103.073 E387.95849
G0 F6000 X34.059 Y102.507
G1 F1200 X119.991 Y188.439 E392.00047
G0 F6000 X120.557 Y188.439
G1 F1200 X34.059 Y101.942 E396.06904
G0 F6000 X34.059 Y101.376
G1 F1200 X121.123 Y188.439 E400.16424
G0 F6000 X121.688 Y188.439
G1 F1200 X34.059 Y100.81 E404.28604
G0 F6000 X34.059 Y100.245
G1 F1200 X122.254 Y188.439 E408.43444
G0 F6000 X122.82 Y188.439
G1 F1200 X34.059 Y99.679 E412.60946
G0 F6000 X34.059 Y99.113
G1 F1200 X123.385 Y188.439 E416.81109
G0 F6000 X123.951 Y188.439
G1 F1200 X34.059 Y98.548 E421.03931
G0 F6000 X34.059 Y97.982
G1 F1200 X124.517 Y188.439 E425.29415
G0 F6000 X125.082 Y188.439
G1 F1200 X34.059 Y97.416 E429.57559
G0 F6000 X34.059 Y96.851
G1 F1200 X125.648 Y188.439 E433.88363
G0 F6000 X126.214 Y188.439
G1 F1200 X34.059 Y96.285 E438.2183
G0 F6000 X34.059 Y95.719
G1 F1200 X126.78 Y188.439 E442.57959
G0 F6000 X127.345 Y188.439
G1 F1200 X34.059 Y95.153 E446.96747
G0 F6000 X34.059 Y94.588
G1 F1200 X127.911 Y188.439 E451.38196
G0 F6000 X128.477 Y188.439
G1 F1200 X34.059 Y94.022 E455.82307
G0 F6000 X34.059 Y93.456
G1 F1200 X129.042 Y188.439 E460.29078
G0 F6000 X129.608 Y188.439
G1 F1200 X34.059 Y92.891 E464.78509
G0 F6000 X34.059 Y92.325
G1 F1200 X130.174 Y188.439 E469.30602
G0 F6000 X130.739 Y188.439
G1 F1200 X34.059 Y91.759 E473.85355
G0 F6000 X34.059 Y91.194
G1 F1200 X131.305 Y188.439 E478.42768
G0 F6000 X131.871 Y188.439
G1 F1200 X34.059 Y90.628 E483.02843
G0 F6000 X34.059 Y90.062
G1 F1200 X132.436 Y188.439 E487.65579
G0 F6000 X133.002 Y188.439
G1 F1200 X34.059 Y89.497 E492.30974
G0 F6000 X34.059 Y88.931
G1 F1200 X133.568 Y188.439 E496.99031
G0 F6000 X134.133 Y188.439
G1 F1200 X34.059 Y88.365 E501.69749
G0 F6000 X34.059 Y87.8
G1 F1200 X134.699 Y188.439 E506.43126
G0 F6000 X135.265 Y188.439
G1 F1200 X34.059 Y87.234 E511.19166
G0 F6000 X34.059 Y86.668
G1 F1200 X135.83 Y188.439 E515.97865
G0 F6000 X136.396 Y188.439
G1 F1200 X34.059 Y86.102 E520.79227
G0 F6000 X34.059 Y85.537
G1 F1200 X136.962 Y188.439 E525.63249
G0 F6000 X137.528 Y188.439
G1 F1200 X34.059 Y84.971 E530.49933
G0 F6000 X34.059 Y84.405
G1 F1200 X138.093 Y188.439 E535.39277
G0 F6000 X138.659 Y188.439
G1 F1200 X34.059 Y83.84 E540.31281
G0 F6000 X34.059 Y83.274
G1 F1200 X139.225 Y188.439 E545.25947
G0 F6000 X139.79 Y188.439
G1 F1200 X34.059 Y82.708 E550.23274
G0 F6000 X34.059 Y82.143
G1 F1200 X140.356 Y188.439 E555.2326
G0 F6000 X140.922 Y188.439
G1 F1200 X34.059 Y81.577 E560.25908
G0 F6000 X34.059 Y81.011
G1 F1200 X141.487 Y188.439 E565.31217
G0 F6000 X142.053 Y188.439
G1 F1200 X34.059 Y80.446 E570.39185
G0 F6000 X34.059 Y79.88
G1 F1200 X142.619 Y188.439 E575.49816
G0 F6000 X143.184 Y188.439
G1 F1200 X34.059 Y79.314 E580.63106
G0 F6000 X34.059 Y78.749
G1 F1200 X143.75 Y188.439 E585.79057
G0 F6000 X144.316 Y188.439
G1 F1200 X34.059 Y78.183 E590.97669
G0 F6000 X34.059 Y77.617
G1 F1200 X144.881 Y188.439 E596.18942
G0 F6000 X145.447 Y188.439
G1 F1200 X34.059 Y77.052 E601.42875
G0 F6000 X34.059 Y76.486
G1 F1200 X146.013 Y188.439 E606.6947
G0 F6000 X146.578 Y188.439
G1 F1200 X34.059 Y75.92 E611.98724
G0 F6000 X34.059 Y75.354
G1 F1200 X147.144 Y188.439 E617.30642
G0 F6000 X147.71 Y188.439
G1 F1200 X34.059 Y74.789 E622.65219
G0 F6000 X34.059 Y74.223
G1 F1200 X148.276 Y188.439 E628.02458
G0 F6000 X148.841 Y188.439
G1 F1200 X34.059 Y73.657 E633.42357
G0 F6000 X34.059 Y73.092
G1 F1200 X149.407 Y188.439 E638.84917
G0 F6000 X149.973 Y188.439
G1 F1200 X34.059 Y72.526 E644.30138
G0 F6000 X34.059 Y71.96
G1 F1200 X150.538 Y188.439 E649.7802
G0 F6000 X151.104 Y188.439
G1 F1200 X34.059 Y71.395 E655.28561
G0 F6000 X34.059 Y70.829
G1 F1200 X151.67 Y188.439 E660.81765
G0 F6000 X152.235 Y188.439
G1 F1200 X34.059 Y70.263 E666.37629
G0 F6000 X34.059 Y69.698
G1 F1200 X152.801 Y188.439 E671.96152
G0 F6000 X153.367 Y188.439
G1 F1200 X34.059 Y69.132 E677.57338
G0 F6000 X34.059 Y68.566
G1 F1200 X153.932 Y188.439 E683.21184
G0 F6000 X154.498 Y188.439
G1 F1200 X34.059 Y68.001 E688.8769
G0 F6000 X34.059 Y67.435
G1 F1200 X155.064 Y188.439 E694.56858
G0 F6000 X155.629 Y188.439
G1 F1200 X34.059 Y66.869 E700.28686
G0 F6000 X34.059 Y66.303
G1 F1200 X156.195 Y188.439 E706.03176
G0 F6000 X156.761 Y188.439
G1 F1200 X34.059 Y65.738 E711.80326
G0 F6000 X34.059 Y65.172
G1 F1200 X157.327 Y188.439 E717.60139
G0 F6000 X157.892 Y188.439
G1 F1200 X34.059 Y64.606 E723.42611
G0 F6000 X34.059 Y64.041
G1 F1200 X158.458 Y188.439 E729.27744
G0 F6000 X159.024 Y188.439
G1 F1200 X34.059 Y63.475 E735.15539
G0 F6000 X34.059 Y62.909
G1 F1200 X159.589 Y188.439 E741.05993
G0 F6000 X160.155 Y188.439
G1 F1200 X34.059 Y62.344 E746.99108
G0 F6000 X34.059 Y61.778
G1 F1200 X160.721 Y188.439 E752.94885
G0 F6000 X161.286 Y188.439
G1 F1200 X34.059 Y61.212 E758.93321
G0 F6000 X34.059 Y60.647
G1 F1200 X161.852 Y188.439 E764.94418
G0 F6000 X162.418 Y188.439
G1 F1200 X34.059 Y60.081 E770.98177
G0 F6000 X34.059 Y59.515
G1 F1200 X162.983 Y188.439 E777.04596
G0 F6000 X163.549 Y188.439
