;FLAVOR:Marlin
;TIME:42623
;Filament used: 33.6408m
;Layer height: 0.2
;MINX:42.7
;MINY:55.2
;MINZ:0.2
;MAXX:192.3
;MAXY:179.8
;MAXZ:60
;Generated with Cura_SteamEngine 5.0.0
M140 S60
M105
M190 S60
M104 S200
M105
M109 S200
M82 ;absolute extrusion mode
; Ender 3 Custom Start G-code
G92 E0 ; Reset Extruder
G28 ; Home all axes
G1 Z2.0 F3000 ; Move Z Axis up little to prevent scratching of Heat Bed
G1 X0.1 Y20 Z0.3 F5000.0 ; Move to start position
G1 X0.1 Y200.0 Z0.3 F1500.0 E15 ; Draw the first line
G1 X0.4 Y200.0 Z0.3 F5000.0 ; Move to side a little
G1 X0.4 Y20 Z0.3 F1500.0 E30 ; Draw the second line
G92 E0 ; Reset Extruder
G1 Z2.0 F3000 ; Move Z Axis up little to prevent scratching of Heat Bed
G1 X5 Y20 Z0.3 F5000.0 ; Move over to prevent blob squish
G92 E0
G92 E0
G1 F2700 E-5
;LAYER_COUNT:300
;LAYER:0
M107
;MESH:Base Middle.STL
G0 F6000 X42.7 Y55.2 Z0.2
;TYPE:WALL-OUTER
G1 F2700 E0
G1 F1200 X42.7 Y179.8 E4.14421
G1 X192.3 Y179.8 E9.11993
G1 X192.3 Y56.464 E13.2221
G1 X192.3 Y55.2 E13.26414
G1 X42.7 Y55.2 E18.23986
G0 F6000 X43.1 Y55.6
;TYPE:WALL-INNER
G1 F1200 X43.1 Y179.4 E22.35746
G1 X191.9 Y179.4 E27.30657
G1 X191.9 Y56.464 E31.39544
G1 X191.9 Y55.6 E31.42418
G1 X43.1 Y55.6 E36.37328
G0 F6000 X43.964 Y56
G1 F1200 X43.5 Y56 E36.38872
G1 X43.5 Y56.464 E36.40415
G1 F1182.3 X43.506 Y56.723 E36.4129
G1 F1148.3 X43.512 Y56.982 E36.4219
G1 F1113.7 X43.518 Y57.241 E36.43118
G1 F1083.5 X43.525 Y57.5 E36.44073
G1 F1066.7 X43.525 Y177.5 E40.93085
G1 F1057.3 X43.529 Y177.717 E40.93904
G1 F1069 X43.52 Y177.99 E40.94924
G1 F1118.9 X43.51 Y178.263 E40.95898
G1 F1173.6 X43.5 Y178.536 E40.96827
G1 F1200 X43.5 Y179 E40.98371
G1 X43.964 Y179 E40.99914
G1 F1182.3 X44.223 Y178.994 E41.00788
G1 F1148.3 X44.482 Y178.988 E41.01689
G1 F1113.7 X44.741 Y178.982 E41.02617
G1 F1083.5 X45 Y178.975 E41.03572
G1 F1066.7 X190 Y178.975 E46.46128
G1 F1057.3 X190.217 Y178.971 E46.46947
G1 F1069 X190.49 Y178.98 E46.47967
G1 F1118.9 X190.763 Y178.99 E46.48941
G1 F1173.6 X191.036 Y179 E46.4987
G1 F1200 X191.5 Y179 E46.51414
G1 X191.5 Y178.536 E46.52957
G1 F1173.6 X191.491 Y178.263 E46.53886
G1 F1118.9 X191.481 Y177.99 E46.5486
G1 F1069 X191.471 Y177.717 E46.5588
G1 F1057.3 X191.475 Y177.5 E46.56699
G1 F1066.7 X191.475 Y57.5 E51.05711
G1 F1083.5 X191.481 Y57.241 E51.06666
G1 F1113.7 X191.487 Y56.982 E51.07594
G1 F1148.3 X191.493 Y56.723 E51.08494
G1 F1182.3 X191.5 Y56.464 E51.09369
G1 F1200 X191.5 Y56 E51.10912
G1 X191.036 Y56 E51.12456
G1 F1182.3 X190.777 Y56.006 E51.1333
G1 F1148.3 X190.518 Y56.012 E51.14231
G1 F1113.7 X190.259 Y56.018 E51.15159
G1 F1083.5 X190 Y56.025 E51.16114
G1 F1066.7 X45 Y56.025 E56.5867
G1 F1057.3 X44.783 Y56.029 E56.59489
G1 F1069 X44.51 Y56.02 E56.60509
G1 F1118.9 X44.237 Y56.01 E56.61483
G1 F1173.6 X43.964 Y56 E56.62412
G1 F2700 E51.62412
G0 F6000 X44.821 Y56.25
G0 X44.429 Y56.535
G0 X44.29 Y57.5
G1 F2700 E56.62412
G0 F6000 X44.8 Y57.5
;TYPE:WALL-OUTER
G1 F1200 X44.858 Y57.358 E56.62922
G1 X45 Y57.3 E56.63433
G1 X190 Y57.3 E61.45704
G1 X190.142 Y57.358 E61.46215
G1 X190.2 Y57.5 E61.46725
G1 X190.2 Y177.5 E65.45846
G1 X190.142 Y177.642 E65.46357
G1 X190.035 Y177.698 E65.46758
G1 X190 Y177.7 E65.46875
G1 X45 Y177.7 E70.29147
G1 X44.858 Y177.642 E70.29657
G1 X44.8 Y177.5 E70.30167
G1 X44.8 Y57.5 E74.29289
G0 F6000 X44.4 Y57.5
;TYPE:WALL-INNER
G1 F1200 X44.575 Y57.075 E74.30818
G1 X44.896 Y56.908 E74.32021
G1 X45 Y56.9 E74.32368
G1 X190 Y56.9 E79.1464
G1 X190.425 Y57.075 E79.16169
G1 X190.6 Y57.5 E79.17697
G1 X190.6 Y177.5 E83.16819
G1 X190.592 Y177.604 E83.17166
G1 X190.425 Y177.925 E83.18369
G1 X190.104 Y178.092 E83.19573
G1 X190 Y178.1 E83.1992
G1 X45 Y178.1 E88.02192
G1 X44.575 Y177.925 E88.0372
G1 X44.408 Y177.604 E88.04924
G1 X44.4 Y177.5 E88.05271
G1 X44.4 Y57.5 E92.04392
G0 F6000 X44.29 Y57.5
G0 X44.362 Y56.862
G0 X44.822 Y56.485
G1 F1057.3 X45 Y56.475 E92.05065
G1 F1066.7 X190 Y56.475 E97.47621
G1 F1088.4 X190.235 Y56.58 E97.48565
G1 F1129.4 X190.471 Y56.686 E97.4948
G1 F1176.5 X190.707 Y56.791 E97.50356
G1 X190.813 Y57.027 E97.51234
G1 F1129.4 X190.919 Y57.263 E97.52148
G1 F1088.4 X191.024 Y57.499 E97.53095
G1 F1066.7 X191.025 Y177.5 E102.02111
G1 F1057.3 X191.015 Y177.678 E102.02784
G1 F1081.1 X190.862 Y177.943 E102.03913
G1 F1159.4 X190.708 Y178.208 E102.04968
G1 X190.443 Y178.361 E102.06022
G1 F1081.1 X190.178 Y178.515 E102.07153
G1 F1057.3 X190 Y178.525 E102.07826
G1 F1066.7 X45 Y178.525 E107.50382
G1 F1088.4 X44.765 Y178.42 E107.51326
G1 F1129.4 X44.529 Y178.314 E107.5224
G1 F1176.5 X44.293 Y178.209 E107.53117
G1 F1159.4 X44.139 Y177.943 E107.54175
G1 F1081.1 X43.985 Y177.678 E107.55306
G1 F1057.3 X43.975 Y177.5 E107.55979
G1 F1066.7 X43.975 Y57.5 E112.04991
G1 F1088.4 X44.08 Y57.265 E112.05935
G1 F1129.4 X44.186 Y57.029 E112.06849
G1 F1176.5 X44.291 Y56.793 E112.07725
G1 F1159.4 X44.557 Y56.639 E112.08784
G1 F1081.1 X44.822 Y56.485 E112.09915
G0 F6000 X44.041 Y56.465
;TYPE:SKIN
G1 F789.5 X44.003 Y56.53 E112.10296
G1 X43.927 Y56.53 E112.1068
G1 X43.89 Y56.465 E112.11058
G1 X43.928 Y56.4 E112.11439
G1 X44.003 Y56.4 E112.11818
G1 F2700 E107.11818
G0 F6000 X44.025 Y56.105
G0 X44.821 Y56.25
G0 X44.371 Y56.648
G0 X44.217 Y178.275
G1 F2700 E112.11818
G0 F6000 X44.003 Y178.47
G1 F789.5 X43.928 Y178.47 E112.12197
G1 X43.89 Y178.535 E112.12578
G1 X43.927 Y178.6 E112.12956
G1 X44.003 Y178.6 E112.1334
G1 X44.041 Y178.535 E112.13721
G1 F2700 E107.13721
G0 F6000 X44.217 Y178.275
G0 X190.822 Y178.322
G0 X191.25 Y177.679
G0 X191.394 Y178.45
G1 F2700 E112.13721
G0 F6000 X191.073 Y178.472
G1 F792.1 X190.999 Y178.472 E112.14094
G1 X190.962 Y178.536 E112.14466
G1 X190.999 Y178.6 E112.14839
G1 X191.073 Y178.6 E112.15211
G1 X191.111 Y178.536 E112.15587
G1 F2700 E107.15587
G0 F6000 X191.399 Y178.533
G0 X191.398 Y56.479
G1 F2700 E112.15587
G0 F6000 X191.111 Y56.465
G1 F789.5 X191.073 Y56.53 E112.15967
G1 X190.997 Y56.53 E112.16351
G1 X190.96 Y56.465 E112.1673
G1 X190.998 Y56.4 E112.1711
G1 X191.073 Y56.4 E112.17489
G0 F6000 X191.073 Y56.01
G1 F2700 E107.17489
;MESH:NONMESH
G0 F300 X191.073 Y56.01 Z0.4
G0 F6000 X43.18 Y55.68
G1 F2700 E112.17489
G0 F6000 X42.7 Y55.2
;TIME_ELAPSED:182.545656
;LAYER:1
M106 S85
;TYPE:WALL-OUTER
;MESH:Base Middle.STL
G1 F1350 X42.7 Y179.8 E116.31911
G1 X192.3 Y179.8 E121.29482
G1 X192.3 Y56.464 E125.39699
G1 X192.3 Y55.2 E125.43903
G1 X42.7 Y55.2 E130.41475
G0 F7500 X43.1 Y55.6
;TYPE:WALL-INNER
G1 F1350 X43.1 Y179.4 E134.53236
G1 X191.9 Y179.4 E139.48146
G1 X191.9 Y56.464 E143.57033
G1 X191.9 Y55.6 E143.59907
G1 X43.1 Y55.6 E148.54818
G0 F7500 X43.964 Y56
G1 F1350 X43.5 Y56 E148.56361
G1 X43.5 Y56.464 E148.57904
G1 F1330 X43.506 Y56.723 E148.58779
G1 F1291.9 X43.512 Y56.982 E148.59679
G1 F1252.9 X43.518 Y57.241 E148.60608
G1 F1219 X43.525 Y57.5 E148.61562
G1 F1200 X43.525 Y177.5 E153.10574
G1 F1189.4 X43.529 Y177.717 E153.11393
G1 F1202.7 X43.52 Y177.99 E153.12413
G1 F1258.7 X43.51 Y178.263 E153.13388
G1 F1320.3 X43.5 Y178.536 E153.14317
G1 F1350 X43.5 Y179 E153.1586
G1 X43.964 Y179 E153.17403
G1 F1330 X44.223 Y178.994 E153.18278
G1 F1291.9 X44.482 Y178.988 E153.19178
G1 F1252.9 X44.741 Y178.982 E153.20107
G1 F1219 X45 Y178.975 E153.21061
G1 F1200 X190 Y178.975 E158.63617
G1 F1189.4 X190.217 Y178.971 E158.64436
G1 F1202.7 X190.49 Y178.98 E158.65456
G1 F1258.7 X190.763 Y178.99 E158.66431
G1 F1320.3 X191.036 Y179 E158.6736
G1 F1350 X191.5 Y179 E158.68903
G1 X191.5 Y178.536 E158.70446
G1 F1320.3 X191.491 Y178.263 E158.71375
G1 F1258.7 X191.481 Y177.99 E158.7235
G1 F1202.7 X191.471 Y177.717 E158.73369
G1 F1189.4 X191.475 Y177.5 E158.74189
G1 F1200 X191.475 Y57.5 E163.23201
G1 F1219 X191.481 Y57.241 E163.24155
G1 F1252.9 X191.487 Y56.982 E163.25083
G1 F1291.9 X191.493 Y56.723 E163.25984
G1 F1330 X191.5 Y56.464 E163.26858
G1 F1350 X191.5 Y56 E163.28402
G1 X191.036 Y56 E163.29945
G1 F1330 X190.777 Y56.006 E163.3082
G1 F1291.9 X190.518 Y56.012 E163.3172
G1 F1252.9 X190.259 Y56.018 E163.32648
G1 F1219 X190 Y56.025 E163.33603
G1 F1200 X45 Y56.025 E168.76159
G1 F1189.4 X44.783 Y56.029 E168.76978
G1 F1202.7 X44.51 Y56.02 E168.77998
G1 F1258.7 X44.237 Y56.01 E168.78972
G1 F1320.3 X43.964 Y56 E168.79901
G1 F2700 E163.79901
G0 F7500 X44.821 Y56.25
G0 X44.429 Y56.535
G0 X44.29 Y57.5
G1 F2700 E168.79901
G0 F7500 X44.8 Y57.5
;TYPE:WALL-OUTER
G1 F1350 X44.858 Y57.358 E168.80412
G1 X45 Y57.3 E168.80922
G1 X190 Y57.3 E173.63194
G1 X190.142 Y57.358 E173.63704
G1 X190.2 Y57.5 E173.64214
G1 X190.2 Y177.5 E177.63336
G1 X190.142 Y177.642 E177.63846
G1 X190.035 Y177.698 E177.64248
G1 X190 Y177.7 E177.64364
G1 X45 Y177.7 E182.46636
G1 X44.858 Y177.642 E182.47146
G1 X44.8 Y177.5 E182.47656
G1 X44.8 Y57.5 E186.46778
G0 F7500 X44.4 Y57.5
;TYPE:WALL-INNER
G1 F1350 X44.575 Y57.075 E186.48307
G1 X44.896 Y56.908 E186.4951
G1 X45 Y56.9 E186.49857
G1 X190 Y56.9 E191.32129
G1 X190.425 Y57.075 E191.33658
G1 X190.6 Y57.5 E191.35187
G1 X190.6 Y177.5 E195.34308
G1 X190.592 Y177.604 E195.34655
G1 X190.425 Y177.925 E195.35859
G1 X190.104 Y178.092 E195.37062
G1 X190 Y178.1 E195.37409
G1 X45 Y178.1 E200.19681
G1 X44.575 Y177.925 E200.2121
G1 X44.408 Y177.604 E200.22413
G1 X44.4 Y177.5 E200.2276
G1 X44.4 Y57.5 E204.21882
G0 F7500 X44.29 Y57.5
G0 X44.362 Y56.862
G0 X44.822 Y56.485
G1 F1189.4 X45 Y56.475 E204.22555
G1 F1200 X190 Y56.475 E209.65111
G1 F1224.5 X190.235 Y56.58 E209.66055
G1 F1270.6 X190.471 Y56.686 E209.66969
G1 F1323.5 X190.707 Y56.791 E209.67845
G1 X190.813 Y57.027 E209.68723
G1 F1270.6 X190.919 Y57.263 E209.69637
G1 F1224.5 X191.024 Y57.499 E209.70584
G1 F1200 X191.025 Y177.5 E214.196
G1 F1189.4 X191.015 Y177.678 E214.20273
G1 F1216.2 X190.862 Y177.943 E214.21403
G1 F1304.3 X190.708 Y178.208 E214.22458
G1 X190.443 Y178.361 E214.23511
G1 F1216.2 X190.178 Y178.515 E214.24643
G1 F1189.4 X190 Y178.525 E214.25316
G1 F1200 X45 Y178.525 E219.67872
G1 F1224.5 X44.765 Y178.42 E219.68815
G1 F1270.6 X44.529 Y178.314 E219.6973
G1 F1323.5 X44.293 Y178.209 E219.70606
G1 F1304.3 X44.139 Y177.943 E219.71664
G1 F1216.2 X43.985 Y177.678 E219.72796
G1 F1189.4 X43.975 Y177.5 E219.73469
G1 F1200 X43.975 Y57.5 E224.2248
G1 F1224.5 X44.08 Y57.265 E224.23424
G1 F1270.6 X44.186 Y57.029 E224.24338
G1 F1323.5 X44.291 Y56.793 E224.25215
G1 F1304.3 X44.557 Y56.639 E224.26273
G1 F1216.2 X44.822 Y56.485 E224.27404
G0 F7500 X44.041 Y56.465
;TYPE:SKIN
G1 F888.2 X44.003 Y56.53 E224.27785
G1 X43.927 Y56.53 E224.28169
G1 X43.89 Y56.465 E224.28547
G1 X43.928 Y56.4 E224.28928
G1 X44.003 Y56.4 E224.29307
G1 F2700 E219.29307
G0 F7500 X44.025 Y56.105
G0 X44.821 Y56.25
G0 X44.371 Y56.648
G0 X44.217 Y178.275
G1 F2700 E224.29307
G0 F7500 X44.003 Y178.47
G1 F888.2 X43.928 Y178.47 E224.29686
G1 X43.89 Y178.535 E224.30067
G1 X43.927 Y178.6 E224.30445
G1 X44.003 Y178.6 E224.30829
G1 X44.041 Y178.535 E224.3121
G1 F2700 E219.3121
G0 F7500 X44.217 Y178.275
G0 X190.822 Y178.322
G0 X191.25 Y177.679
G0 X191.394 Y178.45
G1 F2700 E224.3121
G0 F7500 X191.073 Y178.472
G1 F891.1 X190.999 Y178.472 E224.31583
G1 X190.962 Y178.536 E224.31955
G1 X190.999 Y178.6 E224.32328
G1 X191.073 Y178.6 E224.32701
G1 X191.111 Y178.536 E224.33076
G1 F2700 E219.33076
G0 F7500 X191.399 Y178.533
G0 X191.398 Y56.479
G1 F2700 E224.33076
G0 F7500 X191.111 Y56.465
G1 F888.2 X191.073 Y56.53 E224.33456
G1 X190.997 Y56.53 E224.33841
G1 X190.96 Y56.465 E224.34219
G1 X190.998 Y56.4 E224.34599
G1 X191.073 Y56.4 E224.34979
G0 F7500 X191.073 Y56.01
G1 F2700 E219.34979
;MESH:NONMESH
G0 F300 X191.073 Y56.01 Z0.6
G0 F7500 X43.18 Y55.68
G1 F2700 E224.34979
G0 F7500 X42.7 Y55.2
;TIME_ELAPSED:340.997502
;LAYER:2
M106 S170
;TYPE:WALL-OUTER
;MESH:Base Middle.STL
G1 F1500 X42.7 Y179.8 E228.494
G1 X192.3 Y179.8 E233.46972
G1 X192.3 Y56.464 E237.57189
G1 X192.3 Y55.2 E237.61393
G1 X42.7 Y55.2 E242.58964
G0 F9000 X43.1 Y55.6
;TYPE:WALL-INNER
G1 F1500 X43.1 Y179.4 E246.70725
G1 X191.9 Y179.4 E251.65636
G1 X191.9 Y56.464 E255.74523
G1 X191.9 Y55.6 E255.77396
G1 X43.1 Y55.6 E260.72307
G0 F9000 X43.964 Y56
G1 F1500 X43.5 Y56 E260.7385
G1 X43.5 Y56.464 E260.75394
G1 F1477.8 X43.506 Y56.723 E260.76268
G1 F1435.4 X43.512 Y56.982 E260.77169
G1 F1392.1 X43.518 Y57.241 E260.78097
G1 F1354.4 X43.525 Y57.5 E260.79051
G1 F1333.3 X43.525 Y177.5 E265.28063
G1 F1321.6 X43.529 Y177.717 E265.28883
G1 F1336.3 X43.52 Y177.99 E265.29902
G1 F1398.6 X43.51 Y178.263 E265.30877
G1 F1467 X43.5 Y178.536 E265.31806
G1 F1500 X43.5 Y179 E265.33349
G1 X43.964 Y179 E265.34892
G1 F1477.8 X44.223 Y178.994 E265.35767
G1 F1435.4 X44.482 Y178.988 E265.36667
G1 F1392.1 X44.741 Y178.982 E265.37596
G1 F1354.4 X45 Y178.975 E265.3855
G1 F1333.3 X190 Y178.975 E270.81106
G1 F1321.6 X190.217 Y178.971 E270.81926
G1 F1336.3 X190.49 Y178.98 E270.82945
G1 F1398.6 X190.763 Y178.99 E270.8392
G1 F1467 X191.036 Y179 E270.84849
G1 F1500 X191.5 Y179 E270.86392
G1 X191.5 Y178.536 E270.87935
G1 F1467 X191.491 Y178.263 E270.88864
G1 F1398.6 X191.481 Y177.99 E270.89839
G1 F1336.3 X191.471 Y177.717 E270.90859
G1 F1321.6 X191.475 Y177.5 E270.91678
G1 F1333.3 X191.475 Y57.5 E275.4069
G1 F1354.4 X191.481 Y57.241 E275.41644
G1 F1392.1 X191.487 Y56.982 E275.42573
G1 F1435.4 X191.493 Y56.723 E275.43473
G1 F1477.8 X191.5 Y56.464 E275.44348
G1 F1500 X191.5 Y56 E275.45891
G1 X191.036 Y56 E275.47434
G1 F1477.8 X190.777 Y56.006 E275.48309
G1 F1435.4 X190.518 Y56.012 E275.49209
G1 F1392.1 X190.259 Y56.018 E275.50138
G1 F1354.4 X190 Y56.025 E275.51092
G1 F1333.3 X45 Y56.025 E280.93648
G1 F1321.6 X44.783 Y56.029 E280.94467
G1 F1336.3 X44.51 Y56.02 E280.95487
G1 F1398.6 X44.237 Y56.01 E280.96462
G1 F1467 X43.964 Y56 E280.97391
G1 F2700 E275.97391
G0 F9000 X44.821 Y56.25
G0 X44.429 Y56.535
G0 X44.29 Y57.5
G1 F2700 E280.97391
G0 F9000 X44.8 Y57.5
;TYPE:WALL-OUTER
G1 F1500 X44.858 Y57.358 E280.97901
G1 X45 Y57.3 E280.98411
G1 X190 Y57.3 E285.80683
G1 X190.142 Y57.358 E285.81193
G1 X190.2 Y57.5 E285.81703
G1 X190.2 Y177.5 E289.80825
G1 X190.142 Y177.642 E289.81335
G1 X190.035 Y177.698 E289.81737
G1 X190 Y177.7 E289.81854
G1 X45 Y177.7 E294.64125
G1 X44.858 Y177.642 E294.64636
G1 X44.8 Y177.5 E294.65146
G1 X44.8 Y57.5 E298.64267
G0 F9000 X44.4 Y57.5
;TYPE:WALL-INNER
G1 F1500 X44.575 Y57.075 E298.65796
G1 X44.896 Y56.908 E298.67
G1 X45 Y56.9 E298.67347
G1 X190 Y56.9 E303.49619
G1 X190.425 Y57.075 E303.51147
G1 X190.6 Y57.5 E303.52676
G1 X190.6 Y177.5 E307.51798
G1 X190.592 Y177.604 E307.52144
G1 X190.425 Y177.925 E307.53348
G1 X190.104 Y178.092 E307.54551
G1 X190 Y178.1 E307.54898
G1 X45 Y178.1 E312.3717
G1 X44.575 Y177.925 E312.38699
G1 X44.408 Y177.604 E312.39903
G1 X44.4 Y177.5 E312.40249
G1 X44.4 Y57.5 E316.39371
G0 F9000 X44.29 Y57.5
G0 X44.362 Y56.862
G0 X44.822 Y56.485
G1 F1321.6 X45 Y56.475 E316.40044
G1 F1333.3 X190 Y56.475 E321.826
G1 F1360.5 X190.235 Y56.58 E321.83544
G1 F1411.8 X190.471 Y56.686 E321.84458
G1 F1470.6 X190.707 Y56.791 E321.85334
G1 X190.813 Y57.027 E321.86212
G1 F1411.8 X190.919 Y57.263 E321.87126
G1 F1360.5 X191.024 Y57.499 E321.88074
G1 F1333.3 X191.025 Y177.5 E326.37089
G1 F1321.6 X191.015 Y177.678 E326.37762
G1 F1351.4 X190.862 Y177.943 E326.38892
G1 F1449.3 X190.708 Y178.208 E326.39947
G1 X190.443 Y178.361 E326.41
G1 F1351.4 X190.178 Y178.515 E326.42132
G1 F1321.6 X190 Y178.525 E326.42805
G1 F1333.3 X45 Y178.525 E331.85361
G1 F1360.5 X44.765 Y178.42 E331.86305
G1 F1411.8 X44.529 Y178.314 E331.87219
G1 F1470.6 X44.293 Y178.209 E331.88095
G1 F1449.3 X44.139 Y177.943 E331.89153
G1 F1351.4 X43.985 Y177.678 E331.90285
G1 F1321.6 X43.975 Y177.5 E331.90958
G1 F1333.3 X43.975 Y57.5 E336.3997
G1 F1360.5 X44.08 Y57.265 E336.40914
G1 F1411.8 X44.186 Y57.029 E336.41828
G1 F1470.6 X44.291 Y56.793 E336.42704
G1 F1449.3 X44.557 Y56.639 E336.43762
G1 F1351.4 X44.822 Y56.485 E336.44894
G0 F9000 X44.041 Y56.465
;TYPE:SKIN
G1 F986.8 X44.003 Y56.53 E336.45274
G1 X43.927 Y56.53 E336.45659
G1 X43.89 Y56.465 E336.46037
G1 X43.928 Y56.4 E336.46417
G1 X44.003 Y56.4 E336.46797
G1 F2700 E331.46797
G0 F9000 X44.025 Y56.105
G0 X44.821 Y56.25
G0 X44.371 Y56.648
G0 X44.217 Y178.275
G1 F2700 E336.46797
G0 F9000 X44.003 Y178.47
G1 F986.8 X43.928 Y178.47 E336.47176
G1 X43.89 Y178.535 E336.47556
G1 X43.927 Y178.6 E336.47934
G1 X44.003 Y178.6 E336.48319
G1 X44.041 Y178.535 E336.48699
