;FLAVOR:Marlin
;TIME:2660
;Filament used: 1.27182m
;Layer height: 0.2
;MINX:66.139
;MINY:55.937
;MINZ:0.2
;MAXX:175.94
;MAXY:172.72
;MAXZ:6
;Generated with Cura_SteamEngine 5.0.0
M140 S60
M105
M190 S60
M104 S200
M105
M109 S200
M82 ;absolute extrusion mode
; Ender 3 Custom Start G-code
G92 E0 ; Reset Extruder
G28 ; Home all axes
G1 Z2.0 F3000 ; Move Z Axis up little to prevent scratching of Heat Bed
G1 X0.1 Y20 Z0.3 F5000.0 ; Move to start position
G1 X0.1 Y200.0 Z0.3 F1500.0 E15 ; Draw the first line
G1 X0.4 Y200.0 Z0.3 F5000.0 ; Move to side a little
G1 X0.4 Y20 Z0.3 F1500.0 E30 ; Draw the second line
G92 E0 ; Reset Extruder
G1 Z2.0 F3000 ; Move Z Axis up little to prevent scratching of Heat Bed
G1 X5 Y20 Z0.3 F5000.0 ; Move over to prevent blob squish
G92 E0
G92 E0
G1 F2700 E-5
;LAYER_COUNT:30
;LAYER:0
M107
G0 F6000 X70.002 Y64.476 Z0.2
G0 X66.139 Y72.923
;TYPE:SKIRT
G1 F2700 E0
G1 F1200 X66.213 Y71.989 E0.03116
G1 X66.367 Y71.063 E0.06238
G1 X66.6 Y70.155 E0.09356
G1 X66.843 Y69.437 E0.11877
G1 X66.963 Y69.12 E0.13005
G1 X67.333 Y68.257 E0.16128
G1 X67.626 Y67.688 E0.18256
G1 X67.97 Y67.087 E0.2056
G1 X68.079 Y66.908 E0.21257
G1 X68.6 Y66.128 E0.24377
G1 X69.025 Y65.585 E0.2667
G1 X69.371 Y65.17 E0.28467
G1 X70.002 Y64.476 E0.31587
G1 X70.759 Y63.779 E0.35009
G1 X71.158 Y63.445 E0.3674
G1 X71.902 Y62.874 E0.39859
G1 X72.61 Y62.418 E0.4266
G1 X72.998 Y62.188 E0.4416
G1 X73.824 Y61.744 E0.4728
G1 X74.62 Y61.398 E0.50166
G1 X74.944 Y61.272 E0.51323
G1 X75.832 Y60.97 E0.54442
G1 X76.742 Y60.744 E0.57561
G1 X77.668 Y60.597 E0.60679
G1 X78.604 Y60.529 E0.63801
G1 X79.416 Y60.535 E0.66501
G1 X82.231 Y60.659 E0.75873
G1 X84.768 Y60.697 E0.84312
G1 X87.248 Y60.663 E0.92562
G1 X90.325 Y60.534 E1.02805
G1 X91.263 Y60.538 E1.05925
G1 X92.197 Y60.622 E1.09044
G1 X92.932 Y60.745 E1.11522
G1 X95.384 Y61.242 E1.19843
G1 X97.91 Y61.683 E1.28372
G1 X100.369 Y62.042 E1.36637
G1 X102.872 Y62.336 E1.4502
G1 X105.377 Y62.557 E1.53384
G1 X107.906 Y62.709 E1.6181
G1 X110.393 Y62.788 E1.70086
G1 X112.915 Y62.796 E1.78474
G1 X115.44 Y62.734 E1.86875
G1 X117.958 Y62.6 E1.95262
G1 X120.471 Y62.395 E2.03648
G1 X122.959 Y62.121 E2.11973
G1 X125.495 Y61.769 E2.20489
G1 X127.932 Y61.36 E2.28708
G1 X130.417 Y60.871 E2.37131
G1 X132.866 Y60.315 E2.45484
G1 X135.313 Y59.688 E2.53886
G1 X137.73 Y58.995 E2.62249
G1 X140.112 Y58.237 E2.70563
G1 X142.53 Y57.393 E2.79081
G1 X144.565 Y56.632 E2.86307
G1 X145.457 Y56.341 E2.89428
G1 X146.37 Y56.128 E2.92546
G1 X147.298 Y55.992 E2.95665
G1 X148.234 Y55.937 E2.98784
G1 X148.884 Y55.945 E3.00946
G1 X151.91 Y56.073 E3.11019
G1 X154.402 Y56.105 E3.19309
G1 X156.949 Y56.064 E3.27781
G1 X159.763 Y55.943 E3.37149
G1 X160.7 Y55.943 E3.40266
G1 X161.635 Y56.022 E3.43386
G1 X162.559 Y56.181 E3.46505
G1 X163.467 Y56.418 E3.49626
G1 X164.051 Y56.616 E3.51677
G1 X164.335 Y56.721 E3.52684
G1 X165.2 Y57.083 E3.55803
G1 X166.005 Y57.503 E3.58823
G1 X166.45 Y57.759 E3.6053
G1 X167.242 Y58.261 E3.63649
G1 X167.997 Y58.835 E3.66804
G1 X168.335 Y59.116 E3.68266
G1 X169.03 Y59.746 E3.71385
G1 X169.664 Y60.427 E3.7448
G1 X170.047 Y60.875 E3.7644
G1 X170.626 Y61.613 E3.7956
G1 X171.22 Y62.536 E3.83211
G1 X171.464 Y62.96 E3.84838
G1 X171.897 Y63.793 E3.87961
G1 X172.236 Y64.601 E3.90875
G1 X172.342 Y64.885 E3.91883
G1 X172.632 Y65.776 E3.95
G1 X172.845 Y66.69 E3.98121
G1 X172.98 Y67.618 E4.0124
G1 X173.035 Y68.554 E4.04359
G1 X173.022 Y69.287 E4.06797
G1 X172.986 Y69.993 E4.09148
G1 X172.89 Y72.617 E4.17882
G1 X172.869 Y75.139 E4.2627
G1 X172.92 Y77.686 E4.34743
G1 X173.025 Y80.064 E4.4266
G1 X173.027 Y81.002 E4.4578
G1 X172.948 Y81.937 E4.48901
G1 X172.791 Y82.861 E4.52018
G1 X172.58 Y83.684 E4.54844
G1 X172.436 Y84.169 E4.56527
G1 X171.735 Y86.646 E4.65089
G1 X171.112 Y89.116 E4.73561
G1 X170.561 Y91.588 E4.81985
G1 X170.091 Y94.024 E4.90237
G1 X169.682 Y96.527 E4.98672
G1 X169.342 Y99.037 E5.07097
G1 X169.08 Y101.506 E5.15355
G1 X168.885 Y104.02 E5.23741
G1 X168.761 Y106.537 E5.32123
G1 X168.707 Y109.066 E5.40536
G1 X168.726 Y111.592 E5.48938
G1 X168.815 Y114.103 E5.57295
G1 X168.975 Y116.602 E5.65624
G1 X169.206 Y119.1 E5.73968
G1 X169.508 Y121.592 E5.82317
G1 X169.886 Y124.119 E5.90815
G1 X170.327 Y126.586 E5.9915
G1 X170.835 Y129.027 E6.07443
G1 X171.407 Y131.436 E6.15678
G1 X172.078 Y133.94 E6.243
G1 X172.787 Y136.314 E6.32541
G1 X173.577 Y138.713 E6.40942
G1 X174.749 Y141.912 E6.52273
G1 X175.202 Y143.082 E6.56446
G1 X175.503 Y143.97 E6.59565
G1 X175.727 Y144.881 E6.62685
G1 X175.873 Y145.807 E6.65803
G1 X175.94 Y146.743 E6.68924
G1 X175.933 Y147.553 E6.71618
G1 X175.824 Y149.954 E6.79612
G1 X175.778 Y152.472 E6.87988
G1 X175.802 Y154.968 E6.9629
G1 X175.878 Y157.069 E7.03283
G1 X175.936 Y158.38 E7.07648
G1 X175.938 Y159.318 E7.10767
G1 X175.859 Y160.252 E7.13885
G1 X175.702 Y161.177 E7.17006
G1 X175.466 Y162.084 E7.20123
G1 X175.196 Y162.869 E7.22884
G1 X174.837 Y163.735 E7.26002
G1 X174.435 Y164.517 E7.28926
G1 X174.156 Y165.01 E7.3081
G1 X173.66 Y165.806 E7.3393
G1 X173.081 Y166.577 E7.37137
G1 X172.804 Y166.914 E7.38588
G1 X172.178 Y167.612 E7.41706
G1 X171.505 Y168.246 E7.44781
G1 X171.051 Y168.639 E7.46778
G1 X170.317 Y169.222 E7.49896
G1 X169.372 Y169.837 E7.53646
G1 X169.01 Y170.047 E7.55038
G1 X168.179 Y170.482 E7.58158
G1 X167.419 Y170.806 E7.60906
G1 X167.066 Y170.941 E7.62163
G1 X166.177 Y171.239 E7.65281
G1 X165.265 Y171.459 E7.68402
G1 X164.338 Y171.601 E7.71521
G1 X163.402 Y171.664 E7.74641
G1 X162.623 Y171.655 E7.77232
G1 X160.341 Y171.548 E7.8483
G1 X157.802 Y171.496 E7.93277
G1 X155.271 Y171.516 E8.01695
G1 X152.815 Y171.604 E8.09869
G1 X151.861 Y171.65 E8.13046
G1 X150.923 Y171.656 E8.16166
G1 X149.988 Y171.581 E8.19286
G1 X149.063 Y171.427 E8.22405
G1 X148.488 Y171.29 E8.24371
G1 X147.724 Y171.086 E8.27001
G1 X145.154 Y170.435 E8.35819
G1 X142.705 Y169.888 E8.44165
G1 X140.192 Y169.401 E8.52678
G1 X137.771 Y169.003 E8.60839
G1 X135.256 Y168.661 E8.69281
G1 X132.725 Y168.39 E8.77747
G1 X130.248 Y168.196 E8.86011
G1 X127.717 Y168.068 E8.9444
G1 X125.233 Y168.015 E9.02703
G1 X122.677 Y168.031 E9.11205
G1 X120.179 Y168.119 E9.19518
G1 X117.669 Y168.277 E9.27883
G1 X115.158 Y168.507 E9.3627
G1 X112.673 Y168.806 E9.44594
G1 X110.152 Y169.182 E9.53072
G1 X107.692 Y169.619 E9.61382
G1 X105.24 Y170.127 E9.69711
G1 X102.799 Y170.706 E9.78055
G1 X100.351 Y171.36 E9.86482
G1 X97.342 Y172.263 E9.96931
G1 X96.433 Y172.494 E10.00051
G1 X95.508 Y172.647 E10.03169
G1 X94.573 Y172.72 E10.06288
G1 X93.693 Y172.716 E10.09215
G1 X90.988 Y172.596 E10.18221
G1 X88.427 Y172.554 E10.2674
G1 X85.916 Y172.585 E10.35092
G1 X83.791 Y172.665 E10.42165
G1 X82.879 Y172.708 E10.45202
G1 X81.941 Y172.712 E10.48322
G1 X81.007 Y172.636 E10.51438
G1 X80.082 Y172.48 E10.54558
G1 X79.173 Y172.247 E10.5768
G1 X78.595 Y172.053 E10.59707
G1 X78.321 Y171.953 E10.60678
G1 X77.454 Y171.595 E10.63797
G1 X76.645 Y171.177 E10.66826
G1 X76.173 Y170.908 E10.68633
G1 X75.379 Y170.409 E10.71752
G1 X74.562 Y169.788 E10.75165
G1 X74.201 Y169.486 E10.76731
G1 X73.508 Y168.854 E10.7985
G1 X72.771 Y168.045 E10.8349
G1 X72.438 Y167.641 E10.85231
G1 X71.873 Y166.893 E10.88349
G1 X71.438 Y166.211 E10.9104
G1 X71.218 Y165.836 E10.92486
G1 X70.779 Y165.008 E10.95603
G1 X70.428 Y164.19 E10.98563
G1 X70.293 Y163.836 E10.99824
G1 X69.996 Y162.946 E11.02944
G1 X69.777 Y162.034 E11.06064
G1 X69.636 Y161.107 E11.09182
G1 X69.574 Y160.171 E11.12302
G1 X69.582 Y159.414 E11.1482
G1 X69.691 Y157.024 E11.22778
G1 X69.738 Y154.504 E11.31161
G1 X69.715 Y152.015 E11.3944
G1 X69.63 Y149.66 E11.47277
G1 X69.581 Y148.619 E11.50744
G1 X69.577 Y147.682 E11.5386
G1 X69.653 Y146.747 E11.5698
G1 X69.91 Y145.387 E11.61584
G1 X70.67 Y142.407 E11.71812
G1 X71.209 Y139.994 E11.80036
G1 X71.69 Y137.519 E11.88422
G1 X72.099 Y135.036 E11.96792
G1 X72.44 Y132.524 E12.05223
G1 X72.707 Y130.042 E12.13526
G1 X72.905 Y127.525 E12.21923
G1 X73.032 Y125.008 E12.30306
G1 X73.086 Y122.52 E12.38583
G1 X73.07 Y119.961 E12.47094
G1 X72.983 Y117.46 E12.55417
G1 X72.827 Y114.966 E12.63729
G1 X72.597 Y112.461 E12.72095
G1 X72.293 Y109.924 E12.80594
G1 X71.925 Y107.454 E12.889
G1 X71.49 Y105.001 E12.97186
G1 X70.971 Y102.502 E13.05675
G1 X70.404 Y100.103 E13.13874
G1 X69.74 Y97.614 E13.22442
G1 X69.03 Y95.23 E13.30715
G1 X68.245 Y92.841 E13.39079
G1 X67.107 Y89.718 E13.50134
G1 X66.846 Y89.027 E13.52591
G1 X66.552 Y88.136 E13.55712
G1 X66.336 Y87.224 E13.58829
G1 X66.198 Y86.296 E13.61949
G1 X66.139 Y85.36 E13.65069
G1 X66.147 Y84.663 E13.67387
G1 X66.266 Y81.937 E13.76462
G1 X66.304 Y79.426 E13.84815
G1 X66.271 Y76.899 E13.93221
G1 X66.196 Y74.929 E13.99778
G1 X66.144 Y73.861 E14.03334
G1 X66.139 Y72.923 E14.06454
G0 F6000 X66.539 Y72.921
G1 F1200 X66.614 Y72.004 E14.09514
G1 X66.769 Y71.096 E14.12578
G1 X67.002 Y70.206 E14.15638
G1 X67.218 Y69.578 E14.17846
G1 X67.338 Y69.261 E14.18974
G1 X67.701 Y68.415 E14.22036
G1 X68.09 Y67.675 E14.24816
G1 X68.42 Y67.116 E14.26975
G1 X68.933 Y66.351 E14.30039
G1 X69.332 Y65.841 E14.32193
G1 X69.678 Y65.426 E14.3399
G1 X70.298 Y64.745 E14.37053
G1 X71.016 Y64.086 E14.40294
G1 X71.415 Y63.752 E14.42025
G1 X72.146 Y63.192 E14.45088
G1 X72.814 Y62.762 E14.4773
G1 X73.202 Y62.532 E14.4923
G1 X74.013 Y62.097 E14.52291
G1 X74.765 Y61.771 E14.55017
G1 X75.089 Y61.645 E14.56173
G1 X75.961 Y61.349 E14.59236
G1 X76.855 Y61.129 E14.62298
G1 X77.765 Y60.988 E14.65361
G1 X78.683 Y60.927 E14.68421
G1 X79.398 Y60.934 E14.70799
G1 X82.241 Y61.059 E14.80264
G1 X84.768 Y61.097 E14.8867
G1 X87.271 Y61.063 E14.96996
G1 X88.937 Y60.988 E15.02543
G1 X90.341 Y60.934 E15.07216
G1 X91.261 Y60.938 E15.10276
G1 X92.178 Y61.023 E15.13339
G1 X92.852 Y61.137 E15.15612
G1 X95.306 Y61.634 E15.2394
G1 X97.82 Y62.073 E15.32428
G1 X100.332 Y62.44 E15.40872
G1 X102.83 Y62.733 E15.49237
G1 X105.351 Y62.956 E15.57655
G1 X107.87 Y63.108 E15.66048
G1 X110.413 Y63.189 E15.74511
G1 X112.924 Y63.197 E15.82862
G1 X115.47 Y63.133 E15.91333
G1 X117.978 Y63 E15.99686
G1 X120.512 Y62.794 E16.08142
G1 X123.022 Y62.517 E16.16541
G1 X125.51 Y62.171 E16.24896
G1 X128.01 Y61.752 E16.33327
G1 X130.512 Y61.26 E16.41808
G1 X132.949 Y60.706 E16.5012
G1 X135.418 Y60.073 E16.58598
G1 X137.856 Y59.374 E16.67034
G1 X140.25 Y58.613 E16.75389
G1 X142.662 Y57.771 E16.83886
G1 X144.705 Y57.007 E16.9114
G1 X145.581 Y56.722 E16.94204
G1 X146.478 Y56.514 E16.97267
G1 X147.389 Y56.385 E17.00327
G1 X148.308 Y56.336 E17.03388
G1 X148.867 Y56.344 E17.05247
G1 X151.921 Y56.473 E17.15414
G1 X154.403 Y56.505 E17.2367
G1 X156.972 Y56.464 E17.32216
G1 X159.78 Y56.343 E17.41564
G1 X160.7 Y56.343 E17.44624
G1 X161.618 Y56.423 E17.47689
G1 X162.524 Y56.583 E17.50749
G1 X163.414 Y56.821 E17.53813
G1 X164.196 Y57.096 E17.5657
G1 X165.045 Y57.452 E17.59632
G1 X165.806 Y57.85 E17.62488
G1 X166.251 Y58.106 E17.64196
G1 X167.028 Y58.599 E17.67256
G1 X167.741 Y59.143 E17.70239
G1 X168.079 Y59.424 E17.71701
G1 X168.761 Y60.043 E17.74764
G1 X169.36 Y60.687 E17.7769
G1 X169.743 Y61.135 E17.7965
G1 X170.31 Y61.86 E17.82711
G1 X170.873 Y62.736 E17.86175
G1 X171.117 Y63.16 E17.87802
G1 X171.541 Y63.977 E17.90863
G1 X171.861 Y64.74 E17.93615
G1 X171.967 Y65.024 E17.94623
G1 X172.251 Y65.9 E17.97686
G1 X172.458 Y66.797 E18.00748
G1 X172.587 Y67.709 E18.03812
G1 X172.636 Y68.628 E18.06873
G1 X172.622 Y69.267 E18.08998
G1 X172.588 Y69.931 E18.1121
G1 X172.49 Y72.599 E18.2009
G1 X172.469 Y75.144 E18.28555
G1 X172.519 Y77.671 E18.36961
G1 X172.626 Y80.082 E18.44988
G1 X172.626 Y81.002 E18.48048
G1 X172.547 Y81.92 E18.51112
G1 X172.389 Y82.827 E18.54175
G1 X172.197 Y83.57 E18.56727
G1 X172.033 Y84.122 E18.58642
G1 X171.348 Y86.544 E18.67014
G1 X170.728 Y89.003 E18.75448
G1 X170.166 Y91.524 E18.84039
G1 X169.697 Y93.956 E18.92277
G1 X169.284 Y96.481 E19.00787
G1 X168.95 Y98.947 E19.09064
G1 X168.679 Y101.5 E19.17603
G1 X168.485 Y104.003 E19.25953
G1 X168.361 Y106.509 E19.34298
G1 X168.307 Y109.06 E19.42784
G1 X168.326 Y111.609 E19.51263
G1 X168.414 Y114.107 E19.59576
G1 X168.576 Y116.629 E19.67982
G1 X168.809 Y119.148 E19.76396
G1 X169.113 Y121.663 E19.84822
G1 X169.49 Y124.177 E19.93277
G1 X169.929 Y126.632 E20.01571
G1 X170.448 Y129.129 E20.10054
G1 X171.032 Y131.586 E20.18454
G1 X171.685 Y134.02 E20.26836
G1 X172.407 Y136.439 E20.35232
G1 X173.204 Y138.858 E20.43703
G1 X174.361 Y142.018 E20.54895
G1 X174.829 Y143.226 E20.59204
G1 X175.124 Y144.098 E20.62266
G1 X175.342 Y144.993 E20.6533
G1 X175.481 Y145.903 E20.68392
G1 X175.541 Y146.821 E20.71451
G1 X175.533 Y147.535 E20.73826
G1 X175.424 Y149.929 E20.81797
G1 X175.378 Y152.469 E20.90247
G1 X175.403 Y154.987 E20.98622
G1 X175.475 Y156.996 E21.05308
G1 X175.537 Y158.397 E21.09972
G1 X175.537 Y159.318 E21.13036
G1 X175.458 Y160.235 E21.16097
G1 X175.3 Y161.142 E21.19159
G1 X175.063 Y162.032 E21.22222
G1 X174.82 Y162.732 E21.24687
G1 X174.467 Y163.582 E21.27748
G1 X174.087 Y164.32 E21.30509
G1 X173.808 Y164.813 E21.32393
G1 X173.32 Y165.594 E21.35456
G1 X172.772 Y166.323 E21.38489
G1 X172.495 Y166.66 E21.3994
G1 X171.88 Y167.345 E21.43002
G1 X171.244 Y167.943 E21.45906
G1 X170.79 Y168.336 E21.47903
G1 X170.068 Y168.908 E21.50967
G1 X169.171 Y169.491 E21.54525
G1 X168.809 Y169.701 E21.55917
G1 X167.993 Y170.128 E21.5898
G1 X167.276 Y170.433 E21.61571
G1 X166.923 Y170.568 E21.62828
G1 X166.05 Y170.859 E21.65889
G1 X165.155 Y171.073 E21.6895
G1 X164.244 Y171.209 E21.72013
G1 X163.325 Y171.265 E21.75076
G1 X162.642 Y171.255 E21.77348
G1 X160.368 Y171.149 E21.84919
G1 X157.808 Y171.096 E21.93436
G1 X155.253 Y171.116 E22.01934
G1 X152.859 Y171.202 E22.09901
G1 X151.841 Y171.251 E22.13291
G1 X150.921 Y171.255 E22.16351
G1 X150.003 Y171.18 E22.19415
G1 X149.096 Y171.025 E22.22475
G1 X148.591 Y170.904 E22.24202
G1 X147.755 Y170.681 E22.2708
G1 X145.242 Y170.044 E22.35703
G1 X142.796 Y169.498 E22.44038
G1 X140.295 Y169.013 E22.52512
G1 X137.783 Y168.6 E22.60979
G1 X135.32 Y168.265 E22.69246
G1 X132.795 Y167.995 E22.77692
G1 X130.266 Y167.796 E22.8613
G1 X127.746 Y167.67 E22.94522
G1 X125.203 Y167.615 E23.02982
G1 X122.695 Y167.631 E23.11323
G1 X120.141 Y167.72 E23.19823
G1 X117.64 Y167.878 E23.28158
G1 X115.11 Y168.11 E23.36608
G1 X112.603 Y168.412 E23.45007
G1 X110.094 Y168.786 E23.53444
G1 X107.646 Y169.221 E23.61714
G1 X105.139 Y169.74 E23.70229
G1 X102.667 Y170.326 E23.78679
G1 X100.269 Y170.967 E23.86934
G1 X97.227 Y171.88 E23.97498
G1 X96.335 Y172.106 E24.00559
G1 X95.426 Y172.254 E24.03622
G1 X94.508 Y172.322 E24.06683
G1 X93.711 Y172.317 E24.09334
G1 X90.977 Y172.196 E24.18436
G1 X88.429 Y172.154 E24.26912
G1 X85.897 Y172.185 E24.35334
G1 X83.761 Y172.266 E24.42444
G1 X82.861 Y172.308 E24.45441
G1 X81.94 Y172.311 E24.48504
G1 X81.022 Y172.235 E24.51568
G1 X80.115 Y172.078 E24.54629
G1 X79.225 Y171.844 E24.5769
G1 X78.458 Y171.578 E24.6039
G1 X77.608 Y171.225 E24.63451
G1 X76.843 Y170.829 E24.66316
G1 X76.371 Y170.56 E24.68123
G1 X75.592 Y170.07 E24.71184
G1 X74.819 Y169.481 E24.74416
G1 X74.458 Y169.179 E24.75982
G1 X73.778 Y168.558 E24.79045
G1 X73.079 Y167.791 E24.82496
G1 X72.746 Y167.387 E24.84238
G1 X72.192 Y166.652 E24.87299
G1 X71.783 Y166.009 E24.89833
G1 X71.563 Y165.634 E24.9128
G1 X71.132 Y164.82 E24.94343
G1 X70.802 Y164.047 E24.97139
G1 X70.667 Y163.693 E24.98399
G1 X70.376 Y162.819 E25.01462
G1 X70.163 Y161.924 E25.04522
G1 X70.028 Y161.013 E25.07585
G1 X69.972 Y160.094 E25.10648
G1 X69.982 Y159.432 E25.1285
G1 X70.091 Y157.05 E25.20781
G1 X70.138 Y154.543 E25.2912
G1 X70.113 Y151.959 E25.37715
G1 X70.03 Y149.646 E25.45413
G1 X69.981 Y148.601 E25.48893
G1 X69.978 Y147.68 E25.51956
G1 X70.055 Y146.763 E25.55017
G1 X70.298 Y145.486 E25.5934
G1 X71.053 Y142.527 E25.69497
G1 X71.606 Y140.052 E25.77932
G1 X72.084 Y137.589 E25.86277
G1 X72.497 Y135.083 E25.94724
G1 X72.836 Y132.589 E26.03096
G1 X73.106 Y130.077 E26.11499
G1 X73.302 Y127.578 E26.19836
G1 X73.432 Y125.001 E26.28418
G1 X73.486 Y122.526 E26.36652
G1 X73.47 Y119.979 E26.45123
G1 X73.381 Y117.424 E26.53627
G1 X73.226 Y114.938 E26.61911
G1 X72.995 Y112.417 E26.70331
G1 X72.691 Y109.885 E26.78813
G1 X72.321 Y107.397 E26.87179
G1 X71.874 Y104.881 E26.95678
G1 X71.368 Y102.442 E27.03963
G1 X70.786 Y99.981 E27.12374
