;FLAVOR:Marlin
;TIME:9487
;Filament used: 7.99883m
;Layer height: 0.2
;MINX:56.828
;MINY:31.769
;MINZ:0.24
;MAXX:178.189
;MAXY:148.508
;MAXZ:3.69
;Generated with Cura_SteamEngine 5.0.0
M140 S50
M105
M190 S50
M104 S200
M105
M109 S200
M82 ;absolute extrusion mode
; Ender 3 Custom Start G-code
G92 E0 ; Reset Extruder
G28 ; Home all axes
G1 Z2.0 F3000 ; Move Z Axis up little to prevent scratching of Heat Bed
G1 X0.1 Y20 Z0.3 F5000.0 ; Move to start position
G1 X0.1 Y200.0 Z0.3 F1500.0 E15 ; Draw the first line
G1 X0.4 Y200.0 Z0.3 F5000.0 ; Move to side a little
G1 X0.4 Y20 Z0.3 F1500.0 E30 ; Draw the second line
G92 E0 ; Reset Extruder
G1 Z2.0 F3000 ; Move Z Axis up little to prevent scratching of Heat Bed
G1 X5 Y20 Z0.3 F5000.0 ; Move over to prevent blob squish
G92 E0
G92 E0
G1 F2700 E-5
;LAYER_COUNT:13
;LAYER:-6
M107
G0 F9000 X60.418 Y41.153 Z0.24
;TYPE:SUPPORT-INTERFACE
G1 F2700 E0
G1 F1125 X60.302 Y41.41 E0.02251
G1 X59.991 Y42.14 E0.08585
G1 X59.645 Y43.141 E0.17039
G1 X59.572 Y43.396 E0.19156
G1 X59.33 Y44.337 E0.26912
G1 X59.166 Y45.224 E0.34113
G1 X59.133 Y45.475 E0.36133
G1 X59.042 Y46.294 E0.42711
G1 X58.995 Y47.441 E0.51875
G1 X58.995 Y97.372 E4.50446
G1 X59.011 Y98.057 E4.55915
G1 X59.096 Y99.123 E4.64451
G1 X59.227 Y100.01 E4.71609
G1 X59.456 Y101.06 E4.80187
G1 X59.617 Y101.615 E4.848
G1 X59.752 Y102.066 E4.88558
G1 X59.839 Y102.314 E4.90656
G1 X60.187 Y103.206 E4.98299
G1 X60.58 Y104.044 E5.05687
G1 X60.995 Y104.794 E5.1253
G1 X61.196 Y105.195 E5.1611
G1 X61.436 Y105.829 E5.21521
G1 X61.596 Y106.487 E5.26927
G1 X61.671 Y107.157 E5.32309
G1 X61.661 Y107.854 E5.37873
G1 X61.561 Y108.537 E5.43383
G1 X61.385 Y109.18 E5.48705
G1 X61.208 Y109.692 E5.53029
G1 X60.971 Y110.434 E5.59247
G1 X60.471 Y112.176 E5.73713
G1 X60.055 Y113.788 E5.87003
G1 X59.765 Y115.021 E5.97114
G1 X59.324 Y117.136 E6.1436
G1 X59.249 Y117.525 E6.17522
G1 X59.028 Y118.772 E6.27631
G1 X58.711 Y120.834 E6.44284
G1 X58.653 Y121.235 E6.47519
G1 X58.616 Y121.498 E6.49639
G1 X58.37 Y123.547 E6.66112
G1 X58.236 Y124.926 E6.77172
G1 X58.205 Y125.229 E6.79603
G1 X57.99 Y128.38 E7.04814
G1 X57.963 Y128.978 E7.09592
G1 X57.879 Y132.52 E7.37874
G1 X57.883 Y133.321 E7.44268
G1 X57.898 Y133.595 E7.46459
G1 X57.976 Y134.559 E7.54179
G1 X58.107 Y135.448 E7.61352
G1 X58.336 Y136.495 E7.69907
G1 X58.526 Y137.138 E7.75259
G1 X58.69 Y137.671 E7.79711
G1 X59.074 Y138.658 E7.88165
G1 X59.462 Y139.484 E7.95449
G1 X59.75 Y140.003 E8.00187
G1 X60.058 Y140.544 E8.05157
G1 X60.552 Y141.291 E8.12305
G1 X60.712 Y141.509 E8.14464
G1 X61.206 Y142.15 E8.20924
G1 X61.374 Y142.346 E8.22985
G1 X62.028 Y143.066 E8.30749
G1 X62.679 Y143.693 E8.37964
G1 X63.49 Y144.375 E8.46422
G1 X63.995 Y144.742 E8.51406
G1 X64.338 Y144.987 E8.5477
G1 X64.601 Y145.156 E8.57266
G1 X65.405 Y145.64 E8.64757
G1 X66.193 Y146.046 E8.71833
G1 X66.45 Y146.162 E8.74083
G1 X67.18 Y146.473 E8.80417
G1 X68.181 Y146.819 E8.88872
G1 X68.436 Y146.892 E8.90989
G1 X69.377 Y147.134 E8.98745
G1 X70.264 Y147.298 E9.05945
G1 X70.515 Y147.331 E9.07966
G1 X71.334 Y147.422 E9.14544
G1 X72.464 Y147.469 E9.23572
G1 X162.501 Y147.469 E16.42286
G1 X163.148 Y147.454 E16.47452
G1 X164.143 Y147.375 E16.5542
G1 X164.456 Y147.336 E16.57938
G1 X165.251 Y147.209 E16.64364
G1 X165.551 Y147.146 E16.66811
G1 X166.474 Y146.923 E16.74391
G1 X167.325 Y146.655 E16.81513
G1 X168.313 Y146.269 E16.8998
G1 X168.565 Y146.154 E16.92191
G1 X169.431 Y145.729 E16.99891
G1 X170.222 Y145.274 E17.07176
G1 X170.713 Y144.943 E17.11902
G1 X171.225 Y144.591 E17.16862
G1 X171.94 Y144.024 E17.24146
G1 X172.716 Y143.319 E17.32515
G1 X172.904 Y143.129 E17.34649
G1 X173.456 Y142.543 E17.41075
G1 X174.131 Y141.722 E17.49559
G1 X174.288 Y141.508 E17.51678
G1 X174.839 Y140.71 E17.59419
G1 X175.301 Y139.931 E17.66649
G1 X175.425 Y139.695 E17.68777
G1 X175.777 Y138.989 E17.75074
G1 X175.886 Y138.741 E17.77236
G1 X176.19 Y138.007 E17.83578
G1 X176.275 Y137.764 E17.85633
G1 X176.537 Y136.964 E17.92353
G1 X176.791 Y135.96 E18.0062
G1 X176.976 Y134.927 E18.08997
G1 X177.013 Y134.626 E18.11417
G1 X177.089 Y133.852 E18.17626
G1 X177.103 Y133.561 E18.19951
G1 X177.122 Y132.758 E18.26363
G1 X177.11 Y131.4 E18.37203
G1 X177.099 Y130.958 E18.40733
G1 X176.983 Y127.92 E18.65001
G1 X176.938 Y127.203 E18.70736
G1 X176.571 Y123.051 E19.04008
G1 X176.467 Y122.179 E19.11018
G1 X175.916 Y118.47 E19.4095
G1 X175.769 Y117.656 E19.47553
G1 X175.051 Y114.24 E19.75416
G1 X174.894 Y113.575 E19.80871
G1 X174.606 Y112.463 E19.9004
G1 X174.296 Y111.33 E19.99416
G1 X173.928 Y110.103 E20.09642
G1 X173.784 Y109.653 E20.13413
G1 X173.304 Y108.234 E20.25371
G1 X173.198 Y107.924 E20.27986
G1 X172.933 Y107.192 E20.342
G1 X172.722 Y106.511 E20.39891
G1 X172.611 Y105.842 E20.45305
G1 X172.582 Y105.183 E20.5057
G1 X172.583 Y105.138 E20.5093
G1 X172.641 Y104.476 E20.56234
G1 X172.775 Y103.841 E20.61415
G1 X172.789 Y103.791 E20.61829
G1 X173.008 Y103.174 E20.67055
G1 X173.27 Y102.535 E20.72568
G1 X173.544 Y101.727 E20.79379
G1 X173.614 Y101.478 E20.81443
G1 X173.858 Y100.531 E20.8925
G1 X174.021 Y99.651 E20.96394
G1 X174.146 Y98.573 E21.05056
G1 X174.194 Y97.425 E21.14228
G1 X174.194 Y47.494 E25.12799
G1 X174.177 Y46.806 E25.18293
G1 X174.092 Y45.743 E25.26805
G1 X173.961 Y44.856 E25.33962
G1 X173.731 Y43.806 E25.42543
G1 X173.566 Y43.234 E25.47295
G1 X173.437 Y42.803 E25.50886
G1 X173.347 Y42.552 E25.53014
G1 X172.994 Y41.646 E25.60776
G1 X172.608 Y40.825 E25.68018
G1 X172.093 Y39.895 E25.76504
G1 X171.513 Y39.01 E25.8495
G1 X171.364 Y38.808 E25.86954
G1 X170.752 Y38.024 E25.94893
G1 X170.038 Y37.238 E26.03369
G1 X169.389 Y36.611 E26.10573
G1 X168.576 Y35.927 E26.19054
G1 X168.081 Y35.567 E26.2394
G1 X167.729 Y35.315 E26.27395
G1 X167.475 Y35.153 E26.298
G1 X166.664 Y34.664 E26.3736
G1 X165.873 Y34.257 E26.4446
G1 X165.607 Y34.137 E26.4679
G1 X164.896 Y33.835 E26.52956
G1 X164.603 Y33.727 E26.55449
G1 X163.889 Y33.486 E26.61464
G1 X163.623 Y33.41 E26.63672
G1 X162.691 Y33.17 E26.71355
G1 X161.809 Y33.007 E26.78515
G1 X160.735 Y32.882 E26.87146
G1 X159.603 Y32.835 E26.96189
G1 X73.657 Y32.835 E33.82248
G1 X73.379 Y32.84 E33.84467
G1 X72.966 Y32.851 E33.87765
G1 X71.905 Y32.936 E33.96261
G1 X71.017 Y33.067 E34.03427
G1 X69.969 Y33.296 E34.1199
G1 X69.327 Y33.486 E34.17334
G1 X68.793 Y33.65 E34.21793
G1 X67.806 Y34.034 E34.30247
G1 X66.98 Y34.422 E34.37532
G1 X66.461 Y34.71 E34.4227
G1 X65.92 Y35.018 E34.47239
G1 X65.174 Y35.512 E34.54381
G1 X64.958 Y35.67 E34.56517
G1 X64.314 Y36.166 E34.63006
G1 X64.118 Y36.334 E34.65067
G1 X63.398 Y36.988 E34.72831
G1 X62.771 Y37.639 E34.80046
G1 X62.089 Y38.45 E34.88505
G1 X61.726 Y38.948 E34.93424
G1 X61.475 Y39.299 E34.96868
G1 X61.313 Y39.553 E34.99273
G1 X60.824 Y40.365 E35.06839
G1 X60.418 Y41.153 E35.13915
G0 F9000 X61.089 Y40.724
G1 F1125 X166.773 Y146.408 E47.06968
G0 F9000 X168.408 Y145.781
G1 F1125 X61.95 Y39.322 E59.08763
G0 F9000 X62.943 Y38.053
G1 F1125 X169.892 Y145.002 E71.16096
G0 F9000 X171.228 Y144.075
G1 F1125 X64.071 Y36.918 E83.25777
G0 F9000 X65.318 Y35.903
G1 F1125 X172.44 Y143.024 E95.35057
G0 F9000 X173.516 Y141.837
G1 F1125 X66.71 Y35.032 E107.4077
G0 F9000 X68.237 Y34.296
G1 F1125 X174.474 Y140.533 E119.40065
G0 F9000 X175.283 Y139.079
G1 F1125 X69.929 Y33.725 E131.29392
G0 F9000 X71.82 Y33.353
G1 F1125 X175.944 Y137.477 E143.04833
G0 F9000 X176.43 Y135.701
G1 F1125 X73.964 Y33.234 E154.61564
G0 F9000 X76.226 Y33.234
G1 F1125 X176.694 Y133.702 E165.95733
G0 F9000 X176.71 Y131.455
G1 F1125 X78.489 Y33.234 E177.04537
G0 F9000 X80.752 Y33.234
G1 F1125 X176.626 Y129.109 E187.86851
G0 F9000 X176.492 Y126.712
G1 F1125 X83.015 Y33.234 E198.42106
G0 F9000 X85.277 Y33.234
G1 F1125 X176.273 Y124.23 E208.69347
G0 F9000 X175.988 Y121.682
G1 F1125 X87.54 Y33.234 E218.67825
G0 F9000 X89.803 Y33.234
G1 F1125 X175.592 Y119.024 E228.36291
G0 F9000 X175.059 Y116.228
G1 F1125 X92.066 Y33.234 E237.73193
G0 F9000 X94.328 Y33.234
G1 F1125 X174.41 Y113.316 E246.77228
G0 F9000 X173.525 Y110.168
G1 F1125 X96.591 Y33.234 E255.45726
G0 F9000 X98.854 Y33.234
G1 F1125 X172.38 Y106.761 E263.75756
G0 F9000 X172.255 Y104.373
G1 F1125 X101.116 Y33.234 E271.78835
G0 F9000 X103.379 Y33.234
G1 F1125 X172.792 Y102.647 E279.62429
G0 F9000 X173.339 Y100.931
G1 F1125 X105.642 Y33.234 E287.26651
G0 F9000 X107.905 Y33.234
G1 F1125 X173.69 Y99.02 E294.69295
G0 F9000 X173.793 Y96.86
G1 F1125 X110.167 Y33.234 E301.8756
G0 F9000 X112.43 Y33.234
G1 F1125 X173.793 Y94.597 E308.80278
G0 F9000 X173.793 Y92.334
G1 F1125 X114.693 Y33.234 E315.4745
G0 F9000 X116.956 Y33.234
G1 F1125 X173.793 Y90.071 E321.89075
G0 F9000 X173.793 Y87.809
G1 F1125 X119.218 Y33.234 E328.05165
G0 F9000 X121.481 Y33.234
G1 F1125 X173.793 Y85.546 E333.95708
G0 F9000 X173.793 Y83.283
G1 F1125 X123.744 Y33.234 E339.60705
G0 F9000 X126.007 Y33.234
G1 F1125 X173.793 Y81.021 E345.0016
G0 F9000 X173.793 Y78.758
G1 F1125 X128.269 Y33.234 E350.14074
G0 F9000 X130.532 Y33.234
G1 F1125 X173.793 Y76.495 E355.02442
G0 F9000 X173.793 Y74.232
G1 F1125 X132.795 Y33.234 E359.65263
G0 F9000 X135.058 Y33.234
G1 F1125 X173.793 Y71.97 E364.02542
G0 F9000 X173.793 Y69.707
G1 F1125 X137.32 Y33.234 E368.14281
G0 F9000 X139.583 Y33.234
G1 F1125 X173.793 Y67.444 E372.00473
G0 F9000 X173.793 Y65.181
G1 F1125 X141.846 Y33.234 E375.61118
G0 F9000 X144.109 Y33.234
G1 F1125 X173.793 Y62.919 E378.96223
G0 F9000 X173.793 Y60.656
G1 F1125 X146.371 Y33.234 E382.05786
G0 F9000 X148.634 Y33.234
G1 F1125 X173.793 Y58.393 E384.89803
G0 F9000 X173.793 Y56.13
G1 F1125 X150.897 Y33.234 E387.48272
G0 F9000 X153.16 Y33.234
G1 F1125 X173.793 Y53.868 E389.81201
G0 F9000 X173.793 Y51.605
G1 F1125 X155.422 Y33.234 E391.88589
G0 F9000 X157.685 Y33.234
G1 F1125 X173.793 Y49.342 E393.7043
G0 F9000 X173.782 Y47.069
G1 F1125 X159.963 Y33.25 E395.26431
G0 F9000 X162.522 Y33.546
G1 F1125 X173.47 Y44.494 E396.50021
G0 F9000 X172.256 Y41.017
G1 F1125 X166.025 Y34.786 E397.20362
G1 F2700 E392.20362
G0 F9000 X166.343 Y33.302
G0 X165.079 Y32.765
G0 X163.082 Y32.166
G0 X161.766 Y31.925
G0 X159.581 Y31.77
G0 X72.904 Y31.788
G0 X70.836 Y32.017
G0 X69.521 Y32.313
G0 X67.555 Y32.984
G0 X66.337 Y33.556
G0 X64.571 Y34.635
G0 X63.491 Y35.466
G0 X61.986 Y36.92
G0 X61.128 Y37.953
G0 X59.981 Y39.691
G0 X59.806 Y40.032
G0 X59.023 Y41.697
G0 X60.37 Y42.268
G1 F2700 E397.20362
G1 F1125 X164.951 Y146.849 E409.00963
G0 F9000 X162.898 Y147.059
G1 F1125 X59.831 Y43.992 E420.64472
G0 F9000 X59.488 Y45.911
G1 F1125 X160.644 Y147.068 E432.06414
G0 F9000 X158.382 Y147.068
G1 F1125 X59.394 Y48.081 E443.23871
G0 F9000 X59.394 Y50.343
G1 F1125 X156.119 Y147.068 E454.15786
G0 F9000 X153.856 Y147.068
G1 F1125 X59.394 Y52.606 E464.82155
G0 F9000 X59.394 Y54.869
G1 F1125 X151.593 Y147.068 E475.22977
G0 F9000 X149.331 Y147.068
G1 F1125 X59.394 Y57.132 E485.38258
G0 F9000 X59.394 Y59.394
G1 F1125 X147.068 Y147.068 E495.27997
G0 F9000 X144.805 Y147.068
G1 F1125 X59.394 Y61.657 E504.92191
G0 F9000 X59.394 Y63.92
G1 F1125 X142.542 Y147.068 E514.30837
G0 F9000 X140.28 Y147.068
G1 F1125 X59.394 Y66.183 E523.43943
G0 F9000 X59.394 Y68.445
G1 F1125 X138.017 Y147.068 E532.31507
G0 F9000 X135.754 Y147.068
G1 F1125 X59.394 Y70.708 E540.93525
G0 F9000 X59.394 Y72.971
G1 F1125 X133.491 Y147.068 E549.29996
G0 F9000 X131.229 Y147.068
G1 F1125 X59.394 Y75.234 E557.40925
G0 F9000 X59.394 Y77.496
G1 F1125 X128.966 Y147.068 E565.26314
G0 F9000 X126.703 Y147.068
G1 F1125 X59.394 Y79.759 E572.86157
G0 F9000 X59.394 Y82.022
G1 F1125 X124.44 Y147.068 E580.20452
G0 F9000 X122.178 Y147.068
G1 F1125 X59.394 Y84.285 E587.29206
G0 F9000 X59.394 Y86.547
G1 F1125 X119.915 Y147.068 E594.1242
G0 F9000 X117.652 Y147.068
G1 F1125 X59.394 Y88.81 E600.70086
G0 F9000 X59.394 Y91.073
G1 F1125 X115.389 Y147.068 E607.02206
G0 F9000 X113.127 Y147.068
G1 F1125 X59.394 Y93.335 E613.08791
G0 F9000 X59.394 Y95.598
G1 F1125 X110.864 Y147.068 E618.89829
G0 F9000 X108.601 Y147.068
G1 F1125 X59.406 Y97.873 E624.45184
G0 F9000 X59.735 Y100.465
G1 F1125 X106.338 Y147.068 E629.71279
G0 F9000 X104.076 Y147.068
G1 F1125 X61.02 Y104.012 E634.57333
G0 F9000 X62.064 Y107.319
G1 F1125 X101.813 Y147.068 E639.06054
G0 F9000 X99.55 Y147.068
G1 F1125 X61.768 Y109.286 E643.3257
G0 F9000 X61.223 Y111.003
G1 F1125 X97.287 Y147.068 E647.39697
G0 F9000 X95.025 Y147.068
G1 F1125 X60.729 Y112.772 E651.2686
G0 F9000 X60.278 Y114.583
G1 F1125 X92.762 Y147.068 E654.93573
G0 F9000 X90.499 Y147.068
G1 F1125 X59.876 Y116.444 E658.39277
G0 F9000 X59.511 Y118.342
G1 F1125 X88.237 Y147.068 E661.63561
G0 F9000 X85.974 Y147.068
G1 F1125 X59.2 Y120.294 E664.65809
G0 F9000 X58.926 Y122.283
G1 F1125 X83.711 Y147.068 E667.45604
G0 F9000 X81.448 Y147.068
G1 F1125 X58.698 Y124.317 E670.02431
G0 F9000 X58.525 Y126.407
G1 F1125 X79.186 Y147.068 E672.3567
G0 F9000 X76.923 Y147.068
G1 F1125 X58.385 Y128.53 E674.44943
G0 F9000 X58.323 Y130.731
G1 F1125 X74.66 Y147.068 E676.29369
G0 F9000 X72.394 Y147.064
G1 F1125 X58.281 Y132.952 E677.88684
G0 F9000 X58.517 Y135.45
G1 F1125 X69.886 Y146.82 E679.17032
G0 F9000 X66.586 Y145.782
G1 F1125 X59.563 Y138.759 E679.96314
G1 F2700 E674.96314
G0 F300 X59.563 Y138.759 Z0.54
G0 F9000 X58.024 Y138.909
G0 X57.353 Y136.943
G0 X57.057 Y135.628
G0 X56.828 Y133.564
G0 X57.981 Y46.203
G0 X58.288 Y44.118
G0 X58.63 Y42.814
G0 X59.363 Y40.896
G0 X59.981 Y39.691
G0 X61.128 Y37.953
G0 X61.986 Y36.92
G0 X63.491 Y35.466
G0 X63.796 Y35.231
G0 X65.317 Y34.139
G0 X66.127 Y35.358
;TIME_ELAPSED:474.679397
;LAYER:-5
;TYPE:SUPPORT
G1 F2700 E679.96314
G1 F1125 X65.251 Y35.947 E680.06847
G1 X64.452 Y36.57 E680.16956
G1 X63.67 Y37.28 E680.27495
G1 X63.076 Y37.897 E680.36041
G1 X62.409 Y38.69 E680.46381
G1 X61.792 Y39.539 E680.56853
G1 X61.243 Y40.43 E680.67295
G1 X61.083 Y40.739 E680.70767
G1 X66.907 Y34.915 E681.5295
G1 X67.171 Y34.773 E681.55941
G1 X67.955 Y34.404 E681.64587
G1 X69.07 Y33.977 E681.76501
G1 X69.34 Y33.897 E681.79311
G1 X60.056 Y43.18 E683.10311
G1 X59.971 Y43.434 E683.12983
G1 X59.749 Y44.288 E683.21788
G1 X59.606 Y45.045 E683.29475
G1 X71.206 Y33.445 E684.93163
G1 X71.941 Y33.334 E685.0058
G1 X72.8 Y33.265 E685.09179
G1 X59.426 Y46.639 E686.97901
G1 X59.393 Y47.464 E687.06139
G1 X59.394 Y48.086 E687.12346
G1 X74.246 Y33.234 E689.21923
G1 X75.66 Y33.234 E689.36032
G1 X59.394 Y49.5 E691.65563
G1 X59.394 Y50.914 E691.79672
G1 X77.074 Y33.234 E694.29156
G1 X78.488 Y33.234 E694.43265
G1 X59.394 Y52.328 E697.12702
G1 X59.394 Y53.742 E697.26811
G1 X79.903 Y33.234 E700.16208
G1 X81.317 Y33.234 E700.30317
G1 X59.394 Y55.157 E703.39674
G1 X59.394 Y56.571 E703.53783
G1 X82.731 Y33.234 E706.83093
G1 X84.145 Y33.234 E706.97202
G1 X59.394 Y57.985 E710.46466
G1 X59.394 Y59.399 E710.60575
G1 X85.559 Y33.234 E714.29791
G1 X86.974 Y33.234 E714.4391
G1 X59.394 Y60.814 E718.33093
G1 X59.394 Y62.228 E718.47202
G1 X88.388 Y33.234 E722.56339
G1 X89.802 Y33.234 E722.70448
G1 X59.394 Y63.642 E726.99538
G1 X59.394 Y65.056 E727.13647
G1 X91.216 Y33.234 E731.6269
G1 X92.63 Y33.234 E731.76798
G1 X59.394 Y66.47 E736.45794
G1 X59.394 Y67.885 E736.59913
G1 X94.045 Y33.234 E741.48876
G1 X95.459 Y33.234 E741.62985
G1 X59.394 Y69.299 E746.71901
G1 X59.394 Y70.713 E746.8601
G1 X96.873 Y33.234 E752.14879
G1 X98.287 Y33.234 E752.28988
G1 X59.394 Y72.127 E757.77811
G1 X59.394 Y73.541 E757.9192
G1 X99.702 Y33.234 E763.60702
G1 X101.116 Y33.234 E763.74811
G1 X59.394 Y74.956 E769.63553
G1 X59.394 Y76.37 E769.77662
G1 X102.53 Y33.234 E775.86358
G1 X103.944 Y33.234 E776.00467
G1 X59.394 Y77.784 E782.29115
G1 X59.394 Y79.198 E782.43224
G1 X105.358 Y33.234 E788.91826
G1 X106.773 Y33.234 E789.05945
G1 X59.394 Y80.613 E795.74514
G1 X59.394 Y82.027 E795.88623
G1 X108.187 Y33.234 E802.77145
G1 X109.601 Y33.234 E802.91254
G1 X59.394 Y83.441 E809.99729
G1 X59.394 Y84.855 E810.13838
G1 X111.015 Y33.234 E817.42266
G1 X112.429 Y33.234 E817.56375
G1 X59.394 Y86.269 E825.04756
G1 X59.394 Y87.684 E825.18875
G1 X113.844 Y33.234 E832.87223
G1 X115.258 Y33.234 E833.01332
G1 X59.394 Y89.098 E840.89633
G1 X59.394 Y90.512 E841.03742
G1 X116.672 Y33.234 E849.11997
G1 X118.086 Y33.234 E849.26106
G1 X59.394 Y91.926 E857.54313
G1 X59.394 Y93.34 E857.68422
G1 X119.501 Y33.234 E866.1659
