;FLAVOR:Marlin
;TIME:13649
;Filament used: 7.94908m
;Layer height: 0.2
;MINX:11.314
;MINY:17.407
;MINZ:0.2
;MAXX:184.265
;MAXY:149.139
;MAXZ:22.4
;Generated with Cura_SteamEngine 5.0.0
M140 S50
M105
M190 S50
M104 S200
M105
M109 S200
M82 ;absolute extrusion mode
; Ender 3 Custom Start G-code
G92 E0 ; Reset Extruder
G28 ; Home all axes
G1 Z2.0 F3000 ; Move Z Axis up little to prevent scratching of Heat Bed
G1 X0.1 Y20 Z0.3 F5000.0 ; Move to start position
G1 X0.1 Y200.0 Z0.3 F1500.0 E15 ; Draw the first line
G1 X0.4 Y200.0 Z0.3 F5000.0 ; Move to side a little
G1 X0.4 Y20 Z0.3 F1500.0 E30 ; Draw the second line
G92 E0 ; Reset Extruder
G1 Z2.0 F3000 ; Move Z Axis up little to prevent scratching of Heat Bed
G1 X5 Y20 Z0.3 F5000.0 ; Move over to prevent blob squish
G92 E0
G92 E0
G1 F2700 E-5
;LAYER_COUNT:113
;LAYER:0
M107
G0 F6000 X94.711 Y38.169 Z0.2
;TYPE:SKIRT
G1 F2700 E0
G1 F1200 X95.103 Y38.732 E0.02282
G1 X95.487 Y39.423 E0.04911
G1 X95.799 Y40.148 E0.07536
G1 X96.036 Y40.901 E0.10162
G1 X96.195 Y41.675 E0.1279
G1 X96.276 Y42.46 E0.15415
G1 X96.286 Y42.862 E0.16752
G1 X96.286 Y62.799 E0.83063
G1 X105.712 Y62.799 E1.14414
G1 X105.564 Y62.33 E1.1605
G1 X105.405 Y61.556 E1.18678
G1 X105.315 Y60.492 E1.22229
G1 X105.28 Y58.289 E1.29557
G1 X105.108 Y55.17 E1.39947
G1 X104.794 Y52.139 E1.50082
G1 X104.351 Y49.291 E1.59668
G1 X103.798 Y46.676 E1.68558
G1 X103.117 Y44.219 E1.77038
G1 X102.39 Y42.151 E1.84329
G1 X101.635 Y40.453 E1.9051
G1 X100.901 Y39.153 E1.95475
G1 X100.289 Y38.321 E1.98911
G1 X100.138 Y38.169 E1.99623
G1 X94.711 Y38.169 E2.17674
G0 F6000 X93.846 Y37.769
G1 F1200 X93.956 Y37.878 E2.18189
G1 X94.444 Y38.473 E2.20748
G1 X94.867 Y39.115 E2.23305
G1 X95.222 Y39.798 E2.25865
G1 X95.503 Y40.513 E2.28421
G1 X95.709 Y41.255 E2.30982
G1 X95.837 Y42.013 E2.33539
G1 X95.886 Y42.862 E2.36367
G1 X95.886 Y62.862 E3.02887
G1 X95.868 Y63.199 E3.0401
G1 X106.286 Y63.199 E3.3866
G1 X106.097 Y62.718 E3.40379
G1 X105.891 Y61.976 E3.4294
G1 X105.763 Y61.218 E3.45497
G1 X105.715 Y60.485 E3.4794
G1 X105.68 Y58.287 E3.55252
G1 X105.506 Y55.128 E3.65775
G1 X105.192 Y52.095 E3.75916
G1 X104.745 Y49.223 E3.85584
G1 X104.183 Y46.565 E3.9462
G1 X103.503 Y44.109 E4.03096
G1 X102.766 Y42.013 E4.10485
G1 X101.99 Y40.268 E4.16837
G1 X101.234 Y38.93 E4.21949
G1 X100.596 Y38.062 E4.25532
G1 X100.305 Y37.769 E4.26905
G1 X93.846 Y37.769 E4.48388
G0 F6000 X92.813 Y37.369
G1 F1200 X93.249 Y37.733 E4.50277
G1 X93.77 Y38.27 E4.52766
G1 X94.229 Y38.86 E4.55252
G1 X94.624 Y39.496 E4.57742
G1 X94.948 Y40.17 E4.60229
G1 X95.198 Y40.875 E4.62717
G1 X95.372 Y41.603 E4.65207
G1 X95.467 Y42.345 E4.67695
G1 X95.486 Y42.862 E4.69415
G1 X95.486 Y62.862 E5.35936
G1 X95.447 Y63.599 E5.3839
G1 X106.911 Y63.599 E5.7652
G1 X106.652 Y63.061 E5.78506
G1 X106.402 Y62.356 E5.80994
G1 X106.228 Y61.628 E5.83483
G1 X106.133 Y60.886 E5.85971
G1 X106.115 Y60.479 E5.87326
G1 X106.08 Y58.258 E5.94714
G1 X105.906 Y55.107 E6.0521
G1 X105.589 Y52.049 E6.15436
G1 X105.139 Y49.153 E6.25184
G1 X104.57 Y46.465 E6.34322
G1 X103.885 Y43.991 E6.4286
G1 X103.135 Y41.857 E6.50384
G1 X102.348 Y40.087 E6.56826
G1 X101.575 Y38.719 E6.62052
G1 X100.899 Y37.799 E6.6585
G1 X100.471 Y37.369 E6.67867
G1 X92.813 Y37.369 E6.93338
G0 F6000 X91.443 Y36.969
G1 F1200 X91.939 Y37.237 E6.95213
G1 X92.536 Y37.651 E6.9763
G1 X93.084 Y38.127 E7.00044
G1 X93.577 Y38.661 E7.02461
G1 X94.007 Y39.246 E7.04876
G1 X94.371 Y39.875 E7.07293
G1 X94.664 Y40.54 E7.0971
G1 X94.882 Y41.233 E7.12126
G1 X95.022 Y41.945 E7.1454
G1 X95.086 Y42.862 E7.17597
G1 X95.086 Y62.862 E7.84117
G1 X95.046 Y63.587 E7.86532
G1 X94.978 Y63.999 E7.87921
G1 X107.603 Y63.999 E8.29912
G1 X107.229 Y63.356 E8.32386
G1 X106.936 Y62.691 E8.34803
G1 X106.718 Y61.998 E8.37219
G1 X106.578 Y61.286 E8.39633
G1 X106.515 Y60.473 E8.42345
G1 X106.48 Y58.254 E8.49726
G1 X106.303 Y55.053 E8.60389
G1 X105.987 Y52.006 E8.70578
G1 X105.529 Y49.062 E8.80488
G1 X104.962 Y46.379 E8.89608
G1 X104.268 Y43.875 E8.98251
G1 X103.508 Y41.715 E9.05867
G1 X102.703 Y39.902 E9.12464
G1 X101.912 Y38.502 E9.17813
G1 X101.202 Y37.536 E9.218
G1 X100.66 Y36.991 E9.24356
G1 X100.629 Y36.969 E9.24483
G1 X91.443 Y36.969 E9.55036
G1 F2700 E4.55036
G0 F6000 X88.486 Y37.062
G1 F2700 E9.55036
G1 F1200 X89.166 Y37.102 E9.57301
G1 X89.836 Y37.221 E9.59565
G1 X90.488 Y37.418 E9.6183
G1 X91.112 Y37.69 E9.64094
G1 X91.7 Y38.034 E9.6636
G1 X92.244 Y38.444 E9.68625
G1 X92.735 Y38.915 E9.70888
G1 X93.169 Y39.44 E9.73154
G1 X93.538 Y40.012 E9.75418
G1 X93.837 Y40.624 E9.77683
G1 X94.062 Y41.266 E9.79946
G1 X94.211 Y41.931 E9.82213
G1 X94.286 Y42.862 E9.85319
G1 X94.286 Y62.862 E10.51839
G1 X94.246 Y63.542 E10.54105
G1 X94.127 Y64.212 E10.56368
G1 X93.95 Y64.799 E10.58408
G1 X109.372 Y64.799 E11.09701
G1 X108.865 Y64.316 E11.1203
G1 X108.431 Y63.791 E11.14296
G1 X108.062 Y63.219 E11.1656
G1 X107.763 Y62.607 E11.18825
G1 X107.538 Y61.965 E11.21088
G1 X107.389 Y61.3 E11.23355
G1 X107.315 Y60.46 E11.26159
G1 X107.28 Y58.223 E11.33601
G1 X107.101 Y54.995 E11.44353
G1 X106.781 Y51.9 E11.54702
G1 X106.32 Y48.941 E11.64663
G1 X105.736 Y46.179 E11.74052
G1 X105.033 Y43.639 E11.82818
G1 X104.252 Y41.418 E11.90648
G1 X103.417 Y39.54 E11.97484
G1 X102.584 Y38.065 E12.03118
G1 X101.814 Y37.018 E12.07441
G1 X101.177 Y36.377 E12.10447
G1 X100.886 Y36.171 E12.11633
G1 X44.148 Y36.169 E14.00344
G1 X44.655 Y36.652 E14.02673
G1 X45.089 Y37.177 E14.04939
G1 X45.458 Y37.749 E14.07203
G1 X45.757 Y38.361 E14.09468
G1 X45.982 Y39.003 E14.11731
G1 X46.131 Y39.668 E14.13997
G1 X46.205 Y40.508 E14.16802
G1 X46.24 Y42.747 E14.2425
G1 X46.417 Y45.961 E14.34956
G1 X46.74 Y49.073 E14.45362
G1 X47.2 Y52.027 E14.55305
G1 X47.781 Y54.78 E14.64664
G1 X48.489 Y57.338 E14.73491
G1 X49.264 Y59.54 E14.81256
G1 X50.097 Y61.417 E14.88086
G1 X50.938 Y62.905 E14.93771
G1 X51.707 Y63.952 E14.98091
G1 X52.342 Y64.591 E15.01088
G1 X52.634 Y64.797 E15.02276
G1 X78.03 Y64.799 E15.86744
G1 X77.981 Y64.662 E15.87228
G1 X72.144 Y64.662 E16.06641
G1 X71.53 Y64.626 E16.08687
G1 X71.08 Y64.662 E16.10189
G1 X66.252 Y64.662 E16.26247
G1 X65.572 Y64.622 E16.28512
G1 X64.902 Y64.503 E16.30776
G1 X64.25 Y64.306 E16.33041
G1 X63.626 Y64.034 E16.35305
G1 X63.038 Y63.69 E16.37571
G1 X62.494 Y63.28 E16.39836
G1 X62.003 Y62.809 E16.42099
G1 X61.569 Y62.284 E16.44365
G1 X61.2 Y61.712 E16.46629
G1 X60.901 Y61.1 E16.48894
G1 X60.676 Y60.458 E16.51157
G1 X60.527 Y59.793 E16.53424
G1 X60.452 Y58.862 E16.5653
G1 X60.452 Y46.862 E16.96442
G1 X60.492 Y46.182 E16.98708
G1 X60.611 Y45.512 E17.00971
G1 X60.808 Y44.86 E17.03237
G1 X61.08 Y44.236 E17.05501
G1 X61.424 Y43.648 E17.07767
G1 X61.834 Y43.104 E17.10032
G1 X62.305 Y42.613 E17.12295
G1 X62.83 Y42.179 E17.14561
G1 X63.402 Y41.81 E17.16825
G1 X64.014 Y41.511 E17.1909
G1 X64.656 Y41.286 E17.21353
G1 X65.321 Y41.137 E17.23619
G1 X66.252 Y41.062 E17.26726
G1 X71.079 Y41.062 E17.42781
G1 X71.693 Y41.098 E17.44826
G1 X72.143 Y41.062 E17.46328
G1 X77.981 Y41.062 E17.65745
G1 X78.042 Y40.86 E17.66447
G1 X78.314 Y40.236 E17.68711
G1 X78.658 Y39.648 E17.70977
G1 X79.068 Y39.104 E17.73242
G1 X79.539 Y38.613 E17.75505
G1 X80.064 Y38.179 E17.77771
G1 X80.636 Y37.81 E17.80035
G1 X81.248 Y37.511 E17.823
G1 X81.89 Y37.286 E17.84563
G1 X82.555 Y37.137 E17.8683
G1 X83.486 Y37.062 E17.89936
G1 X88.486 Y37.062 E18.06566
G1 F2700 E13.06566
G0 F6000 X88.486 Y40.262
G1 F2700 E18.06566
G1 F1200 X88.94 Y40.302 E18.08082
G1 X89.38 Y40.42 E18.09597
G1 X89.792 Y40.614 E18.11112
G1 X90.165 Y40.877 E18.1263
G1 X90.486 Y41.2 E18.14145
G1 X90.745 Y41.575 E18.1566
G1 X90.935 Y41.989 E18.17175
G1 X91.05 Y42.43 E18.18691
G1 X91.086 Y42.862 E18.20133
G1 X91.086 Y62.862 E18.86653
G1 X91.046 Y63.316 E18.88169
G1 X90.928 Y63.756 E18.89684
G1 X90.734 Y64.168 E18.91199
G1 X90.471 Y64.541 E18.92717
G1 X90.148 Y64.862 E18.94232
G1 X89.773 Y65.121 E18.95747
G1 X89.359 Y65.311 E18.97262
G1 X88.918 Y65.426 E18.98778
G1 X88.486 Y65.462 E19.0022
G1 X83.486 Y65.462 E19.1685
G1 X83.032 Y65.422 E19.18366
G1 X82.592 Y65.304 E19.19881
G1 X82.18 Y65.11 E19.21396
G1 X81.807 Y64.847 E19.22914
G1 X81.486 Y64.524 E19.24428
G1 X81.227 Y64.149 E19.25944
G1 X81.037 Y63.735 E19.27459
G1 X80.922 Y63.294 E19.28975
G1 X80.886 Y62.862 E19.30417
G1 X80.886 Y61.462 E19.35073
G1 X72.144 Y61.462 E19.64149
G1 X71.69 Y61.422 E19.65665
G1 X71.08 Y61.462 E19.67698
G1 X66.252 Y61.462 E19.83756
G1 X65.798 Y61.422 E19.85272
G1 X65.358 Y61.304 E19.86787
G1 X64.946 Y61.11 E19.88302
G1 X64.573 Y60.847 E19.8982
G1 X64.252 Y60.524 E19.91335
G1 X63.993 Y60.149 E19.92851
G1 X63.803 Y59.735 E19.94366
G1 X63.688 Y59.294 E19.95881
G1 X63.652 Y58.862 E19.97323
G1 X63.652 Y46.862 E20.37235
G1 X63.692 Y46.408 E20.38751
G1 X63.81 Y45.968 E20.40266
G1 X64.004 Y45.556 E20.41781
G1 X64.267 Y45.183 E20.43299
G1 X64.59 Y44.862 E20.44814
G1 X64.965 Y44.603 E20.46329
G1 X65.379 Y44.413 E20.47844
G1 X65.82 Y44.298 E20.4936
G1 X66.252 Y44.262 E20.50802
G1 X71.079 Y44.262 E20.66857
G1 X71.533 Y44.302 E20.68373
G1 X72.143 Y44.262 E20.70406
G1 X80.886 Y44.262 E20.99485
G1 X80.886 Y42.862 E21.04142
G1 X80.926 Y42.408 E21.05657
G1 X81.044 Y41.968 E21.07173
G1 X81.238 Y41.556 E21.08687
G1 X81.501 Y41.183 E21.10205
G1 X81.824 Y40.862 E21.1172
G1 X82.199 Y40.603 E21.13236
G1 X82.613 Y40.413 E21.14751
G1 X83.054 Y40.298 E21.16267
G1 X83.486 Y40.262 E21.17708
G1 X88.486 Y40.262 E21.34338
G1 F2700 E16.34338
G0 F6000 X83.286 Y42.197
G0 X83.286 Y42.862
G1 F2700 E21.34338
G1 F1200 X83.325 Y42.743 E21.34755
G1 X83.486 Y42.662 E21.35354
G1 X88.486 Y42.662 E21.51984
G1 X88.605 Y42.701 E21.52401
G1 X88.686 Y42.862 E21.53
G1 X88.686 Y62.862 E22.19521
G1 X88.647 Y62.981 E22.19937
G1 X88.486 Y63.062 E22.20537
G1 X83.486 Y63.062 E22.37167
G1 X83.367 Y63.023 E22.37583
G1 X83.286 Y62.862 E22.38183
G1 X83.286 Y59.062 E22.50822
G1 X72.144 Y59.062 E22.8788
G1 X72.025 Y59.023 E22.88296
G1 X71.944 Y58.862 E22.88896
G1 X71.943 Y54.862 E23.022
G1 X71.982 Y54.743 E23.02616
G1 X72.143 Y54.662 E23.03216
G1 X83.286 Y54.662 E23.40278
G1 X83.286 Y51.062 E23.52251
G1 X72.144 Y51.062 E23.8931
G1 X72.025 Y51.023 E23.89726
G1 X71.944 Y50.862 E23.90326
G1 X71.943 Y46.862 E24.0363
G1 X71.982 Y46.743 E24.04046
G1 X72.143 Y46.662 E24.04646
G1 X83.286 Y46.662 E24.41707
G1 X83.286 Y42.862 E24.54346
G0 F6000 X82.886 Y42.862
G1 F1200 X82.926 Y42.647 E24.55074
G1 X83.039 Y42.461 E24.55798
G1 X83.212 Y42.328 E24.56523
G1 X83.486 Y42.262 E24.57461
G1 X88.486 Y42.262 E24.74091
G1 X88.701 Y42.302 E24.74818
G1 X88.887 Y42.415 E24.75542
G1 X89.02 Y42.588 E24.76268
G1 X89.086 Y42.862 E24.77205
G1 X89.086 Y62.862 E25.43725
G1 X89.046 Y63.077 E25.44453
G1 X88.933 Y63.263 E25.45177
G1 X88.76 Y63.396 E25.45902
G1 X88.486 Y63.462 E25.4684
G1 X83.486 Y63.462 E25.6347
G1 X83.271 Y63.422 E25.64197
G1 X83.085 Y63.309 E25.64921
G1 X82.952 Y63.136 E25.65647
G1 X82.886 Y62.862 E25.66584
G1 X82.886 Y59.462 E25.77893
G1 X72.144 Y59.462 E26.13621
G1 X71.929 Y59.422 E26.14348
G1 X71.743 Y59.309 E26.15072
G1 X71.608 Y59.129 E26.1582
G1 X71.527 Y59.263 E26.16341
G1 X71.354 Y59.396 E26.17067
G1 X71.08 Y59.462 E26.18004
G1 X66.252 Y59.462 E26.34062
G1 X66.037 Y59.422 E26.3479
G1 X65.851 Y59.309 E26.35514
G1 X65.718 Y59.136 E26.36239
G1 X65.652 Y58.862 E26.37177
G1 X65.652 Y46.862 E26.77089
G1 X65.692 Y46.647 E26.77816
G1 X65.805 Y46.461 E26.7854
G1 X65.978 Y46.328 E26.79266
G1 X66.252 Y46.262 E26.80203
G1 X71.079 Y46.262 E26.96258
G1 X71.294 Y46.302 E26.96985
G1 X71.48 Y46.415 E26.97709
G1 X71.615 Y46.595 E26.98458
G1 X71.696 Y46.461 E26.98978
G1 X71.869 Y46.328 E26.99704
G1 X72.143 Y46.262 E27.00642
G1 X82.886 Y46.262 E27.36373
G1 X82.886 Y42.862 E27.47681
G0 F6000 X82.486 Y42.862
G1 F1200 X82.526 Y42.583 E27.48619
G1 X82.642 Y42.326 E27.49557
G1 X82.825 Y42.111 E27.50496
G1 X83.061 Y41.957 E27.51433
G1 X83.331 Y41.874 E27.52372
G1 X83.486 Y41.862 E27.5289
G1 X88.486 Y41.862 E27.6952
G1 X88.765 Y41.902 E27.70457
G1 X89.022 Y42.018 E27.71395
G1 X89.237 Y42.201 E27.72334
G1 X89.391 Y42.437 E27.73271
G1 X89.474 Y42.707 E27.74211
G1 X89.486 Y42.862 E27.74728
G1 X89.486 Y62.862 E28.41248
G1 X89.446 Y63.141 E28.42185
G1 X89.33 Y63.398 E28.43123
G1 X89.147 Y63.613 E28.44062
G1 X88.911 Y63.767 E28.45
G1 X88.641 Y63.85 E28.45939
G1 X88.486 Y63.862 E28.46456
G1 X83.486 Y63.862 E28.63086
G1 X83.207 Y63.822 E28.64024
G1 X82.95 Y63.706 E28.64962
G1 X82.735 Y63.523 E28.65901
G1 X82.581 Y63.287 E28.66838
G1 X82.498 Y63.017 E28.67777
G1 X82.486 Y62.862 E28.68294
G1 X82.486 Y59.862 E28.78272
G1 X72.144 Y59.862 E29.1267
G1 X71.865 Y59.822 E29.13608
G1 X71.604 Y59.702 E29.14563
G1 X71.235 Y59.85 E29.15885
G1 X71.08 Y59.862 E29.16402
G1 X66.252 Y59.862 E29.3246
G1 X65.973 Y59.822 E29.33398
G1 X65.716 Y59.706 E29.34336
G1 X65.501 Y59.523 E29.35275
G1 X65.347 Y59.287 E29.36212
G1 X65.264 Y59.017 E29.37151
G1 X65.252 Y58.862 E29.37669
G1 X65.252 Y46.862 E29.77581
G1 X65.292 Y46.583 E29.78518
G1 X65.408 Y46.326 E29.79456
G1 X65.591 Y46.111 E29.80395
G1 X65.827 Y45.957 E29.81332
G1 X66.097 Y45.874 E29.82272
G1 X66.252 Y45.862 E29.82789
G1 X71.079 Y45.862 E29.98844
G1 X71.358 Y45.902 E29.99781
G1 X71.619 Y46.022 E30.00736
G1 X71.988 Y45.874 E30.02059
G1 X72.143 Y45.862 E30.02576
G1 X82.486 Y45.862 E30.36977
G1 X82.486 Y42.862 E30.46955
G0 F6000 X82.086 Y42.862
G1 F1200 X82.126 Y42.53 E30.48067
G1 X82.243 Y42.218 E30.49175
G1 X82.431 Y41.941 E30.50289
G1 X82.679 Y41.718 E30.51398
G1 X82.973 Y41.559 E30.5251
G1 X83.297 Y41.475 E30.53623
G1 X83.486 Y41.462 E30.54253
G1 X88.486 Y41.462 E30.70883
G1 X88.818 Y41.502 E30.71995
G1 X89.13 Y41.619 E30.73104
G1 X89.407 Y41.807 E30.74217
G1 X89.63 Y42.055 E30.75326
G1 X89.789 Y42.349 E30.76438
G1 X89.873 Y42.673 E30.77551
G1 X89.886 Y42.862 E30.78182
G1 X89.886 Y62.862 E31.44702
G1 X89.846 Y63.194 E31.45814
G1 X89.729 Y63.506 E31.46922
G1 X89.541 Y63.783 E31.48036
G1 X89.293 Y64.006 E31.49145
G1 X88.999 Y64.165 E31.50257
G1 X88.675 Y64.249 E31.5137
G1 X88.486 Y64.262 E31.52
G1 X83.486 Y64.262 E31.6863
G1 X83.154 Y64.222 E31.69742
G1 X82.842 Y64.105 E31.70851
G1 X82.565 Y63.917 E31.71964
G1 X82.342 Y63.669 E31.73073
G1 X82.183 Y63.375 E31.74185
G1 X82.099 Y63.051 E31.75298
G1 X82.086 Y62.862 E31.75928
G1 X82.086 Y60.262 E31.84576
G1 X72.144 Y60.262 E32.17643
G1 X71.812 Y60.222 E32.18756
G1 X71.593 Y60.165 E32.19508
G1 X71.27 Y60.249 E32.20618
G1 X71.08 Y60.262 E32.21252
G1 X66.252 Y60.262 E32.3731
G1 X65.92 Y60.222 E32.38422
G1 X65.608 Y60.105 E32.3953
G1 X65.331 Y59.917 E32.40644
G1 X65.108 Y59.669 E32.41753
G1 X64.949 Y59.375 E32.42865
G1 X64.865 Y59.051 E32.43978
G1 X64.852 Y58.862 E32.44608
G1 X64.852 Y46.862 E32.8452
G1 X64.892 Y46.53 E32.85632
G1 X65.009 Y46.218 E32.86741
G1 X65.197 Y45.941 E32.87854
G1 X65.445 Y45.718 E32.88963
G1 X65.739 Y45.559 E32.90075
G1 X66.063 Y45.475 E32.91188
G1 X66.252 Y45.462 E32.91818
G1 X71.079 Y45.462 E33.07873
G1 X71.411 Y45.502 E33.08985
G1 X71.63 Y45.559 E33.09738
G1 X71.953 Y45.475 E33.10848
G1 X72.143 Y45.462 E33.11481
G1 X82.086 Y45.462 E33.44552
G1 X82.086 Y42.862 E33.532
G0 F6000 X81.686 Y42.862
G1 F1200 X81.726 Y42.485 E33.54461
G1 X81.844 Y42.125 E33.55721
G1 X82.034 Y41.798 E33.56978
G1 X82.289 Y41.517 E33.58241
G1 X82.598 Y41.297 E33.59502
G1 X82.945 Y41.145 E33.60762
G1 X83.486 Y41.062 E33.62583
G1 X88.486 Y41.062 E33.79213
G1 X88.863 Y41.102 E33.80474
G1 X89.223 Y41.22 E33.81734
G1 X89.55 Y41.41 E33.82991
G1 X89.831 Y41.665 E33.84254
G1 X90.051 Y41.974 E33.85515
G1 X90.203 Y42.321 E33.86775
G1 X90.286 Y42.862 E33.88596
G1 X90.286 Y62.862 E34.55116
G1 X90.246 Y63.239 E34.56377
G1 X90.128 Y63.599 E34.57637
G1 X89.938 Y63.926 E34.58895
G1 X89.683 Y64.207 E34.60157
G1 X89.374 Y64.427 E34.61418
G1 X89.027 Y64.579 E34.62678
G1 X88.486 Y64.662 E34.64499
G1 X83.486 Y64.662 E34.81129
G1 X83.109 Y64.622 E34.8239
G1 X82.749 Y64.504 E34.8365
G1 X82.422 Y64.314 E34.84908
G1 X82.141 Y64.059 E34.8617
G1 X81.921 Y63.75 E34.87431
G1 X81.769 Y63.403 E34.88691
G1 X81.686 Y62.862 E34.90512
G1 X81.686 Y60.662 E34.97829
G1 X72.144 Y60.662 E35.29566
G1 X71.767 Y60.622 E35.30827
G1 X71.621 Y60.579 E35.31333
G1 X71.08 Y60.662 E35.33154
G1 X66.252 Y60.662 E35.49211
G1 X65.875 Y60.622 E35.50472
